;FLAVOR:Marlin
;TIME:28907
;Filament used: 22.2847m
;Layer height: 0.2
;MINX:67.892
;MINY:67.835
;MINZ:0.24
;MAXX:152.164
;MAXY:152.165
;MAXZ:98.49
;Generated with Cura_SteamEngine 4.9.1
M140 S60
M105
M190 S60
M104 S200
M105
M109 S200
M82 ;absolute extrusion mode
; Ender 3 Custom Start G-code
G92 E0 ; Reset Extruder
G28 ; Home all axes
G1 Z2.0 F3000 ; Move Z Axis up little to prevent scratching of Heat Bed
G1 X0.1 Y20 Z0.3 F5000.0 ; Move to start position
G1 X0.1 Y200.0 Z0.3 F1500.0 E15 ; Draw the first line
G1 X0.4 Y200.0 Z0.3 F5000.0 ; Move to side a little
G1 X0.4 Y20 Z0.3 F1500.0 E30 ; Draw the second line
G92 E0 ; Reset Extruder
G1 Z2.0 F3000 ; Move Z Axis up little to prevent scratching of Heat Bed
G1 X5 Y20 Z0.3 F5000.0 ; Move over to prevent blob squish
G92 E0
G92 E0
G1 F1500 E-6.5
;LAYER_COUNT:487
;LAYER:-6
M107
G0 F9000 X72.154 Y72.469 Z0.24
;TYPE:SUPPORT-INTERFACE
G1 F1500 E0
G1 F1125 X72.51 Y72.115 E0.04008
G1 X72.63 Y72.001 E0.05329
G1 X73.069 Y71.604 E0.10053
G1 X73.273 Y71.438 E0.12153
G1 X73.997 Y70.916 E0.19278
G1 X74.131 Y70.826 E0.20566
G1 X74.571 Y70.55 E0.24712
G1 X74.665 Y70.494 E0.25586
G1 X75.204 Y70.188 E0.30533
G1 X75.457 Y70.064 E0.32782
G1 X76.302 Y69.704 E0.40114
G1 X76.423 Y69.657 E0.4115
G1 X76.917 Y69.483 E0.45331
G1 X77.05 Y69.44 E0.46447
G1 X77.622 Y69.27 E0.5121
G1 X77.883 Y69.208 E0.53352
G1 X78.816 Y69.04 E0.60919
G1 X78.949 Y69.02 E0.61993
G1 X79.482 Y68.96 E0.66274
G1 X79.589 Y68.951 E0.67131
G1 X80.431 Y68.904 E0.73863
G1 X80.585 Y68.9 E0.75093
G1 X139.423 Y68.9 E5.44763
G1 X139.562 Y68.904 E5.45873
G1 X140.428 Y68.953 E5.52797
G1 X140.554 Y68.964 E5.53806
G1 X141.072 Y69.023 E5.57968
G1 X141.198 Y69.041 E5.58984
G1 X141.809 Y69.14 E5.63925
G1 X142.075 Y69.198 E5.66098
G1 X142.979 Y69.451 E5.73592
G1 X143.096 Y69.488 E5.74571
G1 X143.607 Y69.668 E5.78896
G1 X143.699 Y69.703 E5.79681
G1 X144.28 Y69.938 E5.84684
G1 X144.533 Y70.058 E5.86919
G1 X145.336 Y70.495 E5.94217
G1 X145.491 Y70.586 E5.95652
G1 X145.887 Y70.837 E5.99394
G1 X146.034 Y70.935 E6.00805
G1 X146.533 Y71.284 E6.05665
G1 X146.725 Y71.436 E6.0762
G1 X147.413 Y72.043 E6.14944
G1 X147.522 Y72.145 E6.16136
G1 X147.879 Y72.503 E6.20171
G1 X147.986 Y72.616 E6.21414
G1 X148.396 Y73.069 E6.26291
G1 X148.562 Y73.273 E6.2839
G1 X149.084 Y73.998 E6.35522
G1 X149.172 Y74.128 E6.36775
G1 X149.45 Y74.571 E6.4095
G1 X149.506 Y74.665 E6.41823
G1 X149.81 Y75.2 E6.46735
G1 X149.94 Y75.464 E6.49084
G1 X150.296 Y76.302 E6.56352
G1 X150.348 Y76.436 E6.57499
G1 X150.512 Y76.904 E6.61458
G1 X150.56 Y77.049 E6.62677
G1 X150.73 Y77.622 E6.67448
G1 X150.792 Y77.883 E6.69589
G1 X150.959 Y78.806 E6.77077
G1 X150.98 Y78.949 E6.7823
G1 X151.04 Y79.482 E6.82512
G1 X151.049 Y79.585 E6.83337
G1 X151.096 Y80.431 E6.90101
G1 X151.1 Y80.575 E6.91251
G1 X151.1 Y139.423 E11.61001
G1 X151.096 Y139.562 E11.62111
G1 X151.048 Y140.42 E11.6897
G1 X151.037 Y140.545 E11.69972
G1 X150.977 Y141.072 E11.74206
G1 X150.959 Y141.198 E11.75222
G1 X150.862 Y141.801 E11.80097
G1 X150.802 Y142.075 E11.82336
G1 X150.553 Y142.966 E11.89721
G1 X150.512 Y143.096 E11.90809
G1 X150.335 Y143.599 E11.95066
G1 X150.297 Y143.699 E11.9592
G1 X150.065 Y144.273 E12.00862
G1 X149.942 Y144.533 E12.03158
G1 X149.505 Y145.336 E12.10455
G1 X149.419 Y145.483 E12.11815
G1 X149.173 Y145.872 E12.15489
G1 X149.07 Y146.027 E12.16974
G1 X148.716 Y146.533 E12.21904
G1 X148.564 Y146.725 E12.23859
G1 X147.939 Y147.433 E12.31397
G1 X147.863 Y147.514 E12.32284
G1 X147.497 Y147.879 E12.3641
G1 X147.384 Y147.986 E12.37652
G1 X146.931 Y148.396 E12.42529
G1 X146.727 Y148.562 E12.44629
G1 X146.003 Y149.084 E12.51753
G1 X145.869 Y149.174 E12.53042
G1 X145.429 Y149.45 E12.57188
G1 X145.335 Y149.506 E12.58061
G1 X144.796 Y149.812 E12.63009
G1 X144.543 Y149.936 E12.65258
G1 X143.698 Y150.296 E12.7259
G1 X143.577 Y150.343 E12.73626
G1 X143.083 Y150.517 E12.77807
G1 X142.951 Y150.56 E12.78915
G1 X142.378 Y150.73 E12.83686
G1 X142.117 Y150.792 E12.85827
G1 X141.184 Y150.96 E12.93395
G1 X141.051 Y150.98 E12.94468
G1 X140.518 Y151.04 E12.9875
G1 X140.411 Y151.049 E12.99607
G1 X139.569 Y151.096 E13.06339
G1 X139.416 Y151.1 E13.0756
G1 X80.577 Y151.1 E17.77239
G1 X80.438 Y151.096 E17.78349
G1 X79.572 Y151.047 E17.85273
G1 X79.446 Y151.036 E17.86282
G1 X78.928 Y150.977 E17.90444
G1 X78.802 Y150.959 E17.9146
G1 X78.191 Y150.86 E17.96401
G1 X77.925 Y150.802 E17.98574
G1 X77.021 Y150.549 E18.06067
G1 X76.904 Y150.512 E18.07047
G1 X76.393 Y150.332 E18.11372
G1 X76.301 Y150.297 E18.12157
G1 X75.72 Y150.062 E18.1716
G1 X75.467 Y149.942 E18.19395
G1 X74.659 Y149.502 E18.26739
G1 X74.509 Y149.414 E18.28128
G1 X74.105 Y149.158 E18.31945
G1 X73.966 Y149.065 E18.3328
G1 X73.467 Y148.716 E18.38141
G1 X73.267 Y148.557 E18.40181
G1 X72.567 Y147.939 E18.47635
G1 X72.469 Y147.846 E18.48713
G1 X72.115 Y147.49 E18.52721
G1 X72.014 Y147.384 E18.53889
G1 X71.614 Y146.942 E18.58648
G1 X71.429 Y146.714 E18.60992
G1 X70.916 Y146.003 E18.6799
G1 X70.826 Y145.869 E18.69279
G1 X70.545 Y145.421 E18.735
G1 X70.494 Y145.335 E18.74298
G1 X70.188 Y144.796 E18.79246
G1 X70.06 Y144.536 E18.81559
G1 X69.699 Y143.686 E18.88931
G1 X69.652 Y143.564 E18.89974
G1 X69.483 Y143.083 E18.94044
G1 X69.44 Y142.95 E18.9516
G1 X69.27 Y142.378 E18.99923
G1 X69.208 Y142.117 E19.02064
G1 X69.039 Y141.181 E19.09657
G1 X69.02 Y141.046 E19.10745
G1 X68.96 Y140.518 E19.14987
G1 X68.95 Y140.402 E19.15916
G1 X68.904 Y139.569 E19.22576
G1 X68.9 Y139.426 E19.23718
G1 X68.9 Y80.577 E23.93476
G1 X68.904 Y80.438 E23.94586
G1 X68.952 Y79.58 E24.01446
G1 X68.963 Y79.455 E24.02447
G1 X69.023 Y78.928 E24.06681
G1 X69.041 Y78.802 E24.07697
G1 X69.138 Y78.199 E24.12572
G1 X69.199 Y77.922 E24.14837
G1 X69.447 Y77.034 E24.22196
G1 X69.486 Y76.91 E24.23234
G1 X69.672 Y76.383 E24.27695
G1 X69.703 Y76.301 E24.28395
G1 X69.935 Y75.727 E24.33337
G1 X70.058 Y75.467 E24.35633
G1 X70.495 Y74.664 E24.4293
G1 X70.586 Y74.509 E24.44365
G1 X70.827 Y74.128 E24.47964
G1 X70.93 Y73.973 E24.49449
G1 X71.284 Y73.467 E24.54379
G1 X71.436 Y73.275 E24.56333
G1 X72.052 Y72.577 E24.63765
G1 X72.154 Y72.469 E24.6495
G1 F1500 E18.1495
G0 F9000 X71.403 Y71.714
G0 X90.518 Y90.355
G0 X89.783 Y89.582
G1 F1500 E24.6495
G1 F1125 X89.319 Y90.082 E24.70395
G1 X88.92 Y90.638 E24.75858
G1 X88.596 Y91.238 E24.81301
G1 X88.35 Y91.874 E24.86745
G1 X88.184 Y92.543 E24.92247
G1 X88.1 Y93.482 E24.99772
G1 X88.1 Y126.513 E27.6344
G1 X88.142 Y127.181 E27.68783
G1 X88.271 Y127.852 E27.74237
G1 X88.484 Y128.501 E27.7969
G1 X88.776 Y129.118 E27.85139
G1 X89.144 Y129.693 E27.90588
G1 X89.582 Y130.217 E27.9604
G1 X90.082 Y130.681 E28.01485
G1 X90.638 Y131.08 E28.06947
G1 X91.238 Y131.404 E28.12391
G1 X91.874 Y131.65 E28.17834
G1 X92.543 Y131.816 E28.23336
G1 X93.482 Y131.9 E28.30862
G1 X126.513 Y131.9 E30.94529
G1 X127.181 Y131.858 E30.99872
G1 X127.852 Y131.729 E31.05326
G1 X128.501 Y131.516 E31.10779
G1 X129.118 Y131.224 E31.16228
G1 X129.693 Y130.856 E31.21677
G1 X130.217 Y130.418 E31.27129
G1 X130.681 Y129.918 E31.32574
G1 X131.08 Y129.362 E31.38037
G1 X131.404 Y128.762 E31.4348
G1 X131.65 Y128.126 E31.48923
G1 X131.816 Y127.457 E31.54425
G1 X131.9 Y126.518 E31.61951
G1 X131.9 Y93.487 E34.25618
G1 X131.858 Y92.819 E34.30961
G1 X131.729 Y92.148 E34.36416
G1 X131.516 Y91.499 E34.41868
G1 X131.224 Y90.882 E34.47317
G1 X130.856 Y90.307 E34.52766
G1 X130.418 Y89.783 E34.58218
G1 X129.918 Y89.319 E34.63663
G1 X129.362 Y88.92 E34.69126
G1 X128.762 Y88.596 E34.74569
G1 X128.126 Y88.35 E34.80012
G1 X127.457 Y88.184 E34.85514
G1 X126.518 Y88.1 E34.9304
G1 X93.487 Y88.1 E37.56708
G1 X92.819 Y88.142 E37.6205
G1 X92.148 Y88.271 E37.67505
G1 X91.499 Y88.484 E37.72957
G1 X90.882 Y88.776 E37.78406
G1 X90.307 Y89.144 E37.83855
G1 X89.783 Y89.582 E37.89307
G0 F9000 X89.6 Y89.78
G1 F1125 X89.6 Y68.9 E39.5598
G0 F9000 X88 Y68.9
G1 F1125 X88 Y151.1 E46.12136
G0 F9000 X86.4 Y151.1
G1 F1125 X86.4 Y68.9 E52.68292
G0 F9000 X84.8 Y68.9
G1 F1125 X84.8 Y151.1 E59.24448
G0 F9000 X83.2 Y151.1
G1 F1125 X83.2 Y68.9 E65.80604
G0 F9000 X81.6 Y68.9
G1 F1125 X81.6 Y151.1 E72.3676
G0 F9000 X80 Y151.071
G1 F1125 X80 Y68.928 E78.92461
G0 F9000 X78.4 Y69.114
G1 F1125 X78.4 Y150.893 E85.45256
G0 F9000 X76.8 Y150.475
G1 F1125 X76.8 Y69.524 E91.91442
G0 F9000 X75.2 Y70.19
G1 F1125 X75.2 Y149.796 E98.26892
G0 F9000 X73.6 Y148.809
G1 F1125 X73.6 Y71.202 E104.46384
G0 F9000 X72 Y72.635
G1 F1125 X72 Y147.368 E110.42935
G0 F9000 X70.4 Y145.169
G1 F1125 X70.4 Y74.838 E116.04348
G1 F1500 E109.54348
G0 F9000 X69.68 Y73.95
G0 X70.621 Y72.59
G0 X71.91 Y71.216
G0 X72.628 Y70.592
G0 X74.126 Y69.576
G0 X75.01 Y69.097
G0 X76.729 Y68.425
G0 X77.676 Y68.163
G0 X79.516 Y67.89
G0 X79.813 Y67.875
G0 X91.2 Y67.835
G0 X91.2 Y68.9
G1 F1500 E116.04348
G1 F1125 X91.2 Y88.626 E117.61809
G0 F9000 X92.8 Y88.146
G1 F1125 X92.8 Y68.9 E119.15439
G0 F9000 X94.4 Y68.9
G1 F1125 X94.4 Y88.1 E120.68702
G0 F9000 X96 Y88.1
G1 F1125 X96 Y68.9 E122.21965
G0 F9000 X97.6 Y68.9
G1 F1125 X97.6 Y88.1 E123.75227
G0 F9000 X99.2 Y88.1
G1 F1125 X99.2 Y68.9 E125.2849
G0 F9000 X100.8 Y68.9
G1 F1125 X100.8 Y88.1 E126.81753
G0 F9000 X102.4 Y88.1
G1 F1125 X102.4 Y68.9 E128.35015
G0 F9000 X104 Y68.9
G1 F1125 X104 Y88.1 E129.88278
G0 F9000 X105.6 Y88.1
G1 F1125 X105.6 Y68.9 E131.41541
G0 F9000 X107.2 Y68.9
G1 F1125 X107.2 Y88.1 E132.94804
G0 F9000 X108.8 Y88.1
G1 F1125 X108.8 Y68.9 E134.48066
G0 F9000 X110.4 Y68.9
G1 F1125 X110.4 Y88.1 E136.01329
G0 F9000 X112 Y88.1
G1 F1125 X112 Y68.9 E137.54592
G0 F9000 X113.6 Y68.9
G1 F1125 X113.6 Y88.1 E139.07854
G0 F9000 X115.2 Y88.1
G1 F1125 X115.2 Y68.9 E140.61117
G0 F9000 X116.8 Y68.9
G1 F1125 X116.8 Y88.1 E142.1438
G0 F9000 X118.4 Y88.1
G1 F1125 X118.4 Y68.9 E143.67642
G0 F9000 X120 Y68.9
G1 F1125 X120 Y88.1 E145.20905
G0 F9000 X121.6 Y88.1
G1 F1125 X121.6 Y68.9 E146.74168
G0 F9000 X123.2 Y68.9
G1 F1125 X123.2 Y88.1 E148.27431
G0 F9000 X124.8 Y88.1
G1 F1125 X124.8 Y68.9 E149.80693
G0 F9000 X126.4 Y68.9
G1 F1125 X126.4 Y88.1 E151.33956
G0 F9000 X128 Y88.318
G1 F1125 X128 Y68.9 E152.88959
G0 F9000 X129.6 Y68.9
G1 F1125 X129.6 Y89.09 E154.50124
G0 F9000 X131.2 Y90.844
G1 F1125 X131.2 Y68.9 E156.25291
G0 F9000 X132.8 Y68.9
G1 F1125 X132.8 Y151.1 E162.81447
G0 F9000 X131.2 Y151.1
G1 F1125 X131.2 Y129.139 E164.56749
G0 F9000 X129.6 Y130.915
G1 F1125 X129.6 Y151.1 E166.17874
G0 F9000 X128 Y151.1
G1 F1125 X128 Y131.68 E167.72893
G0 F9000 X126.4 Y131.9
G1 F1125 X126.4 Y151.1 E169.26156
G0 F9000 X124.8 Y151.1
G1 F1125 X124.8 Y131.9 E170.79418
G0 F9000 X123.2 Y131.9
G1 F1125 X123.2 Y151.1 E172.32681
G0 F9000 X121.6 Y151.1
G1 F1125 X121.6 Y131.9 E173.85944
G0 F9000 X120 Y131.9
G1 F1125 X120 Y151.1 E175.39207
G0 F9000 X118.4 Y151.1
G1 F1125 X118.4 Y131.9 E176.92469
G0 F9000 X116.8 Y131.9
G1 F1125 X116.8 Y151.1 E178.45732
G0 F9000 X115.2 Y151.1
G1 F1125 X115.2 Y131.9 E179.98995
G0 F9000 X113.6 Y131.9
G1 F1125 X113.6 Y151.1 E181.52257
G0 F9000 X112 Y151.1
G1 F1125 X112 Y131.9 E183.0552
G0 F9000 X110.4 Y131.9
G1 F1125 X110.4 Y151.1 E184.58783
G0 F9000 X108.8 Y151.1
G1 F1125 X108.8 Y131.9 E186.12045
G0 F9000 X107.2 Y131.9
G1 F1125 X107.2 Y151.1 E187.65308
G0 F9000 X105.6 Y151.1
G1 F1125 X105.6 Y131.9 E189.18571
G0 F9000 X104 Y131.9
G1 F1125 X104 Y151.1 E190.71834
G0 F9000 X102.4 Y151.1
G1 F1125 X102.4 Y131.9 E192.25096
G0 F9000 X100.8 Y131.9
G1 F1125 X100.8 Y151.1 E193.78359
G0 F9000 X99.2 Y151.1
G1 F1125 X99.2 Y131.9 E195.31622
G0 F9000 X97.6 Y131.9
G1 F1125 X97.6 Y151.1 E196.84884
G0 F9000 X96 Y151.1
G1 F1125 X96 Y131.9 E198.38147
G0 F9000 X94.4 Y131.9
G1 F1125 X94.4 Y151.1 E199.9141
G0 F9000 X92.8 Y151.1
G1 F1125 X92.8 Y131.839 E201.45159
G0 F9000 X91.2 Y131.384
G1 F1125 X91.2 Y151.1 E203.02541
G0 F9000 X89.6 Y151.1
G1 F1125 X89.6 Y130.234 E204.69102
G1 F1500 E198.19102
G0 F9000 X90.757 Y129.856
G0 X134.4 Y152.165
G0 X134.4 Y151.1
G1 F1500 E204.69102
G1 F1125 X134.4 Y68.9 E211.25258
G0 F9000 X136 Y68.9
G1 F1125 X136 Y151.1 E217.81414
G0 F9000 X137.6 Y151.1
G1 F1125 X137.6 Y68.9 E224.3757
G0 F9000 X139.2 Y68.9
G1 F1125 X139.2 Y151.1 E230.93726
G0 F9000 X140.8 Y151.009
G1 F1125 X140.8 Y68.993 E237.48413
G0 F9000 X142.4 Y69.289
G1 F1125 X142.4 Y150.724 E243.98463
G0 F9000 X144 Y150.168
G1 F1125 X144 Y69.825 E250.39795
G0 F9000 X145.6 Y70.656
G1 F1125 X145.6 Y149.343 E256.67909
G0 F9000 X147.2 Y148.153
G1 F1125 X147.2 Y71.856 E262.76945
G0 F9000 X148.8 Y73.604
G1 F1125 X148.8 Y146.413 E268.58138
G0 F9000 X150.4 Y143.415
G1 F1125 X150.4 Y76.585 E273.91604
G0 F300 X150.4 Y76.585 Z0.54
G0 F9000 X149.323 Y74.369
;TIME_ELAPSED:200.312577
;LAYER:-5
;TYPE:SUPPORT
G1 F1125 X145.625 Y70.671 E274.43786
G1 X145.49 Y70.586 E274.45378
G1 X145.335 Y70.495 E274.47172
G1 X144.531 Y70.058 E274.56302
G1 X144.279 Y69.938 E274.59087
G1 X143.698 Y69.703 E274.65341
G1 X143.606 Y69.668 E274.66323
G1 X143.095 Y69.488 E274.71729
G1 X142.995 Y69.456 E274.72777
G1 X150.545 Y77.006 E275.79315
G1 X150.559 Y77.048 E275.79757
G1 X150.729 Y77.621 E275.85721
G1 X150.791 Y77.882 E275.88397
G1 X150.958 Y78.806 E275.97766
G1 X150.963 Y78.838 E275.9809
G1 X141.161 Y69.036 E277.36406
G1 X141.071 Y69.022 E277.37315
G1 X140.553 Y68.964 E277.42516
G1 X140.427 Y68.952 E277.43779
G1 X139.618 Y68.907 E277.51864
G1 X151.093 Y80.382 E279.13788
G1 X151.095 Y80.431 E279.14278
G1 X151.098 Y80.574 E279.15705
G1 X151.098 Y81.802 E279.27958
G1 X138.196 Y68.899 E281.10026
G1 X136.782 Y68.899 E281.24135
G1 X151.098 Y83.216 E283.26156
G1 X151.098 Y84.63 E283.40265
G1 X135.367 Y68.899 E285.62247
G1 X133.953 Y68.899 E285.76356
G1 X151.098 Y86.044 E288.1829
G1 X151.098 Y87.459 E288.32409
G1 X132.539 Y68.899 E290.94304
G1 X131.125 Y68.899 E291.08413
G1 X151.098 Y88.873 E293.9026
G1 X151.098 Y90.287 E294.04369
G1 X129.71 Y68.899 E297.06177
G1 X128.296 Y68.899 E297.20286
G1 X151.098 Y91.701 E300.42047
G1 X151.098 Y93.116 E300.56166
G1 X126.882 Y68.899 E303.97887
G1 X125.468 Y68.899 E304.11996
G1 X151.098 Y94.53 E307.7367
G1 X151.098 Y95.944 E307.87779
G1 X124.054 Y68.899 E311.69406
G1 X122.639 Y68.899 E311.83525
G1 X151.098 Y97.358 E315.85112
G1 X151.098 Y98.772 E315.99221
G1 X121.225 Y68.899 E320.20761
G1 X119.811 Y68.899 E320.3487
G1 X151.098 Y100.187 E324.76371
G1 X151.098 Y101.601 E324.9048
G1 X118.397 Y68.899 E329.51933
G1 X116.983 Y68.899 E329.66042
G1 X151.098 Y103.015 E334.47449
G1 X151.098 Y104.429 E334.61558
G1 X115.568 Y68.899 E339.62924
G1 X114.154 Y68.899 E339.77033
G1 X151.098 Y105.843 E344.98353
G1 X151.098 Y107.258 E345.12472
G1 X112.74 Y68.899 E350.53752
G1 X111.326 Y68.899 E350.67861
G1 X151.098 Y108.672 E356.29094
G1 X151.098 Y110.086 E356.43203
G1 X109.911 Y68.899 E362.24396
G1 X108.497 Y68.899 E362.38505
G1 X127.889 Y88.291 E365.12147
G1 X127.456 Y88.183 E365.16599
G1 X126.516 Y88.099 E365.26016
G1 X126.283 Y88.099 E365.28341
G1 X107.083 Y68.899 E367.99274
G1 X105.669 Y68.899 E368.13383
G1 X124.869 Y88.099 E370.84316
G1 X123.455 Y88.099 E370.98424
G1 X104.255 Y68.899 E373.69357
G1 X102.84 Y68.899 E373.83476
G1 X122.04 Y88.099 E376.54409
G1 X120.626 Y88.099 E376.68518
G1 X101.426 Y68.899 E379.39451
G1 X100.012 Y68.899 E379.5356
G1 X119.212 Y88.099 E382.24492
G1 X117.798 Y88.099 E382.38601
G1 X98.598 Y68.899 E385.09534
G1 X97.184 Y68.899 E385.23643
G1 X116.384 Y88.099 E387.94576
G1 X114.969 Y88.099 E388.08695
G1 X95.769 Y68.899 E390.79627
G1 X94.355 Y68.899 E390.93736
G1 X113.555 Y88.099 E393.64669
G1 X112.141 Y88.099 E393.78778
G1 X92.941 Y68.899 E396.49711
G1 X91.527 Y68.899 E396.6382
G1 X110.727 Y88.099 E399.34752
G1 X109.313 Y88.099 E399.48861
G1 X90.112 Y68.899 E402.19801
G1 X88.698 Y68.899 E402.3391
G1 X107.898 Y88.099 E405.04843
G1 X106.484 Y88.099 E405.18952
G1 X87.284 Y68.899 E407.89884
G1 X85.87 Y68.899 E408.03993
G1 X105.07 Y88.099 E410.74926
G1 X103.656 Y88.099 E410.89035
G1 X84.456 Y68.899 E413.59968
G1 X83.041 Y68.899 E413.74087
G1 X102.241 Y88.099 E416.4502
G1 X100.827 Y88.099 E416.59128
G1 X81.627 Y68.899 E419.30061
G1 X80.584 Y68.899 E419.40468
G1 X80.429 Y68.904 E419.42016
G1 X80.229 Y68.915 E419.44014
G1 X99.413 Y88.099 E422.14721
G1 X97.999 Y88.099 E422.2883
G1 X78.923 Y69.024 E424.98006
G1 X78.814 Y69.039 E424.99104
G1 X77.882 Y69.208 E425.08555
G1 X77.73 Y69.244 E425.10114
