;FLAVOR:Marlin
;TIME:5856
;Filament used: 4.83552m
;Layer height: 0.2
;MINX:67.836
;MINY:67.835
;MINZ:0.24
;MAXX:152.164
;MAXY:152.165
;MAXZ:16.09
;Generated with Cura_SteamEngine 4.9.1
M140 S60
M105
M190 S60
M104 S200
M105
M109 S200
M82 ;absolute extrusion mode
; Ender 3 Custom Start G-code
G92 E0 ; Reset Extruder
G28 ; Home all axes
G1 Z2.0 F3000 ; Move Z Axis up little to prevent scratching of Heat Bed
G1 X0.1 Y20 Z0.3 F5000.0 ; Move to start position
G1 X0.1 Y200.0 Z0.3 F1500.0 E15 ; Draw the first line
G1 X0.4 Y200.0 Z0.3 F5000.0 ; Move to side a little
G1 X0.4 Y20 Z0.3 F1500.0 E30 ; Draw the second line
G92 E0 ; Reset Extruder
G1 Z2.0 F3000 ; Move Z Axis up little to prevent scratching of Heat Bed
G1 X5 Y20 Z0.3 F5000.0 ; Move over to prevent blob squish
G92 E0
G92 E0
G1 F1500 E-6.5
;LAYER_COUNT:75
;LAYER:-6
M107
G0 F9000 X72.389 Y72.216 Z0.24
;TYPE:SUPPORT-INTERFACE
G1 F1500 E0
G1 F1125 X72.899 Y71.753 E0.05498
G1 X72.956 Y71.704 E0.06098
G1 X73.319 Y71.406 E0.09847
G1 X73.422 Y71.325 E0.10893
G1 X73.943 Y70.937 E0.16079
G1 X74.11 Y70.826 E0.17679
G1 X74.763 Y70.432 E0.23767
G1 X74.845 Y70.386 E0.24518
G1 X75.341 Y70.123 E0.28999
G1 X75.966 Y69.829 E0.34513
G1 X76.131 Y69.76 E0.3594
G1 X76.841 Y69.506 E0.4196
G1 X76.947 Y69.471 E0.42851
G1 X77.468 Y69.316 E0.4719
G1 X78.103 Y69.157 E0.52415
G1 X78.315 Y69.114 E0.54142
G1 X79.044 Y69.003 E0.60028
G1 X79.585 Y68.948 E0.64369
G1 X80.443 Y68.904 E0.71227
G1 X80.59 Y68.9 E0.72401
G1 X139.424 Y68.901 E5.42039
G1 X139.566 Y68.904 E5.43173
G1 X140.319 Y68.943 E5.49192
G1 X140.447 Y68.953 E5.50216
G1 X140.918 Y69 E5.53995
G1 X141.648 Y69.108 E5.59885
G1 X141.873 Y69.152 E5.61716
G1 X142.546 Y69.32 E5.67253
G1 X142.648 Y69.348 E5.68097
G1 X143.067 Y69.476 E5.71594
G1 X143.233 Y69.531 E5.7299
G1 X143.802 Y69.733 E5.7781
G1 X144.02 Y69.823 E5.79692
G1 X144.686 Y70.137 E5.8557
G1 X144.784 Y70.186 E5.86445
G1 X145.181 Y70.4 E5.90045
G1 X145.277 Y70.454 E5.90924
G1 X145.838 Y70.791 E5.96148
G1 X146.011 Y70.906 E5.97806
G1 X146.669 Y71.396 E6.04355
G1 X147.044 Y71.706 E6.08239
G1 X147.159 Y71.807 E6.09461
G1 X147.607 Y72.213 E6.14287
G1 X147.784 Y72.389 E6.16279
G1 X148.247 Y72.899 E6.21778
G1 X148.296 Y72.956 E6.22378
G1 X148.594 Y73.319 E6.26127
G1 X148.675 Y73.422 E6.27173
G1 X149.063 Y73.943 E6.32358
G1 X149.171 Y74.104 E6.33906
G1 X149.568 Y74.763 E6.40047
G1 X149.614 Y74.845 E6.40797
G1 X149.839 Y75.267 E6.44615
G1 X149.882 Y75.352 E6.45375
G1 X150.173 Y75.97 E6.50828
G1 X150.24 Y76.131 E6.5222
G1 X150.494 Y76.841 E6.58239
G1 X150.529 Y76.947 E6.5913
G1 X150.681 Y77.456 E6.63371
G1 X150.845 Y78.11 E6.68753
G1 X150.886 Y78.315 E6.70421
G1 X150.997 Y79.044 E6.76308
G1 X151.051 Y79.576 E6.80576
G1 X151.059 Y79.701 E6.81576
G1 X151.096 Y80.433 E6.87427
G1 X151.1 Y80.58 E6.88601
G1 X151.099 Y139.424 E11.58319
G1 X151.096 Y139.566 E11.59453
G1 X151.057 Y140.319 E11.65471
G1 X151.048 Y140.438 E11.66424
G1 X151 Y140.918 E11.70275
G1 X150.892 Y141.648 E11.76165
G1 X150.85 Y141.864 E11.77922
G1 X150.68 Y142.546 E11.83532
G1 X150.652 Y142.648 E11.84377
G1 X150.527 Y143.058 E11.87798
G1 X150.472 Y143.225 E11.89202
G1 X150.267 Y143.802 E11.9409
G1 X150.177 Y144.02 E11.95972
G1 X149.867 Y144.678 E12.01778
G1 X149.82 Y144.772 E12.02617
G1 X149.6 Y145.181 E12.06325
G1 X149.552 Y145.267 E12.07111
G1 X149.209 Y145.838 E12.12428
G1 X149.094 Y146.011 E12.14086
G1 X148.604 Y146.669 E12.20635
G1 X148.294 Y147.044 E12.24519
G1 X148.201 Y147.15 E12.25644
G1 X147.787 Y147.607 E12.30567
G1 X147.62 Y147.775 E12.32457
G1 X147.101 Y148.247 E12.38057
G1 X147.044 Y148.296 E12.38657
G1 X146.681 Y148.594 E12.42406
G1 X146.578 Y148.675 E12.43452
G1 X146.061 Y149.06 E12.48598
G1 X145.89 Y149.174 E12.50238
G1 X145.237 Y149.568 E12.56326
G1 X145.155 Y149.614 E12.57077
G1 X144.731 Y149.84 E12.60912
G1 X144.648 Y149.882 E12.61655
G1 X144.039 Y150.169 E12.67029
G1 X143.869 Y150.24 E12.68499
G1 X143.159 Y150.494 E12.74519
G1 X143.053 Y150.529 E12.7541
G1 X142.532 Y150.684 E12.79749
G1 X141.897 Y150.843 E12.84974
G1 X141.685 Y150.886 E12.86701
G1 X140.956 Y150.997 E12.92587
G1 X140.415 Y151.052 E12.96928
G1 X139.557 Y151.096 E13.03786
G1 X139.41 Y151.1 E13.0496
G1 X80.576 Y151.099 E17.74598
G1 X80.434 Y151.096 E17.75732
G1 X79.681 Y151.057 E17.81751
G1 X79.553 Y151.047 E17.82775
G1 X79.082 Y151 E17.86554
G1 X78.352 Y150.892 E17.92444
G1 X78.127 Y150.848 E17.94274
G1 X77.454 Y150.68 E17.99811
G1 X77.353 Y150.652 E18.00648
G1 X76.933 Y150.524 E18.04153
G1 X76.767 Y150.469 E18.05549
G1 X76.198 Y150.267 E18.10369
G1 X75.977 Y150.176 E18.12276
G1 X75.302 Y149.857 E18.18236
G1 X75.216 Y149.814 E18.19004
G1 X74.819 Y149.6 E18.22604
G1 X74.723 Y149.546 E18.23483
G1 X74.162 Y149.209 E18.28707
G1 X73.985 Y149.091 E18.30405
G1 X73.326 Y148.6 E18.36965
G1 X72.956 Y148.294 E18.40798
G1 X72.841 Y148.193 E18.42019
G1 X72.39 Y147.784 E18.46879
G1 X72.216 Y147.611 E18.48838
G1 X71.746 Y147.093 E18.54421
G1 X71.406 Y146.681 E18.58685
G1 X71.319 Y146.57 E18.59811
G1 X70.937 Y146.057 E18.64917
G1 X70.826 Y145.89 E18.66517
G1 X70.432 Y145.237 E18.72605
G1 X70.382 Y145.148 E18.7342
G1 X70.156 Y144.724 E18.77255
G1 X70.107 Y144.625 E18.78137
G1 X69.827 Y144.03 E18.83386
G1 X69.76 Y143.869 E18.84778
G1 X69.498 Y143.136 E18.90992
G1 X69.465 Y143.033 E18.91855
G1 X69.343 Y142.628 E18.95232
G1 X69.316 Y142.532 E18.96028
G1 X69.155 Y141.89 E19.01311
G1 X69.112 Y141.674 E19.03069
G1 X69.002 Y140.938 E19.0901
G1 X68.993 Y140.867 E19.09581
G1 X68.948 Y140.412 E19.13231
G1 X68.904 Y139.557 E19.20065
G1 X68.9 Y139.42 E19.21159
G1 X68.901 Y80.576 E23.90877
G1 X68.904 Y80.434 E23.92011
G1 X68.943 Y79.681 E23.9803
G1 X68.952 Y79.562 E23.98982
G1 X69.009 Y79.011 E24.03404
G1 X69.108 Y78.352 E24.08723
G1 X69.15 Y78.136 E24.1048
G1 X69.32 Y77.454 E24.1609
G1 X69.348 Y77.352 E24.16935
G1 X69.473 Y76.942 E24.20356
G1 X69.528 Y76.775 E24.2176
G1 X69.736 Y76.191 E24.26708
G1 X69.823 Y75.98 E24.2853
G1 X70.137 Y75.314 E24.34408
G1 X70.181 Y75.225 E24.352
G1 X70.408 Y74.802 E24.39032
G1 X70.794 Y74.156 E24.45039
G1 X70.906 Y73.989 E24.46645
G1 X71.396 Y73.331 E24.53193
G1 X71.706 Y72.956 E24.57077
G1 X71.807 Y72.841 E24.58299
G1 X72.213 Y72.393 E24.63125
G1 X72.389 Y72.216 E24.65118
G1 F1500 E18.15118
G0 F9000 X71.674 Y71.429
G0 X90.518 Y90.355
G0 X89.783 Y89.582
G1 F1500 E24.65118
G1 F1125 X89.319 Y90.082 E24.70563
G1 X88.92 Y90.638 E24.76025
G1 X88.596 Y91.238 E24.81469
G1 X88.35 Y91.874 E24.86912
G1 X88.184 Y92.543 E24.92414
G1 X88.1 Y93.482 E24.9994
G1 X88.1 Y126.513 E27.63607
G1 X88.142 Y127.181 E27.6895
G1 X88.271 Y127.852 E27.74404
G1 X88.484 Y128.501 E27.79857
G1 X88.776 Y129.118 E27.85306
G1 X89.144 Y129.693 E27.90755
G1 X89.582 Y130.217 E27.96207
G1 X90.082 Y130.681 E28.01652
G1 X90.638 Y131.08 E28.07115
G1 X91.238 Y131.404 E28.12558
G1 X91.874 Y131.65 E28.18001
G1 X92.543 Y131.816 E28.23503
G1 X93.482 Y131.9 E28.31029
G1 X126.513 Y131.9 E30.94696
G1 X127.181 Y131.858 E31.00039
G1 X127.852 Y131.729 E31.05494
G1 X128.501 Y131.516 E31.10946
G1 X129.118 Y131.224 E31.16395
G1 X129.693 Y130.856 E31.21844
G1 X130.217 Y130.418 E31.27296
G1 X130.681 Y129.918 E31.32741
G1 X131.08 Y129.362 E31.38204
G1 X131.404 Y128.762 E31.43647
G1 X131.65 Y128.126 E31.4909
G1 X131.816 Y127.457 E31.54592
G1 X131.9 Y126.518 E31.62118
G1 X131.9 Y93.487 E34.25786
G1 X131.858 Y92.819 E34.31128
G1 X131.729 Y92.148 E34.36583
G1 X131.516 Y91.499 E34.42035
G1 X131.224 Y90.882 E34.47484
G1 X130.856 Y90.307 E34.52933
G1 X130.418 Y89.783 E34.58385
G1 X129.918 Y89.319 E34.6383
G1 X129.362 Y88.92 E34.69293
G1 X128.762 Y88.596 E34.74736
G1 X128.126 Y88.35 E34.80179
G1 X127.457 Y88.184 E34.85682
G1 X126.518 Y88.1 E34.93207
G1 X93.487 Y88.1 E37.56875
G1 X92.819 Y88.142 E37.62218
G1 X92.148 Y88.271 E37.67672
G1 X91.499 Y88.484 E37.73124
G1 X90.882 Y88.776 E37.78573
G1 X90.307 Y89.144 E37.84023
G1 X89.783 Y89.582 E37.89474
G0 F9000 X89.6 Y89.78
G1 F1125 X89.6 Y68.901 E39.56139
G0 F9000 X88 Y68.901
G1 F1125 X88 Y151.099 E46.12279
G0 F9000 X86.4 Y151.099
G1 F1125 X86.4 Y68.901 E52.68419
G0 F9000 X84.8 Y68.901
G1 F1125 X84.8 Y151.099 E59.24559
G0 F9000 X83.2 Y151.099
G1 F1125 X83.2 Y68.901 E65.80699
G0 F9000 X81.6 Y68.901
G1 F1125 X81.6 Y151.099 E72.36839
G0 F9000 X80 Y151.073
G1 F1125 X80 Y68.926 E78.92572
G0 F9000 X78.4 Y69.101
G1 F1125 X78.4 Y150.899 E85.45519
G0 F9000 X76.8 Y150.479
G1 F1125 X76.8 Y69.52 E91.91769
G0 F9000 X75.2 Y70.197
G1 F1125 X75.2 Y149.805 E98.27234
G0 F9000 X73.6 Y148.804
G1 F1125 X73.6 Y71.192 E104.46767
G0 F9000 X72 Y72.628
G1 F1125 X72 Y147.372 E110.43406
G0 F9000 X70.4 Y145.18
G1 F1125 X70.4 Y74.816 E116.05082
G1 F1500 E109.55082
G0 F9000 X69.532 Y74.191
G0 X70.514 Y72.732
G0 X71.646 Y71.454
G0 X73.32 Y70.073
G0 X74.878 Y69.165
G0 X76.491 Y68.501
G0 X78.14 Y68.063
G0 X79.642 Y67.878
G0 X91.2 Y67.835
G0 X91.2 Y68.901
G1 F1500 E116.05082
G1 F1125 X91.2 Y88.626 E117.62535
G0 F9000 X92.8 Y88.146
G1 F1125 X92.8 Y68.901 E119.16157
G0 F9000 X94.4 Y68.901
G1 F1125 X94.4 Y88.1 E120.69412
G0 F9000 X96 Y88.1
G1 F1125 X96 Y68.901 E122.22667
G0 F9000 X97.6 Y68.901
G1 F1125 X97.6 Y88.1 E123.75921
G0 F9000 X99.2 Y88.1
G1 F1125 X99.2 Y68.901 E125.29176
G0 F9000 X100.8 Y68.901
G1 F1125 X100.8 Y88.1 E126.82431
G0 F9000 X102.4 Y88.1
G1 F1125 X102.4 Y68.901 E128.35685
G0 F9000 X104 Y68.901
G1 F1125 X104 Y88.1 E129.8894
G0 F9000 X105.6 Y88.1
G1 F1125 X105.6 Y68.901 E131.42195
G0 F9000 X107.2 Y68.901
G1 F1125 X107.2 Y88.1 E132.9545
G0 F9000 X108.8 Y88.1
G1 F1125 X108.8 Y68.901 E134.48704
G0 F9000 X110.4 Y68.901
G1 F1125 X110.4 Y88.1 E136.01959
G0 F9000 X112 Y88.1
G1 F1125 X112 Y68.901 E137.55214
G0 F9000 X113.6 Y68.901
G1 F1125 X113.6 Y88.1 E139.08468
G0 F9000 X115.2 Y88.1
G1 F1125 X115.2 Y68.901 E140.61723
G0 F9000 X116.8 Y68.901
G1 F1125 X116.8 Y88.1 E142.14978
G0 F9000 X118.4 Y88.1
G1 F1125 X118.4 Y68.901 E143.68233
G0 F9000 X120 Y68.901
G1 F1125 X120 Y88.1 E145.21487
G0 F9000 X121.6 Y88.1
G1 F1125 X121.6 Y68.901 E146.74742
G0 F9000 X123.2 Y68.901
G1 F1125 X123.2 Y88.1 E148.27997
G0 F9000 X124.8 Y88.1
G1 F1125 X124.8 Y68.901 E149.81252
G0 F9000 X126.4 Y68.901
G1 F1125 X126.4 Y88.1 E151.34506
G0 F9000 X128 Y88.318
G1 F1125 X128 Y68.901 E152.89501
G0 F9000 X129.6 Y68.901
G1 F1125 X129.6 Y89.09 E154.50658
G0 F9000 X131.2 Y90.844
G1 F1125 X131.2 Y68.901 E156.25817
G0 F9000 X132.8 Y68.901
G1 F1125 X132.8 Y151.099 E162.81957
G0 F9000 X131.2 Y151.099
G1 F1125 X131.2 Y129.139 E164.57251
G0 F9000 X129.6 Y130.915
G1 F1125 X129.6 Y151.099 E166.18369
G0 F9000 X128 Y151.099
G1 F1125 X128 Y131.68 E167.73379
G0 F9000 X126.4 Y131.9
G1 F1125 X126.4 Y151.099 E169.26634
G0 F9000 X124.8 Y151.099
G1 F1125 X124.8 Y131.9 E170.79889
G0 F9000 X123.2 Y131.9
G1 F1125 X123.2 Y151.099 E172.33144
G0 F9000 X121.6 Y151.099
G1 F1125 X121.6 Y131.9 E173.86398
G0 F9000 X120 Y131.9
G1 F1125 X120 Y151.099 E175.39653
G0 F9000 X118.4 Y151.099
G1 F1125 X118.4 Y131.9 E176.92908
G0 F9000 X116.8 Y131.9
G1 F1125 X116.8 Y151.099 E178.46162
G0 F9000 X115.2 Y151.099
G1 F1125 X115.2 Y131.9 E179.99417
G0 F9000 X113.6 Y131.9
G1 F1125 X113.6 Y151.099 E181.52672
G0 F9000 X112 Y151.099
G1 F1125 X112 Y131.9 E183.05927
G0 F9000 X110.4 Y131.9
G1 F1125 X110.4 Y151.099 E184.59181
G0 F9000 X108.8 Y151.099
G1 F1125 X108.8 Y131.9 E186.12436
G0 F9000 X107.2 Y131.9
G1 F1125 X107.2 Y151.099 E187.65691
G0 F9000 X105.6 Y151.099
G1 F1125 X105.6 Y131.9 E189.18946
G0 F9000 X104 Y131.9
G1 F1125 X104 Y151.099 E190.722
G0 F9000 X102.4 Y151.099
G1 F1125 X102.4 Y131.9 E192.25455
G0 F9000 X100.8 Y131.9
G1 F1125 X100.8 Y151.099 E193.7871
G0 F9000 X99.2 Y151.099
G1 F1125 X99.2 Y131.9 E195.31964
G0 F9000 X97.6 Y131.9
G1 F1125 X97.6 Y151.099 E196.85219
G0 F9000 X96 Y151.099
G1 F1125 X96 Y131.9 E198.38474
G0 F9000 X94.4 Y131.9
G1 F1125 X94.4 Y151.099 E199.91729
G0 F9000 X92.8 Y151.099
G1 F1125 X92.8 Y131.839 E201.4547
G0 F9000 X91.2 Y131.384
G1 F1125 X91.2 Y151.099 E203.02844
G0 F9000 X89.6 Y151.099
G1 F1125 X89.6 Y130.234 E204.69397
G1 F1500 E198.19397
G0 F9000 X90.757 Y129.856
G0 X134.4 Y152.165
G0 X134.4 Y151.099
G1 F1500 E204.69397
G1 F1125 X134.4 Y68.901 E211.25537
G0 F9000 X136 Y68.901
G1 F1125 X136 Y151.099 E217.81677
G0 F9000 X137.6 Y151.099
G1 F1125 X137.6 Y68.901 E224.37817
G0 F9000 X139.2 Y68.901
G1 F1125 X139.2 Y151.099 E230.93957
G0 F9000 X140.8 Y151.013
G1 F1125 X140.8 Y68.989 E237.48708
G0 F9000 X142.4 Y69.284
G1 F1125 X142.4 Y150.718 E243.9875
G0 F9000 X144 Y150.186
G1 F1125 X144 Y69.815 E250.40306
G0 F9000 X145.6 Y70.649
G1 F1125 X145.6 Y149.349 E256.68523
G0 F9000 X147.2 Y148.157
G1 F1125 X147.2 Y71.845 E262.77679
G0 F9000 X148.8 Y73.59
G1 F1125 X148.8 Y146.406 E268.58927
G0 F9000 X150.4 Y143.428
G1 F1125 X150.4 Y76.579 E273.92545
G0 F300 X150.4 Y76.579 Z0.54
G0 F9000 X149.342 Y74.389
;TIME_ELAPSED:200.335643
;LAYER:-5
;TYPE:SUPPORT
G1 F1125 X145.604 Y70.651 E274.45292
G1 X145.275 Y70.453 E274.49124
G1 X145.18 Y70.399 E274.50214
G1 X144.782 Y70.186 E274.54718
G1 X144.685 Y70.136 E274.55807
G1 X144.019 Y69.822 E274.63154
G1 X143.801 Y69.733 E274.65504
G1 X143.232 Y69.53 E274.71532
G1 X143.066 Y69.476 E274.73273
G1 X142.993 Y69.454 E274.74034
G1 X150.546 Y77.007 E275.80615
G1 X150.68 Y77.456 E275.8529
G1 X150.844 Y78.109 E275.92008
G1 X150.885 Y78.314 E275.94094
G1 X150.965 Y78.84 E275.99403
G1 X141.161 Y69.036 E277.37748
G1 X140.917 Y69 E277.40209
G1 X140.446 Y68.953 E277.44932
G1 X140.318 Y68.942 E277.46214
G1 X139.617 Y68.906 E277.53218
G1 X151.093 Y80.382 E279.15157
G1 X151.095 Y80.432 E279.15656
G1 X151.099 Y80.579 E279.17123
G1 X151.099 Y81.803 E279.29337
G1 X138.197 Y68.901 E281.11398
G1 X136.783 Y68.901 E281.25507
G1 X151.099 Y83.217 E283.27521
G1 X151.099 Y84.631 E283.4163
G1 X135.369 Y68.901 E285.63597
G1 X133.955 Y68.901 E285.77706
G1 X151.099 Y86.045 E288.19626
G1 X151.099 Y87.459 E288.33735
G1 X132.54 Y68.901 E290.95616
G1 X131.126 Y68.901 E291.09725
G1 X151.099 Y88.874 E293.91565
G1 X151.099 Y90.288 E294.05674
G1 X129.712 Y68.901 E297.07468
G1 X128.298 Y68.901 E297.21577
G1 X151.099 Y91.702 E300.43324
G1 X151.099 Y93.116 E300.57433
G1 X126.883 Y68.901 E303.9914
G1 X125.469 Y68.901 E304.13248
G1 X151.099 Y94.53 E307.74908
G1 X151.099 Y95.945 E307.89027
G1 X124.055 Y68.901 E311.70647
G1 X122.641 Y68.901 E311.84756
G1 X151.099 Y97.359 E315.86329
G1 X151.099 Y98.773 E316.00438
G1 X121.227 Y68.901 E320.21965
G1 X119.812 Y68.901 E320.36083
G1 X151.099 Y100.187 E324.7757
G1 X151.099 Y101.602 E324.91689
G1 X118.398 Y68.901 E329.53135
G1 X116.984 Y68.901 E329.67244
G1 X151.099 Y103.016 E334.48644
G1 X151.099 Y104.43 E334.62753
G1 X115.57 Y68.901 E339.64105
G1 X114.156 Y68.901 E339.78214
G1 X151.099 Y105.844 E344.9952
G1 X151.099 Y107.258 E345.13629
G1 X112.741 Y68.901 E350.54894
G1 X111.327 Y68.901 E350.69003
G1 X151.099 Y108.673 E356.30229
G1 X151.098 Y110.086 E356.44328
G1 X109.912 Y68.9 E362.25507
G1 X108.498 Y68.9 E362.39616
G1 X127.889 Y88.291 E365.13244
G1 X127.456 Y88.183 E365.17697
G1 X126.516 Y88.099 E365.27114
G1 X126.283 Y88.099 E365.29439
G1 X107.084 Y68.9 E368.00357
G1 X105.67 Y68.9 E368.14466
G1 X124.869 Y88.099 E370.85385
G1 X123.455 Y88.099 E370.99494
G1 X104.255 Y68.9 E373.70419
G1 X102.841 Y68.9 E373.84528
G1 X122.04 Y88.099 E376.55447
G1 X120.626 Y88.099 E376.69556
G1 X101.427 Y68.9 E379.40475
G1 X100.013 Y68.9 E379.54584
G1 X119.212 Y88.099 E382.25502
G1 X117.798 Y88.099 E382.39611
G1 X98.598 Y68.9 E385.10537
G1 X97.184 Y68.9 E385.24646
G1 X116.384 Y88.099 E387.95571
G1 X114.969 Y88.099 E388.0969
G1 X95.77 Y68.9 E390.80609
G1 X94.356 Y68.9 E390.94718
G1 X113.555 Y88.099 E393.65637
G1 X112.141 Y88.099 E393.79745
G1 X92.942 Y68.9 E396.50664
G1 X91.527 Y68.9 E396.64783
G1 X110.727 Y88.099 E399.35709
G1 X109.313 Y88.099 E399.49818
G1 X90.113 Y68.9 E402.20743
G1 X88.699 Y68.9 E402.34852
G1 X107.898 Y88.099 E405.05771
G1 X106.484 Y88.099 E405.1988
G1 X87.285 Y68.9 E407.90799
G1 X85.871 Y68.9 E408.04907
G1 X105.07 Y88.099 E410.75826
G1 X103.656 Y88.099 E410.89935
G1 X84.456 Y68.9 E413.60861
G1 X83.042 Y68.9 E413.7497
G1 X102.241 Y88.099 E416.45888
G1 X100.827 Y88.099 E416.59997
G1 X81.628 Y68.9 E419.30916
G1 X80.589 Y68.899 E419.41283
G1 X80.442 Y68.904 E419.42751
G1 X80.229 Y68.915 E419.44879
