;FLAVOR:Marlin
;TIME:7459
;Filament used: 6.55352m
;Layer height: 0.2
;MINX:67.835
;MINY:67.836
;MINZ:0.24
;MAXX:152.122
;MAXY:152.164
;MAXZ:4.09
;Generated with Cura_SteamEngine 4.9.1
M140 S60
M105
M190 S60
M104 S200
M105
M109 S200
M82 ;absolute extrusion mode
; Ender 3 Custom Start G-code
G92 E0 ; Reset Extruder
G28 ; Home all axes
G1 Z2.0 F3000 ; Move Z Axis up little to prevent scratching of Heat Bed
G1 X0.1 Y20 Z0.3 F5000.0 ; Move to start position
G1 X0.1 Y200.0 Z0.3 F1500.0 E15 ; Draw the first line
G1 X0.4 Y200.0 Z0.3 F5000.0 ; Move to side a little
G1 X0.4 Y20 Z0.3 F1500.0 E30 ; Draw the second line
G92 E0 ; Reset Extruder
G1 Z2.0 F3000 ; Move Z Axis up little to prevent scratching of Heat Bed
G1 X5 Y20 Z0.3 F5000.0 ; Move over to prevent blob squish
G92 E0
G92 E0
G1 F1500 E-6.5
;LAYER_COUNT:15
;LAYER:-6
M107
G0 F9000 X72.368 Y72.236 Z0.24
;TYPE:SUPPORT-INTERFACE
G1 F1500 E0
G1 F1125 X72.879 Y71.772 E0.0551
G1 X72.975 Y71.689 E0.06523
G1 X73.327 Y71.4 E0.10158
G1 X73.404 Y71.34 E0.10937
G1 X73.937 Y70.942 E0.16247
G1 X74.124 Y70.816 E0.18047
G1 X74.735 Y70.448 E0.23741
G1 X74.827 Y70.395 E0.24588
G1 X75.247 Y70.17 E0.28392
G1 X75.329 Y70.128 E0.29127
G1 X75.909 Y69.853 E0.34251
G1 X76.127 Y69.762 E0.36137
G1 X76.83 Y69.508 E0.42104
G1 X76.921 Y69.478 E0.42868
G1 X77.356 Y69.347 E0.46495
G1 X77.499 Y69.308 E0.47678
G1 X78.102 Y69.157 E0.5264
G1 X78.337 Y69.11 E0.54553
G1 X79.002 Y69.01 E0.59921
G1 X79.138 Y68.993 E0.61015
G1 X79.585 Y68.948 E0.64601
G1 X80.443 Y68.904 E0.71459
G1 X80.59 Y68.9 E0.72633
G1 X139.41 Y68.9 E5.4216
G1 X139.557 Y68.904 E5.43334
G1 X140.299 Y68.94 E5.49263
G1 X140.415 Y68.948 E5.50192
G1 X140.956 Y69.004 E5.54533
G1 X141.624 Y69.102 E5.59923
G1 X141.845 Y69.145 E5.6172
G1 X142.542 Y69.318 E5.67452
G1 X142.608 Y69.336 E5.67998
G1 X143.069 Y69.476 E5.71844
G1 X143.196 Y69.517 E5.7291
G1 X143.794 Y69.73 E5.77977
G1 X143.997 Y69.813 E5.79727
G1 X144.669 Y70.129 E5.85655
G1 X144.751 Y70.17 E5.86387
G1 X145.183 Y70.401 E5.90297
G1 X145.255 Y70.441 E5.90955
G1 X145.818 Y70.778 E5.96193
G1 X146.011 Y70.906 E5.98041
G1 X146.591 Y71.336 E6.03805
G1 X146.685 Y71.41 E6.0476
G1 X147.095 Y71.748 E6.09001
G1 X147.596 Y72.2 E6.14387
G1 X147.764 Y72.368 E6.16284
G1 X148.228 Y72.879 E6.21794
G1 X148.311 Y72.975 E6.22807
G1 X148.6 Y73.327 E6.26442
G1 X148.655 Y73.397 E6.27153
G1 X149.058 Y73.937 E6.32531
G1 X149.187 Y74.129 E6.34378
G1 X149.552 Y74.735 E6.40025
G1 X149.605 Y74.827 E6.40872
G1 X149.83 Y75.247 E6.44676
G1 X149.872 Y75.329 E6.45411
G1 X150.147 Y75.909 E6.50535
G1 X150.238 Y76.127 E6.52421
G1 X150.492 Y76.83 E6.58387
G1 X150.519 Y76.911 E6.59069
G1 X150.653 Y77.357 E6.62786
G1 X150.696 Y77.512 E6.6407
G1 X150.844 Y78.106 E6.68957
G1 X150.891 Y78.343 E6.70886
G1 X150.99 Y79.002 E6.76205
G1 X151.006 Y79.128 E6.77219
G1 X151.051 Y79.576 E6.80813
G1 X151.059 Y79.701 E6.81813
G1 X151.096 Y80.433 E6.87663
G1 X151.1 Y80.58 E6.88837
G1 X151.1 Y139.41 E11.58444
G1 X151.096 Y139.557 E11.59618
G1 X151.06 Y140.299 E11.65548
G1 X151.052 Y140.411 E11.66444
G1 X150.996 Y140.956 E11.70817
G1 X150.899 Y141.62 E11.76174
G1 X150.855 Y141.845 E11.78004
G1 X150.682 Y142.542 E11.83736
G1 X150.664 Y142.608 E11.84283
G1 X150.524 Y143.069 E11.88128
G1 X150.483 Y143.196 E11.89194
G1 X150.27 Y143.794 E11.94261
G1 X150.187 Y143.997 E11.96012
G1 X149.871 Y144.669 E12.01939
G1 X149.83 Y144.751 E12.02671
G1 X149.599 Y145.183 E12.06582
G1 X149.559 Y145.255 E12.07239
G1 X149.222 Y145.818 E12.12477
G1 X149.097 Y146.006 E12.14279
G1 X148.664 Y146.591 E12.20089
G1 X148.59 Y146.685 E12.21044
G1 X148.252 Y147.095 E12.25285
G1 X147.805 Y147.591 E12.30615
G1 X147.635 Y147.761 E12.32534
G1 X147.121 Y148.228 E12.38078
G1 X147.025 Y148.311 E12.39091
G1 X146.673 Y148.6 E12.42726
G1 X146.596 Y148.66 E12.43505
G1 X146.066 Y149.056 E12.48787
G1 X145.876 Y149.184 E12.50615
G1 X145.265 Y149.552 E12.56309
G1 X145.173 Y149.605 E12.57156
G1 X144.753 Y149.83 E12.6096
G1 X144.671 Y149.872 E12.61695
G1 X144.091 Y150.147 E12.66819
G1 X143.873 Y150.238 E12.68705
G1 X143.17 Y150.492 E12.74671
G1 X143.079 Y150.522 E12.75436
G1 X142.644 Y150.653 E12.79063
G1 X142.501 Y150.692 E12.80246
G1 X141.898 Y150.843 E12.85208
G1 X141.663 Y150.89 E12.87121
G1 X140.998 Y150.99 E12.92489
G1 X140.862 Y151.007 E12.93583
G1 X140.415 Y151.052 E12.97169
G1 X139.557 Y151.096 E13.04027
G1 X139.41 Y151.1 E13.05201
G1 X80.59 Y151.1 E17.74728
G1 X80.443 Y151.096 E17.75902
G1 X79.701 Y151.06 E17.81831
G1 X79.585 Y151.052 E17.8276
G1 X79.044 Y150.996 E17.87101
G1 X78.376 Y150.898 E17.92491
G1 X78.155 Y150.855 E17.94288
G1 X77.458 Y150.682 E18.0002
G1 X77.392 Y150.664 E18.00566
G1 X76.931 Y150.524 E18.04412
G1 X76.804 Y150.483 E18.05478
G1 X76.206 Y150.27 E18.10545
G1 X76 Y150.186 E18.12321
G1 X75.331 Y149.871 E18.18223
G1 X75.249 Y149.83 E18.18955
G1 X74.808 Y149.594 E18.22948
G1 X74.745 Y149.559 E18.23523
G1 X74.182 Y149.222 E18.28761
G1 X73.989 Y149.094 E18.30609
G1 X73.409 Y148.664 E18.36373
G1 X73.309 Y148.585 E18.3739
G1 X72.954 Y148.294 E18.41054
G1 X72.897 Y148.245 E18.41654
G1 X72.404 Y147.8 E18.46956
G1 X72.236 Y147.632 E18.48852
G1 X71.766 Y147.114 E18.54435
G1 X71.666 Y146.998 E18.55658
G1 X71.4 Y146.673 E18.5901
G1 X71.34 Y146.596 E18.5979
G1 X70.942 Y146.063 E18.65099
G1 X70.813 Y145.871 E18.66946
G1 X70.448 Y145.265 E18.72593
G1 X70.395 Y145.173 E18.7344
G1 X70.128 Y144.671 E18.77979
G1 X69.853 Y144.09 E18.8311
G1 X69.762 Y143.873 E18.84989
G1 X69.504 Y143.159 E18.91049
G1 X69.478 Y143.079 E18.9172
G1 X69.347 Y142.643 E18.95354
G1 X69.302 Y142.479 E18.96712
G1 X69.156 Y141.894 E19.01525
G1 X69.109 Y141.657 E19.03453
G1 X69.01 Y140.998 E19.08773
G1 X68.993 Y140.862 E19.09867
G1 X68.948 Y140.411 E19.13485
G1 X68.904 Y139.557 E19.20311
G1 X68.9 Y139.42 E19.21405
G1 X68.9 Y80.59 E23.91011
G1 X68.904 Y80.443 E23.92185
G1 X68.94 Y79.701 E23.98115
G1 X68.948 Y79.589 E23.99012
G1 X69.004 Y79.044 E24.03385
G1 X69.104 Y78.36 E24.08903
G1 X69.14 Y78.174 E24.10415
G1 X69.336 Y77.392 E24.16851
G1 X69.513 Y76.815 E24.21668
G1 X69.732 Y76.199 E24.26887
G1 X69.816 Y75.995 E24.28648
G1 X70.129 Y75.331 E24.34508
G1 X70.173 Y75.243 E24.35293
G1 X70.401 Y74.817 E24.3915
G1 X70.441 Y74.745 E24.39807
G1 X70.778 Y74.182 E24.45045
G1 X70.903 Y73.994 E24.46847
G1 X71.336 Y73.409 E24.52657
G1 X71.41 Y73.315 E24.53612
G1 X71.748 Y72.905 E24.57854
G1 X72.195 Y72.409 E24.63183
G1 X72.368 Y72.236 E24.65136
G0 F9000 X72 Y72.625
G1 F1125 X72 Y147.371 E30.61791
G0 F9000 X73.6 Y148.805
G1 F1125 X73.6 Y71.193 E36.81324
G0 F9000 X75.2 Y70.195
G1 F1125 X75.2 Y149.803 E43.16789
G0 F9000 X76.8 Y150.481
G1 F1125 X76.8 Y69.518 E49.63071
G0 F9000 X78.4 Y69.1
G1 F1125 X78.4 Y150.901 E56.16042
G0 F9000 X80 Y151.074
G1 F1125 X80 Y68.926 E62.71783
G0 F9000 X81.6 Y68.9
G1 F1125 X81.6 Y151.1 E69.27939
G0 F9000 X83.2 Y151.1
G1 F1125 X83.2 Y68.9 E75.84095
G0 F9000 X84.8 Y68.9
G1 F1125 X84.8 Y151.1 E82.40251
G0 F9000 X86.4 Y151.1
G1 F1125 X86.4 Y68.9 E88.96407
G0 F9000 X88 Y68.9
G1 F1125 X88 Y151.1 E95.52563
G0 F9000 X89.6 Y151.1
G1 F1125 X89.6 Y68.9 E102.08718
G0 F9000 X91.2 Y68.9
G1 F1125 X91.2 Y151.1 E108.64874
G0 F9000 X92.8 Y151.1
G1 F1125 X92.8 Y68.9 E115.2103
G0 F9000 X94.4 Y68.9
G1 F1125 X94.4 Y151.1 E121.77186
G0 F9000 X96 Y151.1
G1 F1125 X96 Y68.9 E128.33342
G0 F9000 X97.6 Y68.9
G1 F1125 X97.6 Y151.1 E134.89498
G0 F9000 X99.2 Y151.1
G1 F1125 X99.2 Y68.9 E141.45654
G0 F9000 X100.8 Y68.9
G1 F1125 X100.8 Y151.1 E148.0181
G0 F9000 X102.4 Y151.1
G1 F1125 X102.4 Y68.9 E154.57966
G0 F9000 X104 Y68.9
G1 F1125 X104 Y151.1 E161.14122
G0 F9000 X105.6 Y151.1
G1 F1125 X105.6 Y68.9 E167.70278
G0 F9000 X107.2 Y68.9
G1 F1125 X107.2 Y151.1 E174.26434
G0 F9000 X108.8 Y151.1
G1 F1125 X108.8 Y68.9 E180.8259
G0 F9000 X110.4 Y68.9
G1 F1125 X110.4 Y151.1 E187.38746
G0 F9000 X112 Y151.1
G1 F1125 X112 Y68.9 E193.94902
G0 F9000 X113.6 Y68.9
G1 F1125 X113.6 Y151.1 E200.51058
G0 F9000 X115.2 Y151.1
G1 F1125 X115.2 Y68.9 E207.07214
G0 F9000 X116.8 Y68.9
G1 F1125 X116.8 Y151.1 E213.6337
G0 F9000 X118.4 Y151.1
G1 F1125 X118.4 Y68.9 E220.19525
G0 F9000 X120 Y68.9
G1 F1125 X120 Y151.1 E226.75681
G0 F9000 X121.6 Y151.1
G1 F1125 X121.6 Y68.9 E233.31837
G0 F9000 X123.2 Y68.9
G1 F1125 X123.2 Y151.1 E239.87993
G0 F9000 X124.8 Y151.1
G1 F1125 X124.8 Y68.9 E246.44149
G0 F9000 X126.4 Y68.9
G1 F1125 X126.4 Y151.1 E253.00305
G0 F9000 X128 Y151.1
G1 F1125 X128 Y68.9 E259.56461
G0 F9000 X129.6 Y68.9
G1 F1125 X129.6 Y151.1 E266.12617
G0 F9000 X131.2 Y151.1
G1 F1125 X131.2 Y68.9 E272.68773
G0 F9000 X132.8 Y68.9
G1 F1125 X132.8 Y151.1 E279.24929
G0 F9000 X134.4 Y151.1
G1 F1125 X134.4 Y68.9 E285.81085
G0 F9000 X136 Y68.9
G1 F1125 X136 Y151.1 E292.37241
G0 F9000 X137.6 Y151.1
G1 F1125 X137.6 Y68.9 E298.93397
G0 F9000 X139.2 Y68.9
G1 F1125 X139.2 Y151.1 E305.49553
G0 F9000 X140.8 Y151.014
G1 F1125 X140.8 Y68.988 E312.0432
G0 F9000 X142.4 Y69.283
G1 F1125 X142.4 Y150.718 E318.54369
G0 F9000 X144 Y150.185
G1 F1125 X144 Y69.815 E324.95917
G0 F9000 X145.6 Y70.648
G1 F1125 X145.6 Y149.351 E331.24159
G0 F9000 X147.2 Y148.157
G1 F1125 X147.2 Y71.843 E337.3333
G0 F9000 X148.8 Y73.592
G1 F1125 X148.8 Y146.408 E343.14579
G0 F9000 X150.4 Y143.43
G1 F1125 X150.4 Y76.576 E348.48236
G1 F1500 E341.98236
G0 F9000 X151.401 Y76.215
G0 X150.775 Y74.757
G0 X149.921 Y73.313
G0 X148.528 Y71.627
G0 X147.233 Y70.487
G0 X145.788 Y69.52
G0 X144.172 Y68.734
G0 X142.815 Y68.289
G0 X141.102 Y67.949
G0 X139.428 Y67.836
G0 X80.398 Y67.84
G0 X78.861 Y67.955
G0 X77.068 Y68.322
G0 X75.484 Y68.877
G0 X74.197 Y69.529
G0 X72.755 Y70.496
G0 X71.43 Y71.668
G0 X70.177 Y73.203
G0 X69.52 Y74.212
G0 X70.4 Y74.818
G1 F1500 E348.48236
G1 F1125 X70.4 Y145.181 E354.09904
G0 F300 X70.4 Y145.181 Z0.54
G0 F9000 X70.654 Y145.608
;TIME_ELAPSED:248.737383
;LAYER:-5
;TYPE:SUPPORT
G1 F1125 X74.396 Y149.349 E354.62701
G1 X74.744 Y149.558 E354.66751
G1 X74.808 Y149.593 E354.67479
G1 X75.248 Y149.828 E354.72456
G1 X75.33 Y149.869 E354.73371
G1 X75.999 Y150.185 E354.80754
G1 X76.205 Y150.269 E354.82973
G1 X76.804 Y150.482 E354.89317
G1 X76.93 Y150.523 E354.90639
G1 X77.007 Y150.546 E354.91441
G1 X69.451 Y142.99 E355.98064
G1 X69.346 Y142.642 E356.01691
G1 X69.302 Y142.477 E356.03395
G1 X69.155 Y141.892 E356.09414
G1 X69.109 Y141.656 E356.11813
G1 X69.034 Y141.159 E356.16828
G1 X78.839 Y150.964 E357.55187
G1 X79.043 Y150.994 E357.57245
G1 X79.584 Y151.05 E357.62672
G1 X79.7 Y151.059 E357.63833
G1 X80.381 Y151.091 E357.70635
G1 X68.906 Y139.617 E359.32553
G1 X68.904 Y139.556 E359.33162
G1 X68.899 Y139.419 E359.3453
G1 X68.899 Y138.196 E359.46733
G1 X81.803 Y151.099 E361.28815
G1 X83.217 Y151.099 E361.42924
G1 X68.899 Y136.782 E363.44959
G1 X68.899 Y135.367 E363.59078
G1 X84.631 Y151.099 E365.81074
G1 X86.045 Y151.099 E365.95183
G1 X68.899 Y133.953 E368.37131
G1 X68.899 Y132.539 E368.5124
G1 X87.459 Y151.099 E371.13142
G1 X88.874 Y151.099 E371.27261
G1 X68.899 Y131.125 E374.09123
G1 X68.899 Y129.71 E374.23242
G1 X90.288 Y151.099 E377.25063
G1 X91.702 Y151.099 E377.39172
G1 X68.899 Y128.296 E380.60947
G1 X68.899 Y126.882 E380.75056
G1 X93.116 Y151.099 E384.16784
G1 X94.53 Y151.099 E384.30893
G1 X68.899 Y125.468 E387.92574
G1 X68.899 Y124.054 E388.06683
G1 X95.945 Y151.099 E391.88325
G1 X97.359 Y151.099 E392.02433
G1 X68.899 Y122.639 E396.04035
G1 X68.899 Y121.225 E396.18144
G1 X98.773 Y151.099 E400.39698
G1 X100.187 Y151.099 E400.53807
G1 X68.899 Y119.811 E404.95315
G1 X68.899 Y118.397 E405.09424
G1 X101.602 Y151.099 E409.70891
G1 X103.016 Y151.099 E409.85
G1 X68.899 Y116.983 E414.66421
G1 X68.899 Y115.568 E414.8054
G1 X104.43 Y151.099 E419.81921
G1 X105.844 Y151.099 E419.96029
G1 X68.899 Y114.154 E425.17363
G1 X68.899 Y112.74 E425.31472
G1 X107.258 Y151.099 E430.72759
G1 X108.673 Y151.099 E430.86878
G1 X68.899 Y111.326 E436.48125
G1 X68.899 Y109.911 E436.62244
G1 X110.087 Y151.099 E442.43451
G1 X111.501 Y151.099 E442.5756
G1 X68.899 Y108.497 E448.5872
G1 X68.899 Y107.083 E448.72829
G1 X112.915 Y151.099 E454.93943
G1 X114.329 Y151.099 E455.08052
G1 X68.899 Y105.669 E461.49118
G1 X68.899 Y104.255 E461.63227
G1 X115.744 Y151.099 E468.24253
G1 X117.158 Y151.099 E468.38362
G1 X68.899 Y102.84 E475.19349
G1 X68.899 Y101.426 E475.33458
G1 X118.572 Y151.099 E482.34398
G1 X119.986 Y151.099 E482.48507
G1 X68.899 Y100.012 E489.69399
G1 X68.899 Y98.598 E489.83508
G1 X121.401 Y151.099 E497.24361
G1 X122.815 Y151.099 E497.3847
G1 X68.899 Y97.184 E504.99276
G1 X68.899 Y95.769 E505.13395
G1 X124.229 Y151.099 E512.94161
G1 X125.643 Y151.099 E513.0827
G1 X68.899 Y94.355 E521.08989
G1 X68.899 Y92.941 E521.23098
G1 X127.057 Y151.099 E529.4377
G1 X128.472 Y151.099 E529.57889
G1 X68.899 Y91.527 E537.98522
G1 X68.899 Y90.112 E538.12641
G1 X129.886 Y151.099 E546.73233
G1 X131.3 Y151.099 E546.87342
G1 X68.899 Y88.698 E555.67887
G1 X68.899 Y87.284 E555.81996
G1 X132.714 Y151.099 E564.82495
G1 X134.128 Y151.099 E564.96604
G1 X68.899 Y85.87 E574.17056
G1 X68.899 Y84.456 E574.31165
G1 X135.543 Y151.099 E583.71576
G1 X136.957 Y151.099 E583.85685
G1 X68.899 Y83.041 E593.46057
G1 X68.899 Y81.627 E593.60166
G1 X138.371 Y151.099 E603.40491
G1 X139.409 Y151.099 E603.50848
G1 X139.556 Y151.095 E603.52316
G1 X139.77 Y151.083 E603.54454
G1 X68.913 Y80.227 E613.54316
G1 X68.94 Y79.7 E613.59581
G1 X68.947 Y79.588 E613.60701
G1 X69.003 Y79.043 E613.66168
G1 X69.021 Y78.92 E613.67408
G1 X141.077 Y150.977 E623.84203
G1 X141.663 Y150.889 E623.90116
G1 X141.897 Y150.842 E623.92497
G1 X142.264 Y150.75 E623.96273
G1 X69.249 Y77.734 E634.266
G1 X69.336 Y77.391 E634.30131
G1 X69.512 Y76.814 E634.3615
G1 X69.572 Y76.644 E634.37949
G1 X143.353 Y150.424 E644.79072
G1 X143.872 Y150.236 E644.84579
G1 X144.09 Y150.146 E644.86933
G1 X144.36 Y150.017 E644.89919
G1 X69.982 Y75.639 E655.39472
G1 X70.128 Y75.33 E655.42883
G1 X70.172 Y75.242 E655.43864
G1 X70.4 Y74.816 E655.48685
G1 X70.441 Y74.744 E655.49512
G1 X70.463 Y74.706 E655.4995
G1 X145.292 Y149.534 E666.05861
G1 X145.875 Y149.183 E666.12651
G1 X146.065 Y149.055 E666.14937
G1 X146.157 Y148.985 E666.16091
G1 X71.014 Y73.842 E676.7644
G1 X71.336 Y73.408 E676.81832
G1 X71.41 Y73.314 E676.83026
G1 X71.631 Y73.045 E676.86499
G1 X146.953 Y148.367 E687.49374
G1 X147.025 Y148.31 E687.5029
G1 X147.121 Y148.227 E687.51557
G1 X147.634 Y147.76 E687.58479
G1 X147.697 Y147.697 E687.59368
G1 X72.301 Y72.301 E698.23287
G1 X72.367 Y72.235 E698.24218
G1 X72.877 Y71.772 E698.31091
G1 X72.974 Y71.688 E698.32371
G1 X73.045 Y71.631 E698.3328
G1 X148.367 Y146.953 E708.96155
G1 X148.589 Y146.684 E708.99635
G1 X148.662 Y146.591 E709.00814
G1 X148.985 Y146.156 E709.06221
G1 X73.841 Y71.013 E719.66577
G1 X73.935 Y70.941 E719.67758
G1 X74.123 Y70.816 E719.70011
G1 X74.707 Y70.464 E719.76815
G1 X149.535 Y145.292 E730.32718
G1 X149.558 Y145.254 E730.33162
G1 X149.598 Y145.183 E730.33975
G1 X149.829 Y144.751 E730.38863
G1 X149.87 Y144.669 E730.39778
G1 X150.016 Y144.359 E730.43197
G1 X75.638 Y69.981 E740.92751
G1 X75.908 Y69.852 E740.95736
G1 X76.126 Y69.762 E740.9809
G1 X76.646 Y69.575 E741.03604
G1 X150.426 Y143.355 E751.44719
G1 X150.482 Y143.196 E751.46401
G1 X150.523 Y143.068 E751.47742
G1 X150.663 Y142.607 E751.5255
G1 X150.68 Y142.542 E751.5322
G1 X150.75 Y142.264 E751.5608
G1 X77.734 Y69.249 E761.86408
G1 X78.101 Y69.156 E761.90186
G1 X78.336 Y69.109 E761.92577
G1 X78.921 Y69.022 E761.98478
G1 X150.977 Y141.078 E772.15266
G1 X150.995 Y140.956 E772.16497
G1 X151.051 Y140.41 E772.21973
G1 X151.059 Y140.298 E772.23094
G1 X151.085 Y139.771 E772.28359
G1 X80.229 Y68.915 E782.28213
G1 X80.442 Y68.904 E782.30341
G1 X80.589 Y68.899 E782.31809
G1 X81.627 Y68.899 E782.42166
G1 X151.099 Y138.371 E792.22491
G1 X151.099 Y136.957 E792.366
G1 X83.041 Y68.899 E801.96972
G1 X84.456 Y68.899 E802.11091
G1 X151.099 Y135.543 E811.51503
G1 X151.099 Y134.128 E811.65622
G1 X85.87 Y68.899 E820.86073
G1 X87.284 Y68.899 E821.00182
G1 X151.099 Y132.714 E830.00681
G1 X151.099 Y131.3 E830.1479
G1 X88.698 Y68.899 E838.95335
G1 X90.112 Y68.899 E839.09444
G1 X151.099 Y129.886 E847.70037
G1 X151.099 Y128.472 E847.84146
G1 X91.527 Y68.899 E856.24778
G1 X92.941 Y68.899 E856.38887
G1 X151.099 Y127.057 E864.59559
G1 X151.099 Y125.643 E864.73668
