;FLAVOR:Marlin
;TIME:7289
;Filament used: 6.21122m
;Layer height: 0.2
;MINX:70.31
;MINY:70.31
;MINZ:0.24
;MAXX:149.684
;MAXY:149.691
;MAXZ:16.09
;Generated with Cura_SteamEngine 4.9.1
M140 S60
M105
M190 S60
M104 S200
M105
M109 S200
M82 ;absolute extrusion mode
; Ender 3 Custom Start G-code
G92 E0 ; Reset Extruder
G28 ; Home all axes
G1 Z2.0 F3000 ; Move Z Axis up little to prevent scratching of Heat Bed
G1 X0.1 Y20 Z0.3 F5000.0 ; Move to start position
G1 X0.1 Y200.0 Z0.3 F1500.0 E15 ; Draw the first line
G1 X0.4 Y200.0 Z0.3 F5000.0 ; Move to side a little
G1 X0.4 Y20 Z0.3 F1500.0 E30 ; Draw the second line
G92 E0 ; Reset Extruder
G1 Z2.0 F3000 ; Move Z Axis up little to prevent scratching of Heat Bed
G1 X5 Y20 Z0.3 F5000.0 ; Move over to prevent blob squish
G92 E0
G92 E0
G1 F1500 E-6.5
;LAYER_COUNT:75
;LAYER:-6
M107
G0 F9000 X74.05 Y74.331 Z0.24
;TYPE:SUPPORT-INTERFACE
G1 F1500 E0
G1 F1125 X74.487 Y73.905 E0.04872
G1 X74.621 Y73.784 E0.06313
G1 X75.064 Y73.419 E0.10895
G1 X75.265 Y73.268 E0.12901
G1 X75.804 Y72.893 E0.18143
G1 X75.992 Y72.774 E0.19919
G1 X76.546 Y72.462 E0.24994
G1 X76.676 Y72.396 E0.26158
G1 X77.21 Y72.152 E0.30845
G1 X77.469 Y72.047 E0.33075
G1 X78.099 Y71.822 E0.38415
G1 X78.308 Y71.758 E0.4016
G1 X78.879 Y71.611 E0.44867
G1 X79.083 Y71.567 E0.46533
G1 X79.608 Y71.48 E0.50781
G1 X79.922 Y71.443 E0.53304
G1 X80.903 Y71.379 E0.61152
G1 X81.065 Y71.374 E0.62446
G1 X104.94 Y71.374 E2.53026
G1 X105.712 Y71.408 E2.59195
G1 X105.908 Y71.427 E2.60767
G1 X106.503 Y71.512 E2.65564
G1 X106.722 Y71.554 E2.67344
G1 X107.299 Y71.692 E2.7208
G1 X107.51 Y71.754 E2.73836
G1 X108.597 Y72.126 E2.83007
G1 X108.685 Y72.141 E2.83719
G1 X109.356 Y72.264 E2.89165
G1 X110.038 Y72.303 E2.94617
G1 X110.718 Y72.254 E3.0006
G1 X111.388 Y72.121 E3.05512
G1 X111.507 Y72.096 E3.06483
G1 X112.184 Y71.852 E3.12227
G1 X112.753 Y71.678 E3.16977
G1 X112.983 Y71.62 E3.1887
G1 X113.563 Y71.5 E3.23598
G1 X113.755 Y71.47 E3.25149
G1 X114.379 Y71.401 E3.30161
G1 X114.561 Y71.388 E3.31617
G1 X115.073 Y71.374 E3.35706
G1 X138.939 Y71.375 E5.26215
G1 X139.104 Y71.381 E5.27533
G1 X140.097 Y71.445 E5.35476
G1 X140.466 Y71.493 E5.38446
G1 X141.099 Y71.607 E5.4358
G1 X141.322 Y71.658 E5.45406
G1 X141.898 Y71.819 E5.5018
G1 X142.071 Y71.875 E5.51632
G1 X142.614 Y72.078 E5.56259
G1 X142.873 Y72.19 E5.58512
G1 X143.444 Y72.458 E5.63547
G1 X143.642 Y72.563 E5.65336
G1 X144.162 Y72.87 E5.70156
G1 X144.306 Y72.963 E5.71524
G1 X144.812 Y73.325 E5.76491
G1 X145.002 Y73.474 E5.78418
G1 X145.518 Y73.91 E5.8381
G1 X145.669 Y74.05 E5.85454
G1 X146.095 Y74.487 E5.90326
G1 X146.221 Y74.627 E5.91829
G1 X146.581 Y75.064 E5.96349
G1 X146.733 Y75.265 E5.9836
G1 X147.107 Y75.804 E6.03597
G1 X147.223 Y75.986 E6.0532
G1 X147.538 Y76.546 E6.10449
G1 X147.604 Y76.676 E6.11613
G1 X147.846 Y77.204 E6.16249
G1 X147.949 Y77.458 E6.18437
G1 X148.18 Y78.103 E6.23906
G1 X148.242 Y78.308 E6.25615
G1 X148.389 Y78.879 E6.30322
G1 X148.433 Y79.083 E6.31988
G1 X148.521 Y79.611 E6.36261
G1 X148.556 Y79.91 E6.38664
G1 X148.621 Y80.903 E6.46607
G1 X148.626 Y81.053 E6.47805
G1 X148.625 Y138.939 E11.09876
G1 X148.619 Y139.104 E11.11194
G1 X148.555 Y140.094 E11.19113
G1 X148.51 Y140.458 E11.22041
G1 X148.393 Y141.099 E11.27242
G1 X148.342 Y141.322 E11.29068
G1 X148.181 Y141.898 E11.33843
G1 X148.125 Y142.071 E11.35294
G1 X147.926 Y142.603 E11.39828
G1 X147.814 Y142.865 E11.42103
G1 X147.542 Y143.444 E11.47209
G1 X147.437 Y143.642 E11.48998
G1 X147.13 Y144.162 E11.53818
G1 X147.037 Y144.306 E11.55187
G1 X146.733 Y144.734 E11.59377
G1 X146.526 Y145.002 E11.6208
G1 X146.09 Y145.518 E11.67473
G1 X145.953 Y145.665 E11.69077
G1 X145.513 Y146.095 E11.73988
G1 X145.379 Y146.216 E11.75429
G1 X144.936 Y146.581 E11.80011
G1 X144.735 Y146.733 E11.82023
G1 X144.196 Y147.107 E11.87259
G1 X144.008 Y147.226 E11.89035
G1 X143.454 Y147.538 E11.94111
G1 X143.324 Y147.604 E11.95275
G1 X142.79 Y147.848 E11.99961
G1 X142.533 Y147.952 E12.02174
G1 X141.901 Y148.178 E12.07532
G1 X141.692 Y148.242 E12.09277
G1 X141.121 Y148.389 E12.13983
G1 X140.917 Y148.433 E12.15649
G1 X140.4 Y148.519 E12.19833
G1 X140.078 Y148.557 E12.22421
G1 X139.097 Y148.621 E12.30268
G1 X138.935 Y148.626 E12.31562
G1 X94.06 Y148.626 E15.89774
G1 X93.288 Y148.592 E15.95942
G1 X93.092 Y148.573 E15.97514
G1 X92.497 Y148.488 E16.02312
G1 X92.278 Y148.446 E16.04092
G1 X91.701 Y148.308 E16.08828
G1 X91.494 Y148.247 E16.1055
G1 X90.84 Y148.101 E16.15899
G1 X90.16 Y148.036 E16.21352
G1 X89.478 Y148.059 E16.26799
G1 X88.809 Y148.166 E16.32207
G1 X88.421 Y148.269 E16.35412
G1 X88.029 Y148.378 E16.3866
G1 X87.437 Y148.5 E16.43485
G1 X87.245 Y148.53 E16.45036
G1 X86.62 Y148.599 E16.50055
G1 X86.438 Y148.612 E16.51512
G1 X85.925 Y148.626 E16.55608
G1 X81.059 Y148.625 E16.94451
G1 X80.895 Y148.619 E16.95761
G1 X79.896 Y148.554 E17.03752
G1 X79.534 Y148.507 E17.06666
G1 X78.901 Y148.393 E17.118
G1 X78.678 Y148.342 E17.13626
G1 X78.102 Y148.181 E17.184
G1 X77.929 Y148.125 E17.19852
G1 X77.386 Y147.922 E17.24479
G1 X77.12 Y147.807 E17.26792
G1 X76.556 Y147.542 E17.31767
G1 X76.358 Y147.437 E17.33556
G1 X75.838 Y147.13 E17.38376
G1 X75.69 Y147.034 E17.39784
G1 X75.267 Y146.733 E17.43928
G1 X74.998 Y146.526 E17.46638
G1 X74.482 Y146.09 E17.5203
G1 X74.331 Y145.95 E17.53674
G1 X73.905 Y145.513 E17.58545
G1 X73.779 Y145.373 E17.60049
G1 X73.42 Y144.936 E17.64563
G1 X73.267 Y144.734 E17.66586
G1 X72.887 Y144.187 E17.71903
G1 X72.774 Y144.009 E17.73586
G1 X72.462 Y143.454 E17.78668
G1 X72.396 Y143.324 E17.79832
G1 X72.153 Y142.792 E17.84501
G1 X72.047 Y142.531 E17.86749
G1 X71.822 Y141.901 E17.92089
G1 X71.758 Y141.692 E17.93834
G1 X71.61 Y141.118 E17.98566
G1 X71.567 Y140.917 E18.00207
G1 X71.48 Y140.392 E18.04455
G1 X71.443 Y140.076 E18.06994
G1 X71.379 Y139.093 E18.14858
G1 X71.374 Y138.947 E18.16024
G1 X71.375 Y81.061 E22.78095
G1 X71.381 Y80.896 E22.79413
G1 X71.445 Y79.906 E22.87332
G1 X71.493 Y79.533 E22.90334
G1 X71.608 Y78.894 E22.95517
G1 X71.658 Y78.678 E22.97286
G1 X71.819 Y78.102 E23.02061
G1 X71.877 Y77.922 E23.0357
G1 X72.073 Y77.398 E23.08036
G1 X72.191 Y77.123 E23.10425
G1 X72.458 Y76.556 E23.15427
G1 X72.563 Y76.358 E23.17216
G1 X72.87 Y75.838 E23.22037
G1 X72.963 Y75.694 E23.23405
G1 X73.267 Y75.267 E23.27589
G1 X73.474 Y74.998 E23.30299
G1 X73.91 Y74.482 E23.35691
G1 X74.05 Y74.331 E23.37335
G0 F9000 X73.6 Y74.848
G1 F1125 X73.6 Y145.155 E28.98556
G0 F9000 X75.2 Y146.681
G1 F1125 X75.2 Y73.316 E34.84187
G0 F9000 X76.8 Y72.339
G1 F1125 X76.8 Y147.656 E40.854
G0 F9000 X78.4 Y148.264
G1 F1125 X78.4 Y71.734 E46.96295
G0 F9000 X80 Y71.437
G1 F1125 X80 Y148.56 E53.11924
G0 F9000 X81.6 Y148.625
G1 F1125 X81.6 Y71.374 E59.28575
G0 F9000 X83.2 Y71.374
G1 F1125 X83.2 Y148.625 E65.45226
G0 F9000 X84.8 Y148.625
G1 F1125 X84.8 Y71.374 E71.61877
G0 F9000 X86.4 Y71.374
G1 F1125 X86.4 Y148.614 E77.7844
G0 F9000 X88 Y148.384
G1 F1125 X88 Y71.374 E83.93167
G0 F9000 X89.6 Y71.374
G1 F1125 X89.6 Y148.055 E90.05268
G0 F9000 X91.2 Y148.181
G1 F1125 X91.2 Y71.374 E96.18375
G0 F9000 X92.8 Y71.374
G1 F1125 X92.8 Y148.531 E102.34275
G0 F9000 X94.4 Y148.626
G1 F1125 X94.4 Y71.374 E108.50934
G0 F9000 X96 Y71.374
G1 F1125 X96 Y148.626 E114.67593
G0 F9000 X97.6 Y148.626
G1 F1125 X97.6 Y71.374 E120.84252
G0 F9000 X99.2 Y71.374
G1 F1125 X99.2 Y148.626 E127.00911
G0 F9000 X100.8 Y148.626
G1 F1125 X100.8 Y71.374 E133.1757
G0 F9000 X102.4 Y71.374
G1 F1125 X102.4 Y148.626 E139.34228
G0 F9000 X104 Y148.626
G1 F1125 X104 Y71.374 E145.50887
G0 F9000 X105.6 Y71.404
G1 F1125 X105.6 Y148.626 E151.67307
G0 F9000 X107.2 Y148.626
G1 F1125 X107.2 Y71.669 E157.81611
G0 F9000 X108.8 Y72.163
G1 F1125 X108.8 Y148.626 E163.91972
G0 F9000 X110.4 Y148.626
G1 F1125 X110.4 Y72.276 E170.0143
G0 F9000 X112 Y71.918
G1 F1125 X112 Y148.626 E176.13747
G0 F9000 X113.6 Y148.626
G1 F1125 X113.6 Y71.494 E182.29448
G0 F9000 X115.2 Y71.375
G1 F1125 X115.2 Y148.626 E188.46099
G0 F9000 X116.8 Y148.626
G1 F1125 X116.8 Y71.375 E194.62749
G0 F9000 X118.4 Y71.375
G1 F1125 X118.4 Y148.626 E200.794
G0 F9000 X120 Y148.626
G1 F1125 X120 Y71.375 E206.96051
G0 F9000 X121.6 Y71.375
G1 F1125 X121.6 Y148.626 E213.12702
G0 F9000 X123.2 Y148.626
G1 F1125 X123.2 Y71.375 E219.29353
G0 F9000 X124.8 Y71.375
G1 F1125 X124.8 Y148.626 E225.46004
G0 F9000 X126.4 Y148.626
G1 F1125 X126.4 Y71.375 E231.62655
G0 F9000 X128 Y71.375
G1 F1125 X128 Y148.626 E237.79306
G0 F9000 X129.6 Y148.626
G1 F1125 X129.6 Y71.375 E243.95957
G0 F9000 X131.2 Y71.375
G1 F1125 X131.2 Y148.626 E250.12607
G0 F9000 X132.8 Y148.626
G1 F1125 X132.8 Y71.375 E256.29258
G0 F9000 X134.4 Y71.375
G1 F1125 X134.4 Y148.626 E262.45909
G0 F9000 X136 Y148.626
G1 F1125 X136 Y71.375 E268.6256
G0 F9000 X137.6 Y71.375
G1 F1125 X137.6 Y148.626 E274.79211
G0 F9000 X139.2 Y148.615
G1 F1125 X139.2 Y71.388 E280.9567
G0 F9000 X140.8 Y71.554
G1 F1125 X140.8 Y148.453 E287.09511
G0 F9000 X142.4 Y148
G1 F1125 X142.4 Y71.998 E293.16192
G0 F9000 X144 Y72.775
G1 F1125 X144 Y147.231 E299.10532
G0 F9000 X145.6 Y146.01
G1 F1125 X145.6 Y73.987 E304.85451
G0 F9000 X147.2 Y75.95
G1 F1125 X147.2 Y144.044 E310.29007
G1 F1500 E303.79007
G0 F9000 X147.913 Y144.911
G0 X146.719 Y146.404
G0 X145.445 Y147.531
G0 X143.963 Y148.473
G0 X142.24 Y149.188
G0 X140.551 Y149.573
G0 X138.957 Y149.69
G0 X80.846 Y149.682
G0 X79.352 Y149.556
G0 X77.788 Y149.199
G0 X76.08 Y148.494
G0 X74.639 Y147.593
G0 X73.596 Y146.719
G0 X72.466 Y145.441
G0 X71.621 Y144.111
G0 X71.052 Y142.909
G0 X72 Y142.399
G1 F1500 E310.29007
G1 F1125 X72 Y77.593 E315.46316
G1 F1500 E308.96316
G0 F300 X72 Y77.593 Z0.54
G0 F9000 X70.869 Y77.581
G0 X70.563 Y78.691
G0 X70.385 Y79.812
G0 X70.311 Y81.035
G0 X70.316 Y139.14
G0 X70.431 Y140.575
G0 X70.738 Y141.923
G0 X71.179 Y143.224
G0 X72.396 Y143.323
;TIME_ELAPSED:223.609730
;LAYER:-5
;TYPE:SUPPORT
G1 F1500 E315.46316
G1 F1125 X72.462 Y143.452 E315.47762
G1 X72.774 Y144.007 E315.54115
G1 X72.887 Y144.186 E315.56227
G1 X73.266 Y144.732 E315.62859
G1 X73.42 Y144.935 E315.65401
G1 X73.778 Y145.371 E315.7103
G1 X73.904 Y145.511 E315.7291
G1 X74.331 Y145.949 E315.79013
G1 X74.481 Y146.088 E315.81054
G1 X74.998 Y146.525 E315.87808
G1 X75.077 Y146.589 E315.88823
G1 X75.266 Y146.732 E315.91188
G1 X75.69 Y147.032 E315.9637
G1 X75.837 Y147.129 E315.98128
G1 X76.357 Y147.436 E316.04153
G1 X76.556 Y147.541 E316.06398
G1 X77.073 Y147.784 E316.12098
G1 X72.213 Y142.924 E316.80678
G1 X72.153 Y142.791 E316.82134
G1 X72.047 Y142.53 E316.84945
G1 X71.821 Y141.9 E316.91623
G1 X71.757 Y141.69 E316.93814
G1 X71.61 Y141.117 E316.99716
G1 X71.566 Y140.915 E317.01779
G1 X71.556 Y140.852 E317.02416
G1 X79.138 Y148.435 E318.09413
G1 X79.533 Y148.506 E318.13417
G1 X79.663 Y148.527 E318.14731
G1 X79.761 Y148.54 E318.15718
G1 X79.895 Y148.553 E318.17061
G1 X80.724 Y148.606 E318.2535
G1 X71.39 Y139.272 E319.57063
G1 X71.378 Y139.092 E319.58863
G1 X71.373 Y138.946 E319.6032
G1 X71.373 Y137.841 E319.71346
G1 X82.156 Y148.624 E321.23506
G1 X83.57 Y148.624 E321.37615
G1 X71.373 Y136.427 E323.09728
G1 X71.373 Y135.013 E323.23836
G1 X84.985 Y148.624 E325.15909
G1 X85.924 Y148.625 E325.25279
G1 X86.386 Y148.611 E325.29891
G1 X71.373 Y133.599 E327.41733
G1 X71.373 Y132.185 E327.55842
G1 X87.645 Y148.456 E329.85451
G1 X88.028 Y148.377 E329.89353
G1 X88.246 Y148.322 E329.91596
G1 X88.421 Y148.268 E329.93424
G1 X88.776 Y148.173 E329.9709
G1 X71.373 Y130.77 E332.42666
G1 X71.373 Y129.356 E332.56775
G1 X90.056 Y148.039 E335.20412
G1 X90.16 Y148.035 E335.2145
G1 X90.839 Y148.099 E335.28255
G1 X91.493 Y148.246 E335.34944
G1 X91.7 Y148.307 E335.37097
G1 X91.749 Y148.318 E335.37598
G1 X71.373 Y127.942 E338.25126
G1 X71.373 Y126.528 E338.39235
G1 X93.442 Y148.597 E341.50652
G1 X94.06 Y148.624 E341.56824
G1 X94.884 Y148.624 E341.65046
G1 X71.373 Y125.114 E344.96805
G1 X71.373 Y123.699 E345.10924
G1 X96.298 Y148.624 E348.62642
G1 X97.712 Y148.624 E348.76751
G1 X71.373 Y122.285 E352.48423
G1 X71.373 Y120.871 E352.62532
G1 X99.127 Y148.624 E356.54164
G1 X100.541 Y148.624 E356.68273
G1 X71.373 Y119.457 E360.79858
G1 X71.373 Y118.042 E360.93977
G1 X101.955 Y148.624 E365.25522
G1 X103.369 Y148.624 E365.39631
G1 X71.373 Y116.628 E369.91129
G1 X71.373 Y115.214 E370.05238
G1 X104.784 Y148.624 E374.76696
G1 X106.198 Y148.624 E374.90805
G1 X71.373 Y113.8 E379.82216
G1 X71.373 Y112.386 E379.96325
G1 X107.612 Y148.624 E385.0769
G1 X109.026 Y148.624 E385.21799
G1 X71.373 Y110.971 E390.53123
G1 X71.373 Y109.557 E390.67232
G1 X110.44 Y148.624 E396.1851
G1 X111.855 Y148.624 E396.32629
G1 X71.373 Y108.143 E402.03866
G1 X71.373 Y106.729 E402.17975
G1 X113.269 Y148.624 E408.09166
G1 X114.683 Y148.624 E408.23275
G1 X71.373 Y105.315 E414.34419
G1 X71.373 Y103.9 E414.48538
G1 X116.097 Y148.624 E420.79642
G1 X117.511 Y148.624 E420.93751
G1 X71.373 Y102.486 E427.44808
G1 X71.373 Y101.072 E427.58916
G1 X118.926 Y148.624 E434.29934
G1 X120.34 Y148.624 E434.44043
G1 X71.373 Y99.658 E441.35013
G1 X71.373 Y98.244 E441.49122
G1 X121.754 Y148.624 E448.60045
G1 X123.168 Y148.624 E448.74154
G1 X71.373 Y96.829 E456.05037
G1 X71.373 Y95.415 E456.19146
G1 X124.583 Y148.624 E463.6999
G1 X125.997 Y148.624 E463.84099
G1 X71.373 Y94.001 E471.54895
G1 X71.373 Y92.587 E471.69004
G1 X127.411 Y148.624 E479.59754
G1 X128.825 Y148.624 E479.73863
G1 X71.373 Y91.172 E487.84573
G1 X71.373 Y89.758 E487.98682
G1 X130.239 Y148.624 E496.29345
G1 X131.654 Y148.624 E496.43463
G1 X71.373 Y88.344 E504.94086
G1 X71.373 Y86.93 E505.08195
G1 X133.068 Y148.624 E513.78771
G1 X134.482 Y148.624 E513.9288
G1 X71.373 Y85.516 E522.83409
G1 X71.373 Y84.101 E522.97528
G1 X135.896 Y148.624 E532.08018
G1 X137.31 Y148.624 E532.22127
G1 X71.373 Y82.687 E541.52569
G1 X71.373 Y81.273 E541.66678
G1 X138.725 Y148.624 E551.1708
G1 X138.935 Y148.625 E551.19176
G1 X139.097 Y148.62 E551.20793
G1 X140.07 Y148.556 E551.30522
G1 X71.443 Y79.928 E560.98931
G1 X71.445 Y79.905 E560.99161
G1 X71.47 Y79.673 E561.01489
G1 X71.492 Y79.532 E561.02913
G1 X71.607 Y78.892 E561.09401
G1 X71.648 Y78.719 E561.11175
G1 X141.277 Y148.348 E570.93716
G1 X141.692 Y148.241 E570.97992
G1 X141.9 Y148.177 E571.00164
G1 X142.356 Y148.013 E571.04999
G1 X71.982 Y77.638 E580.98059
G1 X72.072 Y77.397 E581.00626
G1 X72.127 Y77.265 E581.02053
G1 X72.19 Y77.122 E581.03612
G1 X72.411 Y76.653 E581.08785
G1 X143.348 Y147.59 E591.09783
G1 X143.454 Y147.537 E591.10966
G1 X144.007 Y147.225 E591.17301
G1 X144.196 Y147.106 E591.1953
G1 X144.244 Y147.072 E591.20116
G1 X72.923 Y75.752 E601.26526
G1 X72.962 Y75.693 E601.27231
G1 X73.266 Y75.266 E601.32462
G1 X73.408 Y75.077 E601.3482
G1 X73.474 Y74.997 E601.35855
G1 X73.523 Y74.937 E601.36628
G1 X145.061 Y146.475 E611.46107
G1 X145.379 Y146.214 E611.50212
G1 X145.512 Y146.093 E611.52006
G1 X145.806 Y145.806 E611.56105
G1 X74.192 Y74.192 E621.66656
G1 X74.485 Y73.904 E621.70756
G1 X74.62 Y73.784 E621.72558
G1 X74.937 Y73.523 E621.76655
G1 X146.475 Y145.061 E631.86133
G1 X146.525 Y145.002 E631.86905
G1 X146.588 Y144.922 E631.87921
G1 X146.732 Y144.734 E631.90284
G1 X147.036 Y144.305 E631.9553
G1 X147.075 Y144.246 E631.96236
G1 X75.755 Y72.926 E642.02638
G1 X75.803 Y72.892 E642.03225
G1 X75.991 Y72.774 E642.0544
G1 X76.545 Y72.462 E642.11784
G1 X76.651 Y72.408 E642.12971
G1 X147.588 Y143.345 E652.13969
G1 X147.813 Y142.865 E652.19259
G1 X147.879 Y142.714 E652.20903
G1 X147.925 Y142.603 E652.22102
G1 X148.016 Y142.359 E652.247
G1 X77.642 Y71.985 E662.17753
G1 X78.098 Y71.822 E662.22585
G1 X78.307 Y71.757 E662.24769
G1 X78.722 Y71.651 E662.29043
G1 X148.351 Y141.279 E672.11576
G1 X148.392 Y141.098 E672.13428
G1 X148.507 Y140.458 E672.19916
G1 X148.532 Y140.306 E672.21453
G1 X148.553 Y140.094 E672.23579
G1 X148.556 Y140.07 E672.2382
G1 X79.928 Y71.443 E681.92229
G1 X80.902 Y71.378 E682.01969
G1 X81.064 Y71.373 E682.03586
G1 X81.273 Y71.373 E682.05672
G1 X148.625 Y138.725 E691.56081
G1 X148.625 Y137.311 E691.7019
G1 X82.687 Y71.373 E701.00646
G1 X84.101 Y71.373 E701.14755
G1 X148.625 Y135.897 E710.25259
G1 X148.625 Y134.483 E710.39368
G1 X85.516 Y71.373 E719.29911
G1 X86.93 Y71.373 E719.4402
G1 X148.625 Y133.069 E728.1461
G1 X148.625 Y131.654 E728.28729
G1 X88.344 Y71.373 E736.79359
