;FLAVOR:Marlin
;TIME:6725
;Filament used: 5.97021m
;Layer height: 0.2
;MINX:70.879
;MINY:70.799
;MINZ:0.24
;MAXX:149.122
;MAXY:149.203
;MAXZ:16.09
;Generated with Cura_SteamEngine 4.9.1
M140 S60
M105
M190 S60
M104 S200
M105
M109 S200
M82 ;absolute extrusion mode
; Ender 3 Custom Start G-code
G92 E0 ; Reset Extruder
G28 ; Home all axes
G1 Z2.0 F3000 ; Move Z Axis up little to prevent scratching of Heat Bed
G1 X0.1 Y20 Z0.3 F5000.0 ; Move to start position
G1 X0.1 Y200.0 Z0.3 F1500.0 E15 ; Draw the first line
G1 X0.4 Y200.0 Z0.3 F5000.0 ; Move to side a little
G1 X0.4 Y20 Z0.3 F1500.0 E30 ; Draw the second line
G92 E0 ; Reset Extruder
G1 Z2.0 F3000 ; Move Z Axis up little to prevent scratching of Heat Bed
G1 X5 Y20 Z0.3 F5000.0 ; Move over to prevent blob squish
G92 E0
G92 E0
G1 F1500 E-6.5
;LAYER_COUNT:75
;LAYER:-6
M107
G0 F9000 X74.618 Y74.819 Z0.24
;TYPE:SUPPORT-INTERFACE
G1 F1500 E0
G1 F1125 X75.055 Y74.393 E0.04872
G1 X75.189 Y74.272 E0.06313
G1 X75.632 Y73.907 E0.10895
G1 X75.833 Y73.755 E0.12906
G1 X76.372 Y73.381 E0.18143
G1 X76.572 Y73.254 E0.20034
G1 X77.092 Y72.961 E0.24799
G1 X77.249 Y72.881 E0.26205
G1 X77.784 Y72.637 E0.30899
G1 X78.024 Y72.54 E0.32965
G1 X78.644 Y72.316 E0.38228
G1 X78.855 Y72.25 E0.39992
G1 X79.461 Y72.094 E0.44987
G1 X79.613 Y72.062 E0.46227
G1 X80.129 Y71.975 E0.50404
G1 X80.512 Y71.93 E0.53483
G1 X81.472 Y71.867 E0.61162
G1 X81.633 Y71.862 E0.62448
G1 X138.375 Y71.863 E5.15387
G1 X138.536 Y71.868 E5.16673
G1 X139.514 Y71.933 E5.24497
G1 X139.894 Y71.981 E5.27555
G1 X140.525 Y72.094 E5.32672
G1 X140.749 Y72.144 E5.34504
G1 X141.334 Y72.308 E5.39353
G1 X141.491 Y72.359 E5.40671
G1 X141.974 Y72.538 E5.44783
G1 X142.298 Y72.674 E5.47588
G1 X142.88 Y72.948 E5.52723
G1 X143.096 Y73.063 E5.54676
G1 X143.601 Y73.362 E5.59361
G1 X143.773 Y73.474 E5.60999
G1 X144.216 Y73.792 E5.65352
G1 X144.434 Y73.962 E5.67559
G1 X144.95 Y74.398 E5.72951
G1 X145.101 Y74.538 E5.74595
G1 X145.527 Y74.975 E5.79467
G1 X145.653 Y75.115 E5.8097
G1 X146.013 Y75.553 E5.85496
G1 X146.165 Y75.754 E5.87507
G1 X146.539 Y76.292 E5.92738
G1 X146.666 Y76.492 E5.94629
G1 X146.959 Y77.012 E5.99393
G1 X147.039 Y77.169 E6.008
G1 X147.295 Y77.73 E6.05722
G1 X147.38 Y77.944 E6.0756
G1 X147.604 Y78.564 E6.12822
G1 X147.67 Y78.775 E6.14587
G1 X147.827 Y79.386 E6.19623
G1 X147.857 Y79.529 E6.20789
G1 X147.945 Y80.05 E6.25007
G1 X147.99 Y80.432 E6.28077
G1 X148.053 Y81.392 E6.35757
G1 X148.058 Y81.541 E6.36947
G1 X148.057 Y138.455 E10.91259
G1 X148.052 Y138.616 E10.92545
G1 X147.988 Y139.587 E11.00313
G1 X147.942 Y139.966 E11.0336
G1 X147.826 Y140.605 E11.08544
G1 X147.778 Y140.82 E11.10303
G1 X147.611 Y141.416 E11.15244
G1 X147.561 Y141.571 E11.16544
G1 X147.382 Y142.054 E11.20656
G1 X147.25 Y142.37 E11.23389
G1 X146.973 Y142.959 E11.28585
G1 X146.866 Y143.16 E11.30402
G1 X146.559 Y143.679 E11.35216
G1 X146.446 Y143.853 E11.36872
G1 X146.143 Y144.277 E11.41032
G1 X145.958 Y144.514 E11.43432
G1 X145.522 Y145.03 E11.48824
G1 X145.385 Y145.177 E11.50428
G1 X144.945 Y145.607 E11.55339
G1 X144.811 Y145.728 E11.56781
G1 X144.368 Y146.093 E11.61362
G1 X144.167 Y146.245 E11.63374
G1 X143.628 Y146.619 E11.68611
G1 X143.428 Y146.746 E11.70502
G1 X142.908 Y147.039 E11.75267
G1 X142.751 Y147.119 E11.76673
G1 X142.216 Y147.363 E11.81367
G1 X141.976 Y147.46 E11.83433
G1 X141.356 Y147.684 E11.88695
G1 X141.147 Y147.749 E11.90443
G1 X140.539 Y147.906 E11.95455
G1 X140.387 Y147.938 E11.96695
G1 X139.871 Y148.025 E12.00872
G1 X139.488 Y148.07 E12.0395
G1 X138.528 Y148.133 E12.1163
G1 X138.367 Y148.138 E12.12916
G1 X94.666 Y148.138 E15.61756
G1 X93.894 Y148.104 E15.67924
G1 X93.698 Y148.085 E15.69496
G1 X93.103 Y148 E15.74294
G1 X92.884 Y147.958 E15.76074
G1 X92.307 Y147.82 E15.8081
G1 X92.1 Y147.759 E15.82533
G1 X91.446 Y147.613 E15.87882
G1 X90.766 Y147.548 E15.93334
G1 X90.084 Y147.571 E15.98781
G1 X89.415 Y147.678 E16.0419
G1 X89.027 Y147.781 E16.07394
G1 X88.635 Y147.89 E16.10642
G1 X88.043 Y148.012 E16.15467
G1 X87.851 Y148.042 E16.17018
G1 X87.226 Y148.111 E16.22037
G1 X87.044 Y148.124 E16.23494
G1 X86.531 Y148.138 E16.2759
G1 X81.622 Y148.137 E16.66776
G1 X81.462 Y148.132 E16.68054
G1 X80.486 Y148.067 E16.75862
G1 X80.106 Y148.019 E16.78919
G1 X79.475 Y147.906 E16.84036
G1 X79.251 Y147.856 E16.85869
G1 X78.664 Y147.691 E16.90736
G1 X78.507 Y147.64 E16.92054
G1 X78.026 Y147.462 E16.96148
G1 X77.709 Y147.329 E16.98892
G1 X77.12 Y147.052 E17.04087
G1 X76.904 Y146.937 E17.06041
G1 X76.399 Y146.638 E17.10725
G1 X76.227 Y146.526 E17.12364
G1 X75.785 Y146.209 E17.16706
G1 X75.566 Y146.038 E17.18924
G1 X75.05 Y145.602 E17.24316
G1 X74.899 Y145.462 E17.2596
G1 X74.473 Y145.025 E17.30831
G1 X74.347 Y144.885 E17.32335
G1 X73.98 Y144.439 E17.36945
G1 X73.835 Y144.247 E17.38866
G1 X73.461 Y143.708 E17.44103
G1 X73.334 Y143.508 E17.45994
G1 X73.041 Y142.988 E17.50758
G1 X72.961 Y142.831 E17.52165
G1 X72.736 Y142.342 E17.56462
G1 X72.617 Y142.048 E17.58993
G1 X72.391 Y141.421 E17.64314
G1 X72.33 Y141.225 E17.65952
G1 X72.173 Y140.614 E17.70988
G1 X72.14 Y140.456 E17.72276
G1 X72.053 Y139.939 E17.76461
G1 X72.01 Y139.568 E17.79443
G1 X71.947 Y138.602 E17.8717
G1 X71.942 Y138.459 E17.88312
G1 X71.943 Y81.545 E22.42624
G1 X71.948 Y81.384 E22.4391
G1 X72.012 Y80.413 E22.51678
G1 X72.039 Y80.162 E22.53693
G1 X72.061 Y80.024 E22.54809
G1 X72.174 Y79.395 E22.5991
G1 X72.222 Y79.18 E22.61668
G1 X72.389 Y78.584 E22.66609
G1 X72.439 Y78.429 E22.67909
G1 X72.622 Y77.935 E22.72114
G1 X72.75 Y77.63 E22.74755
G1 X73.035 Y77.026 E22.80086
G1 X73.147 Y76.816 E22.81986
G1 X73.442 Y76.319 E22.86599
G1 X73.545 Y76.161 E22.88105
G1 X73.857 Y75.723 E22.92397
G1 X74.042 Y75.486 E22.94797
G1 X74.478 Y74.97 E23.0019
G1 X74.618 Y74.819 E23.01834
G0 F9000 X75.2 Y74.262
G1 F1125 X75.2 Y145.728 E28.72306
G0 F9000 X76.8 Y146.875
G1 F1125 X76.8 Y73.125 E34.6101
G0 F9000 X78.4 Y72.404
G1 F1125 X78.4 Y147.6 E40.61257
G0 F9000 X80 Y148
G1 F1125 X80 Y71.996 E46.67954
G0 F9000 X81.6 Y71.863
G1 F1125 X81.6 Y148.136 E52.76798
G0 F9000 X83.2 Y148.137
G1 F1125 X83.2 Y71.863 E58.8565
G0 F9000 X84.8 Y71.863
G1 F1125 X84.8 Y148.137 E64.94502
G0 F9000 X86.4 Y148.137
G1 F1125 X86.4 Y71.863 E71.03354
G0 F9000 X88 Y71.863
G1 F1125 X88 Y148.019 E77.11265
G0 F9000 X89.6 Y147.649
G1 F1125 X89.6 Y71.863 E83.16221
G0 F9000 X91.2 Y71.863
G1 F1125 X91.2 Y147.589 E89.20699
G0 F9000 X92.8 Y147.937
G1 F1125 X92.8 Y71.863 E95.27954
G0 F9000 X94.4 Y71.863
G1 F1125 X94.4 Y148.126 E101.36719
G0 F9000 X96 Y148.138
G1 F1125 X96 Y71.863 E107.45579
G0 F9000 X97.6 Y71.863
G1 F1125 X97.6 Y148.138 E113.54439
G0 F9000 X99.2 Y148.138
G1 F1125 X99.2 Y71.863 E119.63299
G0 F9000 X100.8 Y71.863
G1 F1125 X100.8 Y148.138 E125.72159
G0 F9000 X102.4 Y148.138
G1 F1125 X102.4 Y71.863 E131.81019
G0 F9000 X104 Y71.863
G1 F1125 X104 Y148.138 E137.89879
G0 F9000 X105.6 Y148.138
G1 F1125 X105.6 Y71.863 E143.98739
G0 F9000 X107.2 Y71.863
G1 F1125 X107.2 Y148.138 E150.07599
G0 F9000 X108.8 Y148.138
G1 F1125 X108.8 Y71.863 E156.16459
G0 F9000 X110.4 Y71.863
G1 F1125 X110.4 Y148.138 E162.25319
G0 F9000 X112 Y148.138
G1 F1125 X112 Y71.863 E168.34179
G0 F9000 X113.6 Y71.863
G1 F1125 X113.6 Y148.138 E174.43039
G0 F9000 X115.2 Y148.138
G1 F1125 X115.2 Y71.863 E180.51899
G0 F9000 X116.8 Y71.863
G1 F1125 X116.8 Y148.138 E186.60759
G0 F9000 X118.4 Y148.138
G1 F1125 X118.4 Y71.863 E192.69619
G0 F9000 X120 Y71.863
G1 F1125 X120 Y148.138 E198.78479
G0 F9000 X121.6 Y148.138
G1 F1125 X121.6 Y71.863 E204.87339
G0 F9000 X123.2 Y71.863
G1 F1125 X123.2 Y148.138 E210.96199
G0 F9000 X124.8 Y148.138
G1 F1125 X124.8 Y71.863 E217.05059
G0 F9000 X126.4 Y71.863
G1 F1125 X126.4 Y148.138 E223.13919
G0 F9000 X128 Y148.138
G1 F1125 X128 Y71.863 E229.22779
G0 F9000 X129.6 Y71.863
G1 F1125 X129.6 Y148.138 E235.31639
G0 F9000 X131.2 Y148.138
G1 F1125 X131.2 Y71.863 E241.40499
G0 F9000 X132.8 Y71.863
G1 F1125 X132.8 Y148.138 E247.49359
G0 F9000 X134.4 Y148.138
G1 F1125 X134.4 Y71.863 E253.58219
G0 F9000 X136 Y71.863
G1 F1125 X136 Y148.138 E259.6708
G0 F9000 X137.6 Y148.138
G1 F1125 X137.6 Y71.863 E265.7594
G0 F9000 X139.2 Y71.913
G1 F1125 X139.2 Y148.089 E271.84009
G0 F9000 X140.8 Y147.839
G1 F1125 X140.8 Y72.159 E277.8812
G0 F9000 X142.4 Y72.723
G1 F1125 X142.4 Y147.28 E283.83266
G0 F9000 X144 Y146.361
G1 F1125 X144 Y73.637 E289.6378
G0 F9000 X145.6 Y75.057
G1 F1125 X145.6 Y144.938 E295.21601
G0 F9000 X147.2 Y142.477
G1 F1125 X147.2 Y77.522 E300.401
G1 F1500 E293.901
G0 F9000 X148.169 Y77.079
G0 X147.431 Y75.71
G0 X146.309 Y74.252
G0 X145.008 Y73.058
G0 X143.617 Y72.135
G0 X142.364 Y71.547
G0 X140.727 Y71.048
G0 X139.598 Y70.872
G0 X138.397 Y70.799
G0 X81.429 Y70.804
G0 X79.974 Y70.922
G0 X78.313 Y71.305
G0 X76.596 Y72.019
G0 X75.123 Y72.957
G0 X73.977 Y73.971
G0 X73.004 Y75.086
G0 X73.6 Y76.083
G1 F1500 E300.401
G1 F1125 X73.6 Y143.908 E305.81508
G1 F1500 E299.31508
G0 F9000 X72.426 Y144.063
G0 X71.668 Y142.546
G0 X71.24 Y141.186
G0 X70.986 Y139.988
G0 X72 Y139.414
G1 F1500 E305.81508
G1 F1125 X72 Y80.595 E310.51027
G1 F1500 E304.01027
G0 F300 X72 Y80.595 Z0.54
G0 F9000 X70.885 Y81.341
G0 X70.884 Y138.651
G0 X71.002 Y140.108
G0 X71.385 Y141.767
G0 X72.54 Y141.837
;TIME_ELAPSED:221.028465
;LAYER:-5
;TYPE:SUPPORT
G1 F1500 E310.51027
G1 F1125 X78.246 Y147.542 E311.31538
G1 X78.507 Y147.639 E311.34316
G1 X78.664 Y147.69 E311.35963
G1 X79.25 Y147.855 E311.42038
G1 X79.474 Y147.905 E311.44328
G1 X80.106 Y148.017 E311.50732
G1 X80.14 Y148.022 E311.51075
G1 X72.052 Y139.934 E312.65205
G1 X72.03 Y139.762 E312.66936
G1 X72.01 Y139.567 E312.68891
G1 X71.946 Y138.601 E312.78551
G1 X71.941 Y138.457 E312.79989
G1 X71.941 Y138.409 E312.80468
G1 X81.668 Y148.136 E314.17727
G1 X83.082 Y148.136 E314.31835
G1 X71.941 Y136.995 E315.89047
G1 X71.941 Y135.581 E316.03156
G1 X84.497 Y148.136 E317.80328
G1 X85.911 Y148.136 E317.94437
G1 X71.941 Y134.167 E319.91561
G1 X71.941 Y132.752 E320.0568
G1 X87.291 Y148.102 E322.22285
G1 X87.85 Y148.041 E322.27896
G1 X88.043 Y148.011 E322.29845
G1 X88.516 Y147.913 E322.34665
G1 X71.941 Y131.338 E324.68556
G1 X71.941 Y129.924 E324.82665
G1 X89.656 Y147.638 E327.32636
G1 X90.083 Y147.57 E327.3695
G1 X90.766 Y147.547 E327.43769
G1 X91.001 Y147.569 E327.46124
G1 X71.941 Y128.51 E330.15074
G1 X71.941 Y127.096 E330.29183
G1 X92.777 Y147.931 E333.23194
G1 X92.884 Y147.957 E333.24293
G1 X93.102 Y147.999 E333.26508
G1 X93.698 Y148.084 E333.32516
G1 X93.893 Y148.103 E333.3447
G1 X94.384 Y148.124 E333.39374
G1 X71.941 Y125.681 E336.56069
G1 X71.941 Y124.267 E336.70178
G1 X95.811 Y148.137 E340.0701
G1 X97.225 Y148.137 E340.21118
G1 X71.941 Y122.853 E343.77903
G1 X71.941 Y121.439 E343.92012
G1 X98.639 Y148.137 E347.6875
G1 X100.054 Y148.137 E347.82869
G1 X71.941 Y120.025 E351.79566
G1 X71.941 Y118.61 E351.93685
G1 X101.468 Y148.137 E356.10343
G1 X102.882 Y148.137 E356.24452
G1 X71.941 Y117.196 E360.61063
G1 X71.941 Y115.782 E360.75172
G1 X104.296 Y148.137 E365.31736
G1 X105.711 Y148.137 E365.45855
G1 X71.941 Y114.368 E370.22379
G1 X71.941 Y112.953 E370.36498
G1 X107.125 Y148.137 E375.32982
G1 X108.539 Y148.137 E375.47091
G1 X71.941 Y111.539 E380.63528
G1 X71.941 Y110.125 E380.77637
G1 X109.953 Y148.137 E386.14028
G1 X111.367 Y148.137 E386.28137
G1 X71.942 Y108.712 E391.84466
G1 X71.942 Y107.297 E391.98585
G1 X112.782 Y148.137 E397.74881
G1 X114.196 Y148.137 E397.8899
G1 X71.942 Y105.883 E403.8524
G1 X71.942 Y104.469 E403.99349
G1 X115.61 Y148.137 E410.15552
G1 X117.024 Y148.137 E410.29661
G1 X71.942 Y103.055 E416.65816
G1 X71.942 Y101.64 E416.79935
G1 X118.438 Y148.137 E423.36051
G1 X119.853 Y148.137 E423.5017
G1 X71.942 Y100.226 E430.26246
G1 X71.942 Y98.812 E430.40355
G1 X121.267 Y148.137 E437.36384
G1 X122.681 Y148.137 E437.50493
G1 X71.942 Y97.398 E444.66475
G1 X71.942 Y95.984 E444.80584
G1 X124.095 Y148.137 E452.16519
G1 X125.51 Y148.137 E452.30638
G1 X71.942 Y94.569 E459.8654
G1 X71.942 Y93.155 E460.00649
G1 X126.924 Y148.137 E467.76505
G1 X128.338 Y148.137 E467.90614
G1 X71.942 Y91.741 E475.86422
G1 X71.942 Y90.327 E476.00531
G1 X129.752 Y148.137 E484.16293
G1 X131.166 Y148.137 E484.30402
G1 X71.942 Y88.913 E492.66116
G1 X71.942 Y87.498 E492.80235
G1 X132.581 Y148.137 E501.35917
G1 X133.995 Y148.137 E501.50026
G1 X71.942 Y86.084 E510.25661
G1 X71.942 Y84.67 E510.3977
G1 X135.409 Y148.137 E519.35358
G1 X136.823 Y148.137 E519.49467
G1 X71.942 Y83.256 E528.65008
G1 X71.942 Y81.841 E528.79126
G1 X138.237 Y148.137 E538.14628
G1 X138.366 Y148.137 E538.15915
G1 X138.527 Y148.131 E538.17522
G1 X139.488 Y148.069 E538.27131
G1 X139.574 Y148.059 E538.27995
G1 X72.006 Y80.491 E547.81453
G1 X72.011 Y80.412 E547.82242
G1 X72.028 Y80.24 E547.83967
G1 X72.061 Y80.023 E547.86157
G1 X72.173 Y79.394 E547.92532
G1 X72.2 Y79.271 E547.93789
G1 X140.773 Y147.844 E557.61428
G1 X141.146 Y147.748 E557.65271
G1 X141.356 Y147.683 E557.67464
G1 X141.848 Y147.505 E557.72685
G1 X72.528 Y78.185 E567.50865
G1 X72.621 Y77.933 E567.53545
G1 X72.701 Y77.741 E567.55621
G1 X72.749 Y77.629 E567.56836
G1 X72.953 Y77.196 E567.61612
G1 X142.833 Y147.076 E577.47695
G1 X142.907 Y147.038 E577.48525
G1 X143.428 Y146.745 E577.54489
G1 X143.628 Y146.617 E577.56858
G1 X143.722 Y146.551 E577.58004
G1 X73.46 Y76.289 E587.49477
G1 X73.545 Y76.16 E587.51018
G1 X73.857 Y75.722 E587.56384
G1 X73.977 Y75.564 E587.58364
G1 X74.041 Y75.485 E587.59378
G1 X74.055 Y75.469 E587.59591
G1 X144.537 Y145.951 E597.54168
G1 X144.811 Y145.727 E597.57699
G1 X144.944 Y145.606 E597.59493
G1 X145.279 Y145.279 E597.64164
G1 X74.719 Y74.719 E607.59842
G1 X75.054 Y74.392 E607.64513
G1 X75.188 Y74.271 E607.66315
G1 X75.461 Y74.047 E607.69838
G1 X145.944 Y144.529 E617.64423
G1 X145.957 Y144.513 E617.64628
G1 X146.021 Y144.435 E617.65635
G1 X146.142 Y144.276 E617.67629
G1 X146.445 Y143.853 E617.7282
G1 X146.538 Y143.71 E617.74523
G1 X76.276 Y73.447 E627.66002
G1 X76.371 Y73.381 E627.67157
G1 X76.571 Y73.253 E627.69526
G1 X77.091 Y72.96 E627.75481
G1 X77.165 Y72.923 E627.76307
G1 X147.045 Y142.803 E637.62389
G1 X147.249 Y142.37 E637.67165
G1 X147.298 Y142.257 E637.68394
G1 X147.381 Y142.054 E637.70582
G1 X147.47 Y141.813 E637.73146
G1 X78.15 Y72.494 E647.51319
G1 X78.643 Y72.315 E647.56552
G1 X78.854 Y72.25 E647.58755
G1 X79.225 Y72.154 E647.62579
G1 X147.798 Y140.727 E657.30218
G1 X147.825 Y140.604 E657.31475
G1 X147.94 Y139.965 E657.37953
G1 X147.964 Y139.815 E657.39469
G1 X147.987 Y139.587 E657.41755
G1 X147.993 Y139.507 E657.42556
G1 X80.424 Y71.939 E666.9602
G1 X80.511 Y71.929 E666.96894
G1 X81.471 Y71.867 E667.06493
G1 X81.632 Y71.861 E667.08101
G1 X81.762 Y71.862 E667.09398
G1 X148.056 Y138.157 E676.44885
G1 X148.056 Y136.743 E676.58994
G1 X83.176 Y71.862 E685.74528
G1 X84.59 Y71.862 E685.88637
G1 X148.056 Y135.328 E694.84211
G1 X148.056 Y133.914 E694.98319
G1 X86.004 Y71.862 E703.7394
G1 X87.418 Y71.862 E703.88049
G1 X148.056 Y132.5 E712.43717
G1 X148.056 Y131.086 E712.57826
G1 X88.833 Y71.862 E720.93533
G1 X90.247 Y71.862 E721.07642
G1 X148.056 Y129.672 E729.23397
G1 X148.056 Y128.257 E729.37516
G1 X91.661 Y71.862 E737.3331
G1 X93.075 Y71.862 E737.47419
G1 X148.056 Y126.843 E745.2326
G1 X148.056 Y125.429 E745.37369
G1 X94.489 Y71.862 E752.93258
G1 X95.904 Y71.862 E753.07376
G1 X148.056 Y124.015 E760.43305
G1 X148.056 Y122.601 E760.57414
G1 X97.318 Y71.862 E767.73389
G1 X98.732 Y71.862 E767.87498
G1 X148.056 Y121.186 E774.83512
G1 X148.056 Y119.772 E774.97621
G1 X100.146 Y71.862 E781.73683
G1 X101.561 Y71.862 E781.87802
G1 X148.056 Y118.358 E788.43904
G1 X148.056 Y116.944 E788.58013
G1 X102.975 Y71.862 E794.94162
G1 X104.389 Y71.862 E795.0827
G1 X148.056 Y115.529 E801.24459
G1 X148.056 Y114.115 E801.38568
G1 X105.803 Y71.862 E807.34803
G1 X107.217 Y71.862 E807.48912
G1 X148.056 Y112.701 E813.25195
G1 X148.056 Y111.287 E813.39304
G1 X108.632 Y71.862 E818.95626
G1 X110.046 Y71.862 E819.09735
G1 X148.057 Y109.873 E824.46111
G1 X148.057 Y108.459 E824.6022
G1 X111.46 Y71.862 E829.76643
G1 X112.874 Y71.862 E829.90752
G1 X148.057 Y107.045 E834.87222
G1 X148.057 Y105.631 E835.01331
G1 X114.288 Y71.862 E839.77848
G1 X115.703 Y71.862 E839.91967
G1 X148.057 Y104.216 E844.48517
G1 X148.057 Y102.802 E844.62626
