;FLAVOR:Marlin
;TIME:9332
;Filament used: 6.14494m
;Layer height: 0.2
;MINX:67.836
;MINY:67.835
;MINZ:0.24
;MAXX:152.12
;MAXY:152.165
;MAXZ:16.09
;Generated with Cura_SteamEngine 4.9.1
M140 S60
M105
M190 S60
M104 S200
M105
M109 S200
M82 ;absolute extrusion mode
; Ender 3 Custom Start G-code
G92 E0 ; Reset Extruder
G28 ; Home all axes
G1 Z2.0 F3000 ; Move Z Axis up little to prevent scratching of Heat Bed
G1 X0.1 Y20 Z0.3 F5000.0 ; Move to start position
G1 X0.1 Y200.0 Z0.3 F1500.0 E15 ; Draw the first line
G1 X0.4 Y200.0 Z0.3 F5000.0 ; Move to side a little
G1 X0.4 Y20 Z0.3 F1500.0 E30 ; Draw the second line
G92 E0 ; Reset Extruder
G1 Z2.0 F3000 ; Move Z Axis up little to prevent scratching of Heat Bed
G1 X5 Y20 Z0.3 F5000.0 ; Move over to prevent blob squish
G92 E0
G92 E0
G1 F1500 E-6.5
;LAYER_COUNT:75
;LAYER:-6
M107
G0 F9000 X72.389 Y72.216 Z0.24
;TYPE:SUPPORT-INTERFACE
G1 F1500 E0
G1 F1125 X72.899 Y71.753 E0.05498
G1 X72.956 Y71.704 E0.06098
G1 X73.319 Y71.406 E0.09847
G1 X73.422 Y71.325 E0.10893
G1 X73.943 Y70.937 E0.16079
G1 X74.11 Y70.826 E0.17679
G1 X74.763 Y70.432 E0.23767
G1 X74.845 Y70.386 E0.24518
G1 X75.341 Y70.123 E0.28999
G1 X75.966 Y69.829 E0.34513
G1 X76.131 Y69.76 E0.3594
G1 X76.841 Y69.506 E0.4196
G1 X76.947 Y69.471 E0.42851
G1 X77.468 Y69.316 E0.4719
G1 X78.103 Y69.157 E0.52415
G1 X78.315 Y69.114 E0.54142
G1 X79.044 Y69.003 E0.60028
G1 X79.585 Y68.948 E0.64369
G1 X80.443 Y68.904 E0.71227
G1 X80.59 Y68.9 E0.72401
G1 X139.424 Y68.901 E5.42039
G1 X139.566 Y68.904 E5.43173
G1 X140.319 Y68.943 E5.49192
G1 X140.447 Y68.953 E5.50216
G1 X140.918 Y69 E5.53995
G1 X141.648 Y69.108 E5.59885
G1 X141.873 Y69.152 E5.61716
G1 X142.546 Y69.32 E5.67253
G1 X142.648 Y69.348 E5.68097
G1 X143.067 Y69.476 E5.71594
G1 X143.233 Y69.531 E5.7299
G1 X143.802 Y69.733 E5.7781
G1 X144.02 Y69.823 E5.79692
G1 X144.686 Y70.137 E5.8557
G1 X144.784 Y70.186 E5.86445
G1 X145.181 Y70.4 E5.90045
G1 X145.277 Y70.454 E5.90924
G1 X145.838 Y70.791 E5.96148
G1 X146.011 Y70.906 E5.97806
G1 X146.669 Y71.396 E6.04355
G1 X147.044 Y71.706 E6.08239
G1 X147.159 Y71.807 E6.09461
G1 X147.607 Y72.213 E6.14287
G1 X147.784 Y72.389 E6.16279
G1 X148.247 Y72.899 E6.21778
G1 X148.296 Y72.956 E6.22378
G1 X148.594 Y73.319 E6.26127
G1 X148.675 Y73.422 E6.27173
G1 X149.063 Y73.943 E6.32358
G1 X149.171 Y74.104 E6.33906
G1 X149.568 Y74.763 E6.40047
G1 X149.614 Y74.845 E6.40797
G1 X149.839 Y75.267 E6.44615
G1 X149.882 Y75.352 E6.45375
G1 X150.173 Y75.97 E6.50828
G1 X150.24 Y76.131 E6.5222
G1 X150.494 Y76.841 E6.58239
G1 X150.529 Y76.947 E6.5913
G1 X150.681 Y77.456 E6.63371
G1 X150.845 Y78.11 E6.68753
G1 X150.886 Y78.315 E6.70421
G1 X150.997 Y79.044 E6.76308
G1 X151.051 Y79.576 E6.80576
G1 X151.059 Y79.701 E6.81576
G1 X151.096 Y80.433 E6.87427
G1 X151.1 Y80.58 E6.88601
G1 X151.099 Y139.424 E11.58319
G1 X151.096 Y139.566 E11.59453
G1 X151.057 Y140.319 E11.65471
G1 X151.048 Y140.438 E11.66424
G1 X151 Y140.918 E11.70275
G1 X150.892 Y141.648 E11.76165
G1 X150.85 Y141.864 E11.77922
G1 X150.68 Y142.546 E11.83532
G1 X150.652 Y142.648 E11.84377
G1 X150.527 Y143.058 E11.87798
G1 X150.472 Y143.225 E11.89202
G1 X150.267 Y143.802 E11.9409
G1 X150.177 Y144.02 E11.95972
G1 X149.867 Y144.678 E12.01778
G1 X149.82 Y144.772 E12.02617
G1 X149.6 Y145.181 E12.06325
G1 X149.552 Y145.267 E12.07111
G1 X149.209 Y145.838 E12.12428
G1 X149.094 Y146.011 E12.14086
G1 X148.604 Y146.669 E12.20635
G1 X148.294 Y147.044 E12.24519
G1 X148.201 Y147.15 E12.25644
G1 X147.787 Y147.607 E12.30567
G1 X147.62 Y147.775 E12.32457
G1 X147.101 Y148.247 E12.38057
G1 X147.044 Y148.296 E12.38657
G1 X146.681 Y148.594 E12.42406
G1 X146.578 Y148.675 E12.43452
G1 X146.061 Y149.06 E12.48598
G1 X145.89 Y149.174 E12.50238
G1 X145.237 Y149.568 E12.56326
G1 X145.155 Y149.614 E12.57077
G1 X144.731 Y149.84 E12.60912
G1 X144.648 Y149.882 E12.61655
G1 X144.039 Y150.169 E12.67029
G1 X143.869 Y150.24 E12.68499
G1 X143.159 Y150.494 E12.74519
G1 X143.053 Y150.529 E12.7541
G1 X142.532 Y150.684 E12.79749
G1 X141.897 Y150.843 E12.84974
G1 X141.685 Y150.886 E12.86701
G1 X140.956 Y150.997 E12.92587
G1 X140.415 Y151.052 E12.96928
G1 X139.557 Y151.096 E13.03786
G1 X139.41 Y151.1 E13.0496
G1 X80.576 Y151.099 E17.74598
G1 X80.434 Y151.096 E17.75732
G1 X79.681 Y151.057 E17.81751
G1 X79.553 Y151.047 E17.82775
G1 X79.082 Y151 E17.86554
G1 X78.352 Y150.892 E17.92444
G1 X78.127 Y150.848 E17.94274
G1 X77.454 Y150.68 E17.99811
G1 X77.353 Y150.652 E18.00648
G1 X76.933 Y150.524 E18.04153
G1 X76.767 Y150.469 E18.05549
G1 X76.198 Y150.267 E18.10369
G1 X75.977 Y150.176 E18.12276
G1 X75.302 Y149.857 E18.18236
G1 X75.216 Y149.814 E18.19004
G1 X74.819 Y149.6 E18.22604
G1 X74.723 Y149.546 E18.23483
G1 X74.162 Y149.209 E18.28707
G1 X73.985 Y149.091 E18.30405
G1 X73.326 Y148.6 E18.36965
G1 X72.956 Y148.294 E18.40798
G1 X72.841 Y148.193 E18.42019
G1 X72.39 Y147.784 E18.46879
G1 X72.216 Y147.611 E18.48838
G1 X71.746 Y147.093 E18.54421
G1 X71.406 Y146.681 E18.58685
G1 X71.319 Y146.57 E18.59811
G1 X70.937 Y146.057 E18.64917
G1 X70.826 Y145.89 E18.66517
G1 X70.432 Y145.237 E18.72605
G1 X70.382 Y145.148 E18.7342
G1 X70.156 Y144.724 E18.77255
G1 X70.107 Y144.625 E18.78137
G1 X69.827 Y144.03 E18.83386
G1 X69.76 Y143.869 E18.84778
G1 X69.498 Y143.136 E18.90992
G1 X69.465 Y143.033 E18.91855
G1 X69.343 Y142.628 E18.95232
G1 X69.316 Y142.532 E18.96028
G1 X69.155 Y141.89 E19.01311
G1 X69.112 Y141.674 E19.03069
G1 X69.002 Y140.938 E19.0901
G1 X68.993 Y140.867 E19.09581
G1 X68.948 Y140.412 E19.13231
G1 X68.904 Y139.557 E19.20065
G1 X68.9 Y139.42 E19.21159
G1 X68.901 Y80.576 E23.90877
G1 X68.904 Y80.434 E23.92011
G1 X68.943 Y79.681 E23.9803
G1 X68.952 Y79.562 E23.98982
G1 X69.009 Y79.011 E24.03404
G1 X69.108 Y78.352 E24.08723
G1 X69.15 Y78.136 E24.1048
G1 X69.32 Y77.454 E24.1609
G1 X69.348 Y77.352 E24.16935
G1 X69.473 Y76.942 E24.20356
G1 X69.528 Y76.775 E24.2176
G1 X69.736 Y76.191 E24.26708
G1 X69.823 Y75.98 E24.2853
G1 X70.137 Y75.314 E24.34408
G1 X70.181 Y75.225 E24.352
G1 X70.408 Y74.802 E24.39032
G1 X70.794 Y74.156 E24.45039
G1 X70.906 Y73.989 E24.46645
G1 X71.396 Y73.331 E24.53193
G1 X71.706 Y72.956 E24.57077
G1 X71.807 Y72.841 E24.58299
G1 X72.213 Y72.393 E24.63125
G1 X72.389 Y72.216 E24.65118
G1 F1500 E18.15118
G0 F9000 X71.674 Y71.429
G0 X91.518 Y91.355
G0 X90.783 Y90.582
G1 F1500 E24.65118
G1 F1125 X90.319 Y91.082 E24.70563
G1 X89.92 Y91.638 E24.76025
G1 X89.596 Y92.238 E24.81469
G1 X89.35 Y92.874 E24.86912
G1 X89.184 Y93.543 E24.92414
G1 X89.1 Y94.482 E24.9994
G1 X89.1 Y125.513 E27.47642
G1 X89.142 Y126.181 E27.52985
G1 X89.271 Y126.852 E27.5844
G1 X89.484 Y127.501 E27.63892
G1 X89.776 Y128.118 E27.69341
G1 X90.144 Y128.693 E27.7479
G1 X90.582 Y129.217 E27.80242
G1 X91.082 Y129.681 E27.85687
G1 X91.638 Y130.08 E27.9115
G1 X92.238 Y130.404 E27.96593
G1 X92.874 Y130.65 E28.02036
G1 X93.543 Y130.816 E28.07538
G1 X94.482 Y130.9 E28.15064
G1 X125.512 Y130.9 E30.62759
G1 X126.18 Y130.858 E30.68102
G1 X126.851 Y130.729 E30.73556
G1 X127.5 Y130.516 E30.79008
G1 X128.117 Y130.224 E30.84457
G1 X128.692 Y129.856 E30.89907
G1 X129.216 Y129.418 E30.95358
G1 X129.68 Y128.918 E31.00803
G1 X130.079 Y128.362 E31.06266
G1 X130.403 Y127.762 E31.11709
G1 X130.649 Y127.126 E31.17153
G1 X130.815 Y126.457 E31.22655
G1 X130.899 Y125.518 E31.3018
G1 X130.9 Y94.487 E33.77883
G1 X130.858 Y93.819 E33.83226
G1 X130.729 Y93.148 E33.8868
G1 X130.516 Y92.499 E33.94133
G1 X130.224 Y91.883 E33.99574
G1 X129.856 Y91.307 E34.0503
G1 X129.418 Y90.783 E34.10482
G1 X128.918 Y90.319 E34.15927
G1 X128.364 Y89.92 E34.21377
G1 X127.762 Y89.596 E34.26834
G1 X127.126 Y89.35 E34.32277
G1 X126.457 Y89.184 E34.3778
G1 X125.518 Y89.1 E34.45305
G1 X94.487 Y89.1 E36.93008
G1 X93.819 Y89.142 E36.98351
G1 X93.148 Y89.271 E37.03805
G1 X92.499 Y89.484 E37.09257
G1 X91.882 Y89.776 E37.14706
G1 X91.307 Y90.144 E37.20156
G1 X90.783 Y90.582 E37.25607
G0 F9000 X91.2 Y90.234
G1 F1125 X91.2 Y68.901 E38.95897
G0 F9000 X89.6 Y68.901
G1 F1125 X89.6 Y92.231 E40.82127
G0 F9000 X92.8 Y89.386
G1 F1125 X92.8 Y68.901 E42.45647
G0 F9000 X94.4 Y68.901
G1 F1125 X94.4 Y89.106 E44.06932
G0 F9000 X96 Y89.1
G1 F1125 X96 Y68.901 E45.68169
G0 F9000 X97.6 Y68.901
G1 F1125 X97.6 Y89.1 E47.29406
G0 F9000 X99.2 Y89.1
G1 F1125 X99.2 Y68.901 E48.90643
G0 F9000 X100.8 Y68.901
G1 F1125 X100.8 Y89.1 E50.51881
G0 F9000 X102.4 Y89.1
G1 F1125 X102.4 Y68.901 E52.13118
G0 F9000 X104 Y68.901
G1 F1125 X104 Y89.1 E53.74355
G0 F9000 X105.6 Y89.1
G1 F1125 X105.6 Y68.901 E55.35592
G0 F9000 X107.2 Y68.901
G1 F1125 X107.2 Y89.1 E56.96829
G0 F9000 X108.8 Y89.1
G1 F1125 X108.8 Y68.901 E58.58066
G0 F9000 X110.4 Y68.901
G1 F1125 X110.4 Y89.1 E60.19303
G0 F9000 X112 Y89.1
G1 F1125 X112 Y68.901 E61.80541
G0 F9000 X113.6 Y68.901
G1 F1125 X113.6 Y89.1 E63.41778
G0 F9000 X115.2 Y89.1
G1 F1125 X115.2 Y68.901 E65.03015
G0 F9000 X116.8 Y68.901
G1 F1125 X116.8 Y89.1 E66.64252
G0 F9000 X118.4 Y89.1
G1 F1125 X118.4 Y68.901 E68.25489
G0 F9000 X120 Y68.901
G1 F1125 X120 Y89.1 E69.86726
G0 F9000 X121.6 Y89.1
G1 F1125 X121.6 Y68.901 E71.47963
G0 F9000 X123.2 Y68.901
G1 F1125 X123.2 Y89.1 E73.09201
G0 F9000 X124.8 Y89.1
G1 F1125 X124.8 Y68.901 E74.70438
G0 F9000 X126.4 Y68.901
G1 F1125 X126.4 Y89.178 E76.32298
G0 F9000 X128 Y89.724
G1 F1125 X128 Y68.901 E77.98516
G0 F9000 X129.6 Y68.901
G1 F1125 X129.6 Y91 E79.7492
G1 F1500 E73.2492
G0 F9000 X128.646 Y91.518
G0 X131.2 Y67.835
G0 X131.2 Y68.901
G1 F1500 E79.7492
G1 F1125 X131.2 Y151.099 E86.3106
G0 F9000 X129.6 Y151.099
G1 F1125 X129.6 Y129.004 E88.07431
G0 F9000 X128 Y130.279
G1 F1125 X128 Y151.099 E89.73626
G0 F9000 X126.4 Y151.099
G1 F1125 X126.4 Y130.815 E91.35541
G0 F9000 X124.8 Y130.9
G1 F1125 X124.8 Y151.099 E92.96778
G0 F9000 X123.2 Y151.099
G1 F1125 X123.2 Y130.9 E94.58016
G0 F9000 X121.6 Y130.9
G1 F1125 X121.6 Y151.099 E96.19253
G0 F9000 X120 Y151.099
G1 F1125 X120 Y130.9 E97.8049
G0 F9000 X118.4 Y130.9
G1 F1125 X118.4 Y151.099 E99.41727
G0 F9000 X116.8 Y151.099
G1 F1125 X116.8 Y130.9 E101.02964
G0 F9000 X115.2 Y130.9
G1 F1125 X115.2 Y151.099 E102.64201
G0 F9000 X113.6 Y151.099
G1 F1125 X113.6 Y130.9 E104.25438
G0 F9000 X112 Y130.9
G1 F1125 X112 Y151.099 E105.86676
G0 F9000 X110.4 Y151.099
G1 F1125 X110.4 Y130.9 E107.47913
G0 F9000 X108.8 Y130.9
G1 F1125 X108.8 Y151.099 E109.0915
G0 F9000 X107.2 Y151.099
G1 F1125 X107.2 Y130.9 E110.70387
G0 F9000 X105.6 Y130.9
G1 F1125 X105.6 Y151.099 E112.31624
G0 F9000 X104 Y151.099
G1 F1125 X104 Y130.9 E113.92861
G0 F9000 X102.4 Y130.9
G1 F1125 X102.4 Y151.099 E115.54099
G0 F9000 X100.8 Y151.099
G1 F1125 X100.8 Y130.9 E117.15336
G0 F9000 X99.2 Y130.9
G1 F1125 X99.2 Y151.099 E118.76573
G0 F9000 X97.6 Y151.099
G1 F1125 X97.6 Y130.9 E120.3781
G0 F9000 X96 Y130.9
G1 F1125 X96 Y151.099 E121.99047
G0 F9000 X94.4 Y151.099
G1 F1125 X94.4 Y130.893 E123.6034
G0 F9000 X92.8 Y130.622
G1 F1125 X92.8 Y151.099 E125.23796
G0 F9000 X91.2 Y151.099
G1 F1125 X91.2 Y129.766 E126.94086
G0 F9000 X89.6 Y127.747
G1 F1125 X89.6 Y151.099 E128.80491
G0 F9000 X88 Y151.099
G1 F1125 X88 Y68.901 E135.36631
G0 F9000 X86.4 Y68.901
G1 F1125 X86.4 Y151.099 E141.92771
G0 F9000 X84.8 Y151.099
G1 F1125 X84.8 Y68.901 E148.48911
G0 F9000 X83.2 Y68.901
G1 F1125 X83.2 Y151.099 E155.05051
G0 F9000 X81.6 Y151.099
G1 F1125 X81.6 Y68.901 E161.61191
G0 F9000 X80 Y68.926
G1 F1125 X80 Y151.073 E168.16924
G0 F9000 X78.4 Y150.899
G1 F1125 X78.4 Y69.101 E174.69871
G0 F9000 X76.8 Y69.52
G1 F1125 X76.8 Y150.479 E181.16121
G0 F9000 X75.2 Y149.805
G1 F1125 X75.2 Y70.197 E187.51586
G0 F9000 X73.6 Y71.192
G1 F1125 X73.6 Y148.804 E193.71119
G0 F9000 X72 Y147.372
G1 F1125 X72 Y72.628 E199.67758
G0 F9000 X70.4 Y74.816
G1 F1125 X70.4 Y145.18 E205.29434
G1 F1500 E198.79434
G0 F9000 X69.515 Y145.777
G0 X70.476 Y147.22
G0 X71.653 Y148.553
G0 X72.732 Y149.486
G0 X74.193 Y150.469
G0 X75.819 Y151.262
G0 X77.18 Y151.709
G0 X78.966 Y152.058
G0 X80.257 Y152.143
G0 X132.8 Y152.165
G0 X132.8 Y151.099
G1 F1500 E205.29434
G1 F1125 X132.8 Y68.901 E211.85574
G0 F9000 X134.4 Y68.901
G1 F1125 X134.4 Y151.099 E218.41714
G0 F9000 X136 Y151.099
G1 F1125 X136 Y68.901 E224.97854
G0 F9000 X137.6 Y68.901
G1 F1125 X137.6 Y151.099 E231.53994
G0 F9000 X139.2 Y151.099
G1 F1125 X139.2 Y68.901 E238.10134
G0 F9000 X140.8 Y68.989
G1 F1125 X140.8 Y151.013 E244.64885
G0 F9000 X142.4 Y150.718
G1 F1125 X142.4 Y69.284 E251.14926
G0 F9000 X144 Y69.815
G1 F1125 X144 Y150.186 E257.56482
G0 F9000 X145.6 Y149.349
G1 F1125 X145.6 Y70.649 E263.847
G0 F9000 X147.2 Y71.845
G1 F1125 X147.2 Y148.157 E269.93855
G0 F9000 X148.8 Y146.406
G1 F1125 X148.8 Y73.59 E275.75104
G0 F9000 X150.4 Y76.579
G1 F1125 X150.4 Y143.428 E281.08721
G1 F1500 E274.58721
G0 F300 X150.4 Y143.428 Z0.54
G0 F9000 X151.541 Y143.386
G0 X129.526 Y92.896
G0 X130.365 Y92.181
;TIME_ELAPSED:206.203639
;LAYER:-5
;TYPE:SUPPORT
G1 F1500 E281.08721
G1 F1125 X130.515 Y92.498 E281.12221
G1 X130.727 Y93.147 E281.19033
G1 X130.857 Y93.818 E281.25853
G1 X130.874 Y94.105 E281.28722
G1 X151.098 Y114.329 E284.14104
G1 X151.098 Y115.743 E284.28213
G1 X130.898 Y95.542 E287.13264
G1 X130.898 Y96.957 E287.27383
G1 X151.098 Y117.157 E290.12427
G1 X151.098 Y118.571 E290.26536
G1 X130.898 Y98.371 E293.1158
G1 X130.898 Y99.785 E293.25688
G1 X151.098 Y119.986 E296.10739
G1 X151.098 Y121.4 E296.24848
G1 X130.898 Y101.199 E299.09899
G1 X130.898 Y102.613 E299.24008
G1 X151.098 Y122.814 E302.09059
G1 X151.098 Y124.228 E302.23168
G1 X130.898 Y104.028 E305.08212
G1 X130.898 Y105.442 E305.22321
G1 X151.098 Y125.642 E308.07365
G1 X151.098 Y127.057 E308.21483
G1 X130.898 Y106.856 E311.06534
G1 X130.898 Y108.27 E311.20643
G1 X151.098 Y128.471 E314.05694
G1 X151.098 Y129.885 E314.19803
G1 X130.898 Y109.684 E317.04854
G1 X130.898 Y111.099 E317.18973
G1 X151.098 Y131.299 E320.04017
G1 X151.098 Y132.714 E320.18136
G1 X130.898 Y112.513 E323.03187
G1 X130.898 Y113.927 E323.17295
G1 X151.098 Y134.128 E326.02346
G1 X151.098 Y135.542 E326.16455
G1 X130.898 Y115.341 E329.01506
G1 X130.898 Y116.756 E329.15625
G1 X151.098 Y136.956 E332.00669
G1 X151.098 Y138.37 E332.14778
G1 X130.898 Y118.17 E334.99822
G1 X130.898 Y119.584 E335.13931
G1 X151.084 Y139.77 E337.98777
G1 X151.055 Y140.318 E338.04253
G1 X151.047 Y140.437 E338.05443
G1 X150.999 Y140.917 E338.10256
G1 X150.976 Y141.076 E338.11859
G1 X130.898 Y120.998 E340.95181
G1 X130.898 Y122.412 E341.0929
G1 X150.75 Y142.264 E343.89423
G1 X150.679 Y142.546 E343.92325
G1 X150.651 Y142.648 E343.9338
G1 X150.526 Y143.057 E343.97648
G1 X150.471 Y143.225 E343.99412
G1 X150.425 Y143.354 E344.00778
G1 X130.898 Y123.827 E346.76325
G1 X130.898 Y125.241 E346.90434
G1 X150.016 Y144.359 E349.6021
G1 X149.866 Y144.677 E349.63718
G1 X149.819 Y144.772 E349.64776
G1 X149.599 Y145.181 E349.6941
G1 X149.55 Y145.267 E349.70397
G1 X149.536 Y145.293 E349.70692
G1 X130.79 Y126.548 E352.35211
G1 X130.648 Y127.125 E352.4114
G1 X130.454 Y127.626 E352.46501
G1 X148.985 Y146.156 E355.07986
G1 X148.603 Y146.668 E355.1436
G1 X148.367 Y146.953 E355.18052
G1 X129.952 Y128.537 E357.77915
G1 X129.679 Y128.918 E357.82592
G1 X129.312 Y129.312 E357.87965
G1 X147.696 Y147.696 E360.47383
G1 X147.619 Y147.774 E360.48476
G1 X147.1 Y148.246 E360.55476
G1 X147.043 Y148.295 E360.56226
G1 X146.953 Y148.367 E360.57376
G1 X128.539 Y129.953 E363.17218
G1 X128.117 Y130.222 E363.22211
G1 X127.627 Y130.455 E363.27625
G1 X146.158 Y148.986 E365.89117
G1 X146.061 Y149.059 E365.90329
G1 X145.889 Y149.173 E365.92388
G1 X145.291 Y149.533 E365.99352
G1 X126.545 Y130.787 E368.63879
G1 X126.18 Y130.857 E368.67587
G1 X125.512 Y130.898 E368.74265
G1 X125.242 Y130.899 E368.76959
G1 X144.36 Y150.016 E371.46728
G1 X144.039 Y150.168 E371.50271
G1 X143.869 Y150.238 E371.52106
G1 X143.352 Y150.423 E371.57585
G1 X123.828 Y130.899 E374.3309
G1 X122.414 Y130.899 E374.47199
G1 X142.264 Y150.75 E377.27311
G1 X141.897 Y150.842 E377.31086
G1 X141.684 Y150.885 E377.33254
G1 X141.077 Y150.977 E377.3938
G1 X121 Y130.899 E380.22695
G1 X119.585 Y130.899 E380.36814
G1 X139.77 Y151.083 E383.21639
G1 X139.556 Y151.095 E383.23778
G1 X139.409 Y151.099 E383.25245
G1 X138.37 Y151.098 E383.35612
G1 X118.171 Y130.899 E386.20642
G1 X116.757 Y130.899 E386.34751
