;FLAVOR:Marlin
;TIME:7996
;Filament used: 7.13844m
;Layer height: 0.2
;MINX:67.836
;MINY:67.836
;MINZ:0.24
;MAXX:152.164
;MAXY:152.165
;MAXZ:21.09
;Generated with Cura_SteamEngine 4.9.1
M140 S60
M105
M190 S60
M104 S200
M105
M109 S200
M82 ;absolute extrusion mode
; Ender 3 Custom Start G-code
G92 E0 ; Reset Extruder
G28 ; Home all axes
G1 Z2.0 F3000 ; Move Z Axis up little to prevent scratching of Heat Bed
G1 X0.1 Y20 Z0.3 F5000.0 ; Move to start position
G1 X0.1 Y200.0 Z0.3 F1500.0 E15 ; Draw the first line
G1 X0.4 Y200.0 Z0.3 F5000.0 ; Move to side a little
G1 X0.4 Y20 Z0.3 F1500.0 E30 ; Draw the second line
G92 E0 ; Reset Extruder
G1 Z2.0 F3000 ; Move Z Axis up little to prevent scratching of Heat Bed
G1 X5 Y20 Z0.3 F5000.0 ; Move over to prevent blob squish
G92 E0
G92 E0
G1 F1500 E-6.5
;LAYER_COUNT:100
;LAYER:-6
M107
G0 F9000 X72.368 Y72.236 Z0.24
;TYPE:SUPPORT-INTERFACE
G1 F1500 E0
G1 F1125 X72.879 Y71.772 E0.0551
G1 X72.975 Y71.689 E0.06523
G1 X73.327 Y71.4 E0.10158
G1 X73.404 Y71.34 E0.10937
G1 X73.937 Y70.942 E0.16247
G1 X74.124 Y70.816 E0.18047
G1 X74.735 Y70.448 E0.23741
G1 X74.827 Y70.395 E0.24588
G1 X75.247 Y70.17 E0.28392
G1 X75.329 Y70.128 E0.29127
G1 X75.909 Y69.853 E0.34251
G1 X76.127 Y69.762 E0.36137
G1 X76.83 Y69.508 E0.42104
G1 X76.921 Y69.478 E0.42868
G1 X77.356 Y69.347 E0.46495
G1 X77.499 Y69.308 E0.47678
G1 X78.102 Y69.157 E0.5264
G1 X78.337 Y69.11 E0.54553
G1 X79.002 Y69.01 E0.59921
G1 X79.138 Y68.993 E0.61015
G1 X79.585 Y68.948 E0.64601
G1 X80.443 Y68.904 E0.71459
G1 X80.59 Y68.9 E0.72633
G1 X139.41 Y68.9 E5.4216
G1 X139.557 Y68.904 E5.43334
G1 X140.299 Y68.94 E5.49263
G1 X140.415 Y68.948 E5.50192
G1 X140.956 Y69.004 E5.54533
G1 X141.624 Y69.102 E5.59923
G1 X141.845 Y69.145 E5.6172
G1 X142.542 Y69.318 E5.67452
G1 X142.608 Y69.336 E5.67998
G1 X143.069 Y69.476 E5.71844
G1 X143.196 Y69.517 E5.7291
G1 X143.794 Y69.73 E5.77977
G1 X143.997 Y69.813 E5.79727
G1 X144.669 Y70.129 E5.85655
G1 X144.751 Y70.17 E5.86387
G1 X145.183 Y70.401 E5.90297
G1 X145.255 Y70.441 E5.90955
G1 X145.818 Y70.778 E5.96193
G1 X146.011 Y70.906 E5.98041
G1 X146.591 Y71.336 E6.03805
G1 X146.685 Y71.41 E6.0476
G1 X147.095 Y71.748 E6.09001
G1 X147.596 Y72.2 E6.14387
G1 X147.764 Y72.368 E6.16284
G1 X148.228 Y72.879 E6.21794
G1 X148.311 Y72.975 E6.22807
G1 X148.6 Y73.327 E6.26442
G1 X148.655 Y73.397 E6.27153
G1 X149.058 Y73.937 E6.32531
G1 X149.187 Y74.129 E6.34378
G1 X149.552 Y74.735 E6.40025
G1 X149.605 Y74.827 E6.40872
G1 X149.83 Y75.247 E6.44676
G1 X149.872 Y75.329 E6.45411
G1 X150.147 Y75.909 E6.50535
G1 X150.238 Y76.127 E6.52421
G1 X150.492 Y76.83 E6.58387
G1 X150.519 Y76.911 E6.59069
G1 X150.653 Y77.357 E6.62786
G1 X150.696 Y77.512 E6.6407
G1 X150.844 Y78.106 E6.68957
G1 X150.891 Y78.343 E6.70886
G1 X150.99 Y79.002 E6.76205
G1 X151.006 Y79.128 E6.77219
G1 X151.051 Y79.576 E6.80813
G1 X151.059 Y79.701 E6.81813
G1 X151.096 Y80.433 E6.87663
G1 X151.1 Y80.58 E6.88837
G1 X151.1 Y139.41 E11.58444
G1 X151.096 Y139.557 E11.59618
G1 X151.06 Y140.299 E11.65548
G1 X151.052 Y140.411 E11.66444
G1 X150.996 Y140.956 E11.70817
G1 X150.899 Y141.62 E11.76174
G1 X150.855 Y141.845 E11.78004
G1 X150.682 Y142.542 E11.83736
G1 X150.664 Y142.608 E11.84283
G1 X150.524 Y143.069 E11.88128
G1 X150.483 Y143.196 E11.89194
G1 X150.27 Y143.794 E11.94261
G1 X150.187 Y143.997 E11.96012
G1 X149.871 Y144.669 E12.01939
G1 X149.83 Y144.751 E12.02671
G1 X149.599 Y145.183 E12.06582
G1 X149.559 Y145.255 E12.07239
G1 X149.222 Y145.818 E12.12477
G1 X149.097 Y146.006 E12.14279
G1 X148.664 Y146.591 E12.20089
G1 X148.59 Y146.685 E12.21044
G1 X148.252 Y147.095 E12.25285
G1 X147.805 Y147.591 E12.30615
G1 X147.635 Y147.761 E12.32534
G1 X147.121 Y148.228 E12.38078
G1 X147.025 Y148.311 E12.39091
G1 X146.673 Y148.6 E12.42726
G1 X146.596 Y148.66 E12.43505
G1 X146.066 Y149.056 E12.48787
G1 X145.876 Y149.184 E12.50615
G1 X145.265 Y149.552 E12.56309
G1 X145.173 Y149.605 E12.57156
G1 X144.753 Y149.83 E12.6096
G1 X144.671 Y149.872 E12.61695
G1 X144.091 Y150.147 E12.66819
G1 X143.873 Y150.238 E12.68705
G1 X143.17 Y150.492 E12.74671
G1 X143.079 Y150.522 E12.75436
G1 X142.644 Y150.653 E12.79063
G1 X142.501 Y150.692 E12.80246
G1 X141.898 Y150.843 E12.85208
G1 X141.663 Y150.89 E12.87121
G1 X140.998 Y150.99 E12.92489
G1 X140.862 Y151.007 E12.93583
G1 X140.415 Y151.052 E12.97169
G1 X139.557 Y151.096 E13.04027
G1 X139.41 Y151.1 E13.05201
G1 X97.56 Y151.1 E16.39266
G1 X96.788 Y151.066 E16.45434
G1 X96.592 Y151.047 E16.47006
G1 X95.997 Y150.962 E16.51804
G1 X95.778 Y150.92 E16.53584
G1 X95.201 Y150.782 E16.5832
G1 X94.99 Y150.72 E16.60075
G1 X93.903 Y150.348 E16.69246
G1 X93.815 Y150.333 E16.69959
G1 X93.144 Y150.21 E16.75404
G1 X92.462 Y150.171 E16.80857
G1 X91.782 Y150.22 E16.86299
G1 X91.112 Y150.353 E16.91752
G1 X90.993 Y150.378 E16.92722
G1 X90.316 Y150.622 E16.98467
G1 X89.747 Y150.796 E17.03216
G1 X89.517 Y150.854 E17.0511
G1 X88.937 Y150.974 E17.09838
G1 X88.745 Y151.004 E17.11389
G1 X88.121 Y151.073 E17.164
G1 X87.939 Y151.086 E17.17857
G1 X87.427 Y151.1 E17.21945
G1 X80.59 Y151.1 E17.76521
G1 X80.443 Y151.096 E17.77695
G1 X79.701 Y151.06 E17.83625
G1 X79.585 Y151.052 E17.84553
G1 X79.044 Y150.996 E17.88895
G1 X78.376 Y150.898 E17.94284
G1 X78.155 Y150.855 E17.96081
G1 X77.459 Y150.682 E18.01806
G1 X77.379 Y150.66 E18.02468
G1 X76.931 Y150.524 E18.06206
G1 X76.804 Y150.483 E18.07271
G1 X76.206 Y150.27 E18.12338
G1 X76 Y150.186 E18.14114
G1 X75.331 Y149.871 E18.20017
G1 X75.249 Y149.83 E18.20749
G1 X74.808 Y149.594 E18.24741
G1 X74.745 Y149.559 E18.25316
G1 X74.182 Y149.222 E18.30554
G1 X73.989 Y149.094 E18.32403
G1 X73.409 Y148.664 E18.38166
G1 X73.309 Y148.585 E18.39183
G1 X72.954 Y148.294 E18.42848
G1 X72.897 Y148.245 E18.43448
G1 X72.404 Y147.8 E18.48749
G1 X72.236 Y147.632 E18.50646
G1 X71.766 Y147.114 E18.56229
G1 X71.666 Y146.998 E18.57451
G1 X71.4 Y146.673 E18.60804
G1 X71.34 Y146.596 E18.61583
G1 X70.942 Y146.063 E18.66893
G1 X70.813 Y145.871 E18.68739
G1 X70.448 Y145.265 E18.74386
G1 X70.395 Y145.173 E18.75234
G1 X70.128 Y144.671 E18.79773
G1 X69.853 Y144.09 E18.84904
G1 X69.762 Y143.873 E18.86782
G1 X69.504 Y143.159 E18.92842
G1 X69.478 Y143.079 E18.93514
G1 X69.347 Y142.643 E18.97148
G1 X69.302 Y142.479 E18.98505
G1 X69.156 Y141.894 E19.03318
G1 X69.109 Y141.657 E19.05247
G1 X69.01 Y140.998 E19.10566
G1 X68.993 Y140.862 E19.1166
G1 X68.948 Y140.411 E19.15278
G1 X68.904 Y139.557 E19.22104
G1 X68.9 Y139.42 E19.23198
G1 X68.9 Y80.59 E23.92805
G1 X68.904 Y80.443 E23.93979
G1 X68.94 Y79.701 E23.99909
G1 X68.948 Y79.589 E24.00805
G1 X69.004 Y79.044 E24.05178
G1 X69.104 Y78.36 E24.10696
G1 X69.14 Y78.174 E24.12209
G1 X69.336 Y77.392 E24.18644
G1 X69.513 Y76.815 E24.23462
G1 X69.732 Y76.199 E24.2868
G1 X69.816 Y75.995 E24.30441
G1 X70.129 Y75.331 E24.36301
G1 X70.173 Y75.243 E24.37087
G1 X70.401 Y74.817 E24.40943
G1 X70.441 Y74.745 E24.41601
G1 X70.778 Y74.182 E24.46839
G1 X70.903 Y73.994 E24.48641
G1 X71.336 Y73.409 E24.54451
G1 X71.41 Y73.315 E24.55405
G1 X71.748 Y72.905 E24.59647
G1 X72.195 Y72.409 E24.64977
G1 X72.368 Y72.236 E24.6693
G0 F9000 X72 Y72.625
G1 F1125 X72 Y147.371 E30.63585
G0 F9000 X73.6 Y148.805
G1 F1125 X73.6 Y71.193 E36.83117
G0 F9000 X75.2 Y70.195
G1 F1125 X75.2 Y149.803 E43.18583
G0 F9000 X76.8 Y150.481
G1 F1125 X76.8 Y69.518 E49.64864
G0 F9000 X78.4 Y69.1
G1 F1125 X78.4 Y150.901 E56.17835
G0 F9000 X80 Y151.074
G1 F1125 X80 Y68.926 E62.73576
G0 F9000 X81.6 Y68.9
G1 F1125 X81.6 Y151.1 E69.29732
G0 F9000 X83.2 Y151.1
G1 F1125 X83.2 Y68.9 E75.85888
G0 F9000 X84.8 Y68.9
G1 F1125 X84.8 Y151.1 E82.42044
G0 F9000 X86.4 Y151.1
G1 F1125 X86.4 Y68.9 E88.982
G0 F9000 X88 Y68.9
G1 F1125 X88 Y151.082 E95.54212
G0 F9000 X89.6 Y150.834
G1 F1125 X89.6 Y68.9 E102.08245
G0 F9000 X91.2 Y68.9
G1 F1125 X91.2 Y150.336 E108.58302
G0 F9000 X92.8 Y150.19
G1 F1125 X92.8 Y68.9 E115.07194
G0 F9000 X94.4 Y68.9
G1 F1125 X94.4 Y150.518 E121.58704
G0 F9000 X96 Y150.962
G1 F1125 X96 Y68.9 E128.13759
G0 F9000 X97.6 Y68.9
G1 F1125 X97.6 Y151.1 E134.69915
G0 F9000 X99.2 Y151.1
G1 F1125 X99.2 Y68.9 E141.26071
G0 F9000 X100.8 Y68.9
G1 F1125 X100.8 Y151.1 E147.82227
G0 F9000 X102.4 Y151.1
G1 F1125 X102.4 Y68.9 E154.38383
G0 F9000 X104 Y68.9
G1 F1125 X104 Y151.1 E160.94538
G0 F9000 X105.6 Y151.1
G1 F1125 X105.6 Y68.9 E167.50694
G0 F9000 X107.2 Y68.9
G1 F1125 X107.2 Y151.1 E174.0685
G0 F9000 X108.8 Y151.1
G1 F1125 X108.8 Y68.9 E180.63006
G0 F9000 X110.4 Y68.9
G1 F1125 X110.4 Y151.1 E187.19162
G0 F9000 X112 Y151.1
G1 F1125 X112 Y68.9 E193.75318
G0 F9000 X113.6 Y68.9
G1 F1125 X113.6 Y151.1 E200.31474
G0 F9000 X115.2 Y151.1
G1 F1125 X115.2 Y68.9 E206.8763
G0 F9000 X116.8 Y68.9
G1 F1125 X116.8 Y151.1 E213.43786
G0 F9000 X118.4 Y151.1
G1 F1125 X118.4 Y68.9 E219.99942
G0 F9000 X120 Y68.9
G1 F1125 X120 Y151.1 E226.56098
G0 F9000 X121.6 Y151.1
G1 F1125 X121.6 Y68.9 E233.12254
G0 F9000 X123.2 Y68.9
G1 F1125 X123.2 Y151.1 E239.6841
G0 F9000 X124.8 Y151.1
G1 F1125 X124.8 Y68.9 E246.24566
G0 F9000 X126.4 Y68.9
G1 F1125 X126.4 Y151.1 E252.80722
G0 F9000 X128 Y151.1
G1 F1125 X128 Y68.9 E259.36878
G0 F9000 X129.6 Y68.9
G1 F1125 X129.6 Y151.1 E265.93034
G0 F9000 X131.2 Y151.1
G1 F1125 X131.2 Y68.9 E272.4919
G0 F9000 X132.8 Y68.9
G1 F1125 X132.8 Y151.1 E279.05345
G0 F9000 X134.4 Y151.1
G1 F1125 X134.4 Y68.9 E285.61501
G0 F9000 X136 Y68.9
G1 F1125 X136 Y151.1 E292.17657
G0 F9000 X137.6 Y151.1
G1 F1125 X137.6 Y68.9 E298.73813
G0 F9000 X139.2 Y68.9
G1 F1125 X139.2 Y151.1 E305.29969
G0 F9000 X140.8 Y151.014
G1 F1125 X140.8 Y68.988 E311.84736
G0 F9000 X142.4 Y69.283
G1 F1125 X142.4 Y150.718 E318.34786
G0 F9000 X144 Y150.185
G1 F1125 X144 Y69.815 E324.76334
G0 F9000 X145.6 Y70.648
G1 F1125 X145.6 Y149.351 E331.04575
G0 F9000 X147.2 Y148.157
G1 F1125 X147.2 Y71.843 E337.13746
G0 F9000 X148.8 Y73.592
G1 F1125 X148.8 Y146.408 E342.94995
G0 F9000 X150.4 Y143.43
G1 F1125 X150.4 Y76.576 E348.28653
G1 F1500 E341.78653
G0 F9000 X151.401 Y76.215
G0 X150.775 Y74.757
G0 X149.921 Y73.313
G0 X148.528 Y71.627
G0 X147.233 Y70.487
G0 X145.788 Y69.52
G0 X144.172 Y68.734
G0 X142.815 Y68.289
G0 X141.102 Y67.949
G0 X139.428 Y67.836
G0 X80.398 Y67.84
G0 X78.861 Y67.955
G0 X77.068 Y68.322
G0 X75.484 Y68.877
G0 X74.197 Y69.529
G0 X72.755 Y70.496
G0 X71.43 Y71.668
G0 X70.177 Y73.203
G0 X69.52 Y74.212
G0 X70.4 Y74.818
G1 F1500 E348.28653
G1 F1125 X70.4 Y145.181 E353.90321
G0 F300 X70.4 Y145.181 Z0.54
G0 F9000 X70.654 Y145.608
;TIME_ELAPSED:248.609374
;LAYER:-5
;TYPE:SUPPORT
G1 F1125 X74.396 Y149.349 E354.43117
G1 X74.744 Y149.558 E354.47168
G1 X74.808 Y149.593 E354.47896
G1 X75.248 Y149.828 E354.52873
G1 X75.33 Y149.869 E354.53788
G1 X75.999 Y150.185 E354.6117
G1 X76.205 Y150.269 E354.6339
G1 X76.804 Y150.482 E354.69733
G1 X76.93 Y150.523 E354.71056
G1 X77.007 Y150.546 E354.71857
G1 X69.451 Y142.99 E355.78481
G1 X69.346 Y142.642 E355.82108
G1 X69.302 Y142.477 E355.83812
G1 X69.155 Y141.892 E355.8983
G1 X69.109 Y141.656 E355.92229
G1 X69.034 Y141.159 E355.97245
G1 X78.839 Y150.964 E357.35604
G1 X79.043 Y150.994 E357.37661
G1 X79.584 Y151.05 E357.43088
G1 X79.7 Y151.059 E357.44249
G1 X80.381 Y151.091 E357.51052
G1 X68.906 Y139.617 E359.12969
G1 X68.904 Y139.556 E359.13578
G1 X68.899 Y139.419 E359.14946
G1 X68.899 Y138.196 E359.27149
G1 X81.803 Y151.099 E361.09232
G1 X83.217 Y151.099 E361.2334
G1 X68.899 Y136.782 E363.25376
G1 X68.899 Y135.367 E363.39495
G1 X84.631 Y151.099 E365.6149
G1 X86.045 Y151.099 E365.75599
G1 X68.899 Y133.953 E368.17548
G1 X68.899 Y132.539 E368.31657
G1 X87.458 Y151.098 E370.93544
G1 X87.939 Y151.085 E370.98346
G1 X88.121 Y151.071 E371.00167
G1 X88.745 Y151.003 E371.0643
G1 X88.773 Y150.998 E371.06714
G1 X68.899 Y131.125 E373.8715
G1 X68.899 Y129.71 E374.01269
G1 X89.928 Y150.739 E376.98011
G1 X90.315 Y150.62 E377.02051
G1 X90.983 Y150.38 E377.09134
G1 X68.899 Y128.296 E380.20763
G1 X68.899 Y126.882 E380.34872
G1 X92.205 Y150.188 E383.63745
G1 X92.461 Y150.17 E383.66305
G1 X93.144 Y150.209 E383.73131
G1 X93.751 Y150.32 E383.79288
G1 X68.899 Y125.468 E387.29977
G1 X68.899 Y124.054 E387.44086
G1 X95.76 Y150.914 E391.23117
G1 X95.777 Y150.919 E391.23293
G1 X95.996 Y150.961 E391.25518
G1 X96.592 Y151.046 E391.31526
G1 X96.788 Y151.065 E391.3349
G1 X97.349 Y151.089 E391.39093
G1 X68.899 Y122.639 E395.40553
G1 X68.899 Y121.225 E395.54662
G1 X98.773 Y151.099 E399.76217
G1 X100.187 Y151.099 E399.90326
G1 X68.899 Y119.811 E404.31833
G1 X68.899 Y118.397 E404.45942
G1 X101.602 Y151.099 E409.0741
G1 X103.016 Y151.099 E409.21519
G1 X68.899 Y116.983 E414.02939
G1 X68.899 Y115.568 E414.17058
G1 X104.43 Y151.099 E419.18439
G1 X105.844 Y151.099 E419.32548
G1 X68.899 Y114.154 E424.53882
G1 X68.899 Y112.74 E424.67991
G1 X107.258 Y151.099 E430.09278
G1 X108.673 Y151.099 E430.23397
G1 X68.899 Y111.326 E435.84644
G1 X68.899 Y109.911 E435.98763
G1 X110.087 Y151.099 E441.7997
G1 X111.501 Y151.099 E441.94079
G1 X68.899 Y108.497 E447.95239
G1 X68.899 Y107.083 E448.09348
G1 X112.915 Y151.099 E454.30461
G1 X114.329 Y151.099 E454.4457
G1 X68.899 Y105.669 E460.85637
G1 X68.899 Y104.255 E460.99746
G1 X115.744 Y151.099 E467.60772
G1 X117.158 Y151.099 E467.74881
G1 X68.899 Y102.84 E474.55868
G1 X68.899 Y101.426 E474.69977
G1 X118.572 Y151.099 E481.70916
G1 X119.986 Y151.099 E481.85025
G1 X68.899 Y100.012 E489.05918
G1 X68.899 Y98.598 E489.20027
G1 X121.401 Y151.099 E496.6088
G1 X122.815 Y151.099 E496.74989
G1 X68.899 Y97.184 E504.35795
G1 X68.899 Y95.769 E504.49914
G1 X124.229 Y151.099 E512.3068
G1 X125.643 Y151.099 E512.44789
G1 X68.899 Y94.355 E520.45508
G1 X68.899 Y92.941 E520.59617
G1 X127.057 Y151.099 E528.80289
G1 X128.472 Y151.099 E528.94408
G1 X68.899 Y91.527 E537.3504
G1 X68.899 Y90.112 E537.49159
G1 X129.886 Y151.099 E546.09752
G1 X131.3 Y151.099 E546.23861
G1 X68.899 Y88.698 E555.04406
G1 X68.899 Y87.284 E555.18515
G1 X132.714 Y151.099 E564.19014
G1 X134.128 Y151.099 E564.33123
G1 X68.899 Y85.87 E573.53574
G1 X68.899 Y84.456 E573.67683
G1 X135.543 Y151.099 E583.08095
G1 X136.957 Y151.099 E583.22204
G1 X68.899 Y83.041 E592.82576
G1 X68.899 Y81.627 E592.96685
G1 X138.371 Y151.099 E602.7701
G1 X139.409 Y151.099 E602.87367
G1 X139.556 Y151.095 E602.88834
G1 X139.77 Y151.083 E602.90973
G1 X68.913 Y80.227 E612.90835
G1 X68.94 Y79.7 E612.961
G1 X68.947 Y79.588 E612.9722
G1 X69.003 Y79.043 E613.02686
G1 X69.021 Y78.92 E613.03927
G1 X141.077 Y150.977 E623.20722
G1 X141.663 Y150.889 E623.26634
G1 X141.897 Y150.842 E623.29016
G1 X142.264 Y150.75 E623.32791
G1 X69.249 Y77.734 E633.63119
G1 X69.336 Y77.391 E633.6665
G1 X69.512 Y76.814 E633.72669
G1 X69.572 Y76.644 E633.74468
G1 X143.353 Y150.424 E644.1559
G1 X143.872 Y150.236 E644.21098
G1 X144.09 Y150.146 E644.23451
G1 X144.36 Y150.017 E644.26437
G1 X69.982 Y75.639 E654.75991
G1 X70.128 Y75.33 E654.79401
G1 X70.172 Y75.242 E654.80383
G1 X70.4 Y74.816 E654.85204
G1 X70.441 Y74.744 E654.86031
G1 X70.463 Y74.706 E654.86469
G1 X145.292 Y149.534 E665.4238
G1 X145.875 Y149.183 E665.4917
G1 X146.065 Y149.055 E665.51456
G1 X146.157 Y148.985 E665.52609
G1 X71.014 Y73.842 E676.12958
G1 X71.336 Y73.408 E676.1835
G1 X71.41 Y73.314 E676.19544
G1 X71.631 Y73.045 E676.23018
G1 X146.953 Y148.367 E686.85893
G1 X147.025 Y148.31 E686.86809
G1 X147.121 Y148.227 E686.88075
G1 X147.634 Y147.76 E686.94997
G1 X147.697 Y147.697 E686.95886
G1 X72.301 Y72.301 E697.59805
G1 X72.367 Y72.235 E697.60737
G1 X72.877 Y71.772 E697.6761
G1 X72.974 Y71.688 E697.6889
G1 X73.045 Y71.631 E697.69798
G1 X148.367 Y146.953 E708.32673
G1 X148.589 Y146.684 E708.36153
G1 X148.662 Y146.591 E708.37333
G1 X148.985 Y146.156 E708.42739
G1 X73.841 Y71.013 E719.03095
G1 X73.935 Y70.941 E719.04277
G1 X74.123 Y70.816 E719.06529
G1 X74.707 Y70.464 E719.13333
G1 X149.535 Y145.292 E729.69237
G1 X149.558 Y145.254 E729.6968
G1 X149.598 Y145.183 E729.70493
G1 X149.829 Y144.751 E729.75381
G1 X149.87 Y144.669 E729.76296
G1 X150.016 Y144.359 E729.79715
G1 X75.638 Y69.981 E740.29269
G1 X75.908 Y69.852 E740.32255
G1 X76.126 Y69.762 E740.34608
G1 X76.646 Y69.575 E740.40122
G1 X150.426 Y143.355 E750.81238
G1 X150.482 Y143.196 E750.8292
G1 X150.523 Y143.068 E750.84261
G1 X150.663 Y142.607 E750.89068
G1 X150.68 Y142.542 E750.89739
