;FLAVOR:Marlin
;TIME:6354
;Filament used: 5.6096m
;Layer height: 0.2
;MINX:71.837
;MINY:71.97
;MINZ:0.24
;MAXX:148.061
;MAXY:148.165
;MAXZ:16.09
;Generated with Cura_SteamEngine 4.9.1
M140 S60
M105
M190 S60
M104 S200
M105
M109 S200
M82 ;absolute extrusion mode
; Ender 3 Custom Start G-code
G92 E0 ; Reset Extruder
G28 ; Home all axes
G1 Z2.0 F3000 ; Move Z Axis up little to prevent scratching of Heat Bed
G1 X0.1 Y20 Z0.3 F5000.0 ; Move to start position
G1 X0.1 Y200.0 Z0.3 F1500.0 E15 ; Draw the first line
G1 X0.4 Y200.0 Z0.3 F5000.0 ; Move to side a little
G1 X0.4 Y20 Z0.3 F1500.0 E30 ; Draw the second line
G92 E0 ; Reset Extruder
G1 Z2.0 F3000 ; Move Z Axis up little to prevent scratching of Heat Bed
G1 X5 Y20 Z0.3 F5000.0 ; Move over to prevent blob squish
G92 E0
G92 E0
G1 F1500 E-6.5
;LAYER_COUNT:75
;LAYER:-6
M107
G0 F9000 X75.576 Y75.857 Z0.24
;TYPE:SUPPORT-INTERFACE
G1 F1500 E0
G1 F1125 X76.013 Y75.431 E0.04872
G1 X76.147 Y75.31 E0.06313
G1 X76.59 Y74.945 E0.10895
G1 X76.791 Y74.793 E0.12906
G1 X77.33 Y74.419 E0.18143
G1 X77.53 Y74.292 E0.20034
G1 X78.05 Y73.999 E0.24799
G1 X78.207 Y73.919 E0.26205
G1 X78.742 Y73.675 E0.30899
G1 X78.982 Y73.578 E0.32965
G1 X79.602 Y73.354 E0.38228
G1 X79.813 Y73.288 E0.39992
G1 X80.419 Y73.132 E0.44987
G1 X80.571 Y73.1 E0.46227
G1 X81.087 Y73.013 E0.50404
G1 X81.47 Y72.968 E0.53483
G1 X82.43 Y72.905 E0.61162
G1 X82.591 Y72.9 E0.62448
G1 X137.417 Y72.901 E5.00093
G1 X137.578 Y72.906 E5.01379
G1 X138.556 Y72.971 E5.09203
G1 X138.936 Y73.019 E5.1226
G1 X139.567 Y73.132 E5.17377
G1 X139.791 Y73.182 E5.19209
G1 X140.376 Y73.346 E5.24059
G1 X140.533 Y73.397 E5.25377
G1 X141.016 Y73.576 E5.29489
G1 X141.34 Y73.712 E5.32293
G1 X141.922 Y73.986 E5.37428
G1 X142.138 Y74.101 E5.39382
G1 X142.643 Y74.4 E5.44066
G1 X142.815 Y74.512 E5.45705
G1 X143.258 Y74.83 E5.50058
G1 X143.476 Y75 E5.52265
G1 X143.992 Y75.436 E5.57657
G1 X144.143 Y75.576 E5.59301
G1 X144.569 Y76.013 E5.64172
G1 X144.695 Y76.153 E5.65676
G1 X145.055 Y76.591 E5.70201
G1 X145.207 Y76.792 E5.72213
G1 X145.581 Y77.33 E5.77443
G1 X145.708 Y77.53 E5.79334
G1 X146.001 Y78.05 E5.84099
G1 X146.081 Y78.207 E5.85505
G1 X146.337 Y78.768 E5.90428
G1 X146.422 Y78.982 E5.92266
G1 X146.646 Y79.602 E5.97528
G1 X146.712 Y79.813 E5.99293
G1 X146.869 Y80.424 E6.04329
G1 X146.899 Y80.567 E6.05495
G1 X146.987 Y81.088 E6.09713
G1 X147.032 Y81.47 E6.12783
G1 X147.095 Y82.43 E6.20463
G1 X147.1 Y82.579 E6.21653
G1 X147.099 Y137.417 E10.59393
G1 X147.094 Y137.578 E10.60679
G1 X147.03 Y138.549 E10.68447
G1 X146.984 Y138.928 E10.71494
G1 X146.868 Y139.567 E10.76679
G1 X146.82 Y139.782 E10.78437
G1 X146.653 Y140.378 E10.83378
G1 X146.603 Y140.533 E10.84678
G1 X146.424 Y141.016 E10.8879
G1 X146.292 Y141.332 E10.91523
G1 X146.015 Y141.921 E10.96719
G1 X145.908 Y142.122 E10.98537
G1 X145.601 Y142.641 E11.0335
G1 X145.488 Y142.815 E11.05006
G1 X145.185 Y143.239 E11.09166
G1 X145 Y143.476 E11.11566
G1 X144.564 Y143.992 E11.16959
G1 X144.427 Y144.139 E11.18563
G1 X143.987 Y144.569 E11.23474
G1 X143.853 Y144.69 E11.24915
G1 X143.41 Y145.055 E11.29497
G1 X143.209 Y145.207 E11.31508
G1 X142.67 Y145.581 E11.36745
G1 X142.47 Y145.708 E11.38636
G1 X141.95 Y146.001 E11.43401
G1 X141.793 Y146.081 E11.44807
G1 X141.258 Y146.325 E11.49501
G1 X141.018 Y146.422 E11.51567
G1 X140.398 Y146.646 E11.5683
G1 X140.189 Y146.711 E11.58577
G1 X139.581 Y146.868 E11.63589
G1 X139.429 Y146.9 E11.64829
G1 X138.913 Y146.987 E11.69006
G1 X138.53 Y147.032 E11.72085
G1 X137.57 Y147.095 E11.79764
G1 X137.409 Y147.1 E11.8105
G1 X94.56 Y147.1 E15.23089
G1 X93.788 Y147.066 E15.29258
G1 X93.592 Y147.047 E15.30829
G1 X92.997 Y146.962 E15.35627
G1 X92.778 Y146.92 E15.37407
G1 X92.201 Y146.782 E15.42143
G1 X91.994 Y146.721 E15.43866
G1 X91.34 Y146.575 E15.49215
G1 X90.66 Y146.51 E15.54667
G1 X89.978 Y146.533 E15.60115
G1 X89.309 Y146.64 E15.65523
G1 X88.921 Y146.743 E15.68727
G1 X88.529 Y146.852 E15.71975
G1 X87.937 Y146.974 E15.768
G1 X87.745 Y147.004 E15.78351
G1 X87.12 Y147.073 E15.8337
G1 X86.938 Y147.086 E15.84827
G1 X86.425 Y147.1 E15.88923
G1 X82.58 Y147.099 E16.19616
G1 X82.42 Y147.094 E16.20894
G1 X81.444 Y147.029 E16.28702
G1 X81.064 Y146.981 E16.31759
G1 X80.433 Y146.868 E16.36876
G1 X80.209 Y146.818 E16.38708
G1 X79.622 Y146.653 E16.43576
G1 X79.465 Y146.602 E16.44893
G1 X78.984 Y146.424 E16.48987
G1 X78.667 Y146.291 E16.51731
G1 X78.078 Y146.014 E16.56927
G1 X77.862 Y145.899 E16.5888
G1 X77.357 Y145.6 E16.63565
G1 X77.185 Y145.488 E16.65204
G1 X76.743 Y145.171 E16.69545
G1 X76.524 Y145 E16.71763
G1 X76.008 Y144.564 E16.77156
G1 X75.857 Y144.424 E16.788
G1 X75.431 Y143.987 E16.83671
G1 X75.305 Y143.847 E16.85175
G1 X74.938 Y143.401 E16.89785
G1 X74.793 Y143.209 E16.91706
G1 X74.419 Y142.67 E16.96943
G1 X74.292 Y142.47 E16.98834
G1 X73.999 Y141.95 E17.03598
G1 X73.919 Y141.793 E17.05005
G1 X73.694 Y141.304 E17.09301
G1 X73.575 Y141.01 E17.11833
G1 X73.349 Y140.383 E17.17153
G1 X73.288 Y140.187 E17.18792
G1 X73.131 Y139.576 E17.23828
G1 X73.098 Y139.418 E17.25116
G1 X73.011 Y138.901 E17.29301
G1 X72.968 Y138.53 E17.32282
G1 X72.905 Y137.564 E17.4001
G1 X72.9 Y137.421 E17.41152
G1 X72.901 Y82.583 E21.78893
G1 X72.906 Y82.422 E21.80178
G1 X72.97 Y81.451 E21.87946
G1 X72.997 Y81.2 E21.89961
G1 X73.019 Y81.062 E21.91077
G1 X73.132 Y80.433 E21.96178
G1 X73.18 Y80.218 E21.97937
G1 X73.347 Y79.622 E22.02877
G1 X73.397 Y79.467 E22.04177
G1 X73.58 Y78.973 E22.08383
G1 X73.708 Y78.668 E22.11023
G1 X73.993 Y78.064 E22.16354
G1 X74.105 Y77.854 E22.18254
G1 X74.4 Y77.357 E22.22867
G1 X74.503 Y77.199 E22.24373
G1 X74.815 Y76.761 E22.28666
G1 X75 Y76.524 E22.31066
G1 X75.436 Y76.008 E22.36458
G1 X75.576 Y75.857 E22.38102
G0 F9000 X75.2 Y76.287
G1 F1125 X75.2 Y143.719 E27.76373
G0 F9000 X76.8 Y145.211
G1 F1125 X76.8 Y74.786 E33.38536
G0 F9000 X78.4 Y73.83
G1 F1125 X78.4 Y146.165 E39.15945
G0 F9000 X80 Y146.759
G1 F1125 X80 Y73.239 E45.02814
G0 F9000 X81.6 Y72.959
G1 F1125 X81.6 Y147.039 E50.94152
G0 F9000 X83.2 Y147.099
G1 F1125 X83.2 Y72.901 E56.86433
G0 F9000 X84.8 Y72.901
G1 F1125 X84.8 Y147.099 E62.78713
G0 F9000 X86.4 Y147.099
G1 F1125 X86.4 Y72.901 E68.70994
G0 F9000 X88 Y72.901
G1 F1125 X88 Y146.962 E74.62181
G0 F9000 X89.6 Y146.594
G1 F1125 X89.6 Y72.901 E80.5043
G0 F9000 X91.2 Y72.901
G1 F1125 X91.2 Y146.561 E86.38416
G0 F9000 X92.8 Y146.924
G1 F1125 X92.8 Y72.901 E92.293
G0 F9000 X94.4 Y72.901
G1 F1125 X94.4 Y147.092 E98.21524
G0 F9000 X96 Y147.1
G1 F1125 X96 Y72.901 E104.13813
G0 F9000 X97.6 Y72.901
G1 F1125 X97.6 Y147.1 E110.06101
G0 F9000 X99.2 Y147.1
G1 F1125 X99.2 Y72.901 E115.9839
G0 F9000 X100.8 Y72.901
G1 F1125 X100.8 Y147.1 E121.90678
G0 F9000 X102.4 Y147.1
G1 F1125 X102.4 Y72.901 E127.82967
G0 F9000 X104 Y72.901
G1 F1125 X104 Y147.1 E133.75255
G0 F9000 X105.6 Y147.1
G1 F1125 X105.6 Y72.901 E139.67544
G0 F9000 X107.2 Y72.901
G1 F1125 X107.2 Y147.1 E145.59832
G0 F9000 X108.8 Y147.1
G1 F1125 X108.8 Y72.901 E151.52121
G0 F9000 X110.4 Y72.901
G1 F1125 X110.4 Y147.1 E157.44409
G0 F9000 X112 Y147.1
G1 F1125 X112 Y72.901 E163.36698
G0 F9000 X113.6 Y72.901
G1 F1125 X113.6 Y147.1 E169.28986
G0 F9000 X115.2 Y147.1
G1 F1125 X115.2 Y72.901 E175.21275
G0 F9000 X116.8 Y72.901
G1 F1125 X116.8 Y147.1 E181.13563
G0 F9000 X118.4 Y147.1
G1 F1125 X118.4 Y72.901 E187.05852
G0 F9000 X120 Y72.901
G1 F1125 X120 Y147.1 E192.9814
G0 F9000 X121.6 Y147.1
G1 F1125 X121.6 Y72.901 E198.90429
G0 F9000 X123.2 Y72.901
G1 F1125 X123.2 Y147.1 E204.82717
G0 F9000 X124.8 Y147.1
G1 F1125 X124.8 Y72.901 E210.75006
G0 F9000 X126.4 Y72.901
G1 F1125 X126.4 Y147.1 E216.67294
G0 F9000 X128 Y147.1
G1 F1125 X128 Y72.901 E222.59583
G0 F9000 X129.6 Y72.901
G1 F1125 X129.6 Y147.1 E228.51871
G0 F9000 X131.2 Y147.1
G1 F1125 X131.2 Y72.901 E234.4416
G0 F9000 X132.8 Y72.901
G1 F1125 X132.8 Y147.1 E240.36448
G0 F9000 X134.4 Y147.1
G1 F1125 X134.4 Y72.901 E246.28737
G0 F9000 X136 Y72.901
G1 F1125 X136 Y147.1 E252.21025
G0 F9000 X137.6 Y147.094
G1 F1125 X137.6 Y72.908 E258.1321
G0 F9000 X139.2 Y73.067
G1 F1125 X139.2 Y146.939 E264.02888
G0 F9000 X140.8 Y146.501
G1 F1125 X140.8 Y73.496 E269.85646
G0 F9000 X142.4 Y74.257
G1 F1125 X142.4 Y145.748 E275.56318
G0 F9000 X144 Y144.557
G1 F1125 X144 Y75.444 E281.08008
G0 F9000 X145.6 Y77.36
G1 F1125 X145.6 Y142.643 E286.29125
G1 F1500 E279.79125
G0 F9000 X146.372 Y143.407
G0 X145.193 Y144.878
G0 X143.919 Y146.005
G0 X142.446 Y146.943
G0 X140.729 Y147.657
G0 X139.068 Y148.04
G0 X137.431 Y148.164
G0 X82.377 Y148.157
G0 X80.883 Y148.03
G0 X79.317 Y147.673
G0 X77.602 Y146.966
G0 X76.103 Y146.022
G0 X75.122 Y145.193
G0 X73.995 Y143.919
G0 X73.236 Y142.727
G0 X72.682 Y141.642
G0 X73.6 Y141.071
G1 F1500 E286.29125
G1 F1125 X73.6 Y78.925 E291.25201
G1 F1500 E284.75201
G0 F300 X73.6 Y78.925 Z0.54
G0 F9000 X72.395 Y79.11
G0 X72.086 Y80.231
G0 X71.91 Y81.36
G0 X71.837 Y82.561
G0 X71.842 Y137.613
G0 X71.96 Y139.07
G0 X72.343 Y140.729
G0 X72.957 Y142.25
G0 X73.999 Y141.949
;TIME_ELAPSED:207.152939
;LAYER:-5
;TYPE:SUPPORT
G1 F1500 E291.25201
G1 F1125 X74.291 Y142.469 E291.31152
G1 X74.419 Y142.669 E291.33521
G1 X74.792 Y143.208 E291.40062
G1 X74.848 Y143.282 E291.40988
G1 X74.937 Y143.399 E291.42454
G1 X75.304 Y143.846 E291.48225
G1 X75.43 Y143.986 E291.50105
G1 X75.857 Y144.423 E291.56201
G1 X76.007 Y144.563 E291.58248
G1 X76.524 Y144.999 E291.64996
G1 X76.602 Y145.063 E291.66003
G1 X76.743 Y145.169 E291.67763
G1 X77.184 Y145.487 E291.73188
G1 X77.356 Y145.599 E291.75236
G1 X77.861 Y145.898 E291.81092
G1 X78.077 Y146.013 E291.83534
G1 X78.178 Y146.06 E291.84645
G1 X73.927 Y141.809 E292.44632
G1 X73.918 Y141.792 E292.44824
G1 X73.693 Y141.303 E292.50195
G1 X73.614 Y141.11 E292.52275
G1 X73.575 Y141.009 E292.53356
G1 X73.348 Y140.382 E292.60009
G1 X73.288 Y140.186 E292.62055
G1 X73.138 Y139.606 E292.68032
G1 X80.389 Y146.857 E293.70352
G1 X80.433 Y146.867 E293.70802
G1 X81.064 Y146.98 E293.77198
G1 X81.274 Y147.012 E293.79318
G1 X81.443 Y147.028 E293.81012
G1 X82.011 Y147.065 E293.86691
G1 X72.932 Y137.986 E295.14806
G1 X72.905 Y137.563 E295.19035
G1 X72.899 Y137.42 E295.20463
G1 X72.899 Y136.539 E295.29254
G1 X83.458 Y147.098 E296.78253
G1 X84.873 Y147.098 E296.92372
G1 X72.899 Y135.125 E298.61331
G1 X72.899 Y133.711 E298.7544
G1 X86.287 Y147.098 E300.64352
G1 X86.425 Y147.099 E300.65729
G1 X86.937 Y147.085 E300.70839
G1 X87.119 Y147.072 E300.7266
G1 X87.619 Y147.016 E300.7768
G1 X72.899 Y132.296 E302.85395
G1 X72.899 Y130.882 E302.99504
G1 X88.797 Y146.779 E305.23835
G1 X88.92 Y146.742 E305.25117
G1 X89.309 Y146.639 E305.29132
G1 X89.965 Y146.533 E305.35762
G1 X72.899 Y129.468 E307.76575
G1 X72.899 Y128.054 E307.90684
G1 X91.443 Y146.597 E310.52353
G1 X91.993 Y146.719 E310.57974
G1 X92.201 Y146.781 E310.6014
G1 X92.778 Y146.919 E310.6606
G1 X92.996 Y146.961 E310.68275
G1 X93.258 Y146.998 E310.70915
G1 X72.899 Y126.639 E313.58202
G1 X72.899 Y125.225 E313.72311
G1 X94.773 Y147.099 E316.80977
G1 X96.187 Y147.099 E316.95086
G1 X72.899 Y123.811 E320.23705
G1 X72.899 Y122.397 E320.37814
G1 X97.601 Y147.099 E323.86386
G1 X99.016 Y147.099 E324.00505
G1 X72.899 Y120.983 E327.69037
G1 X72.899 Y119.568 E327.83156
G1 X100.43 Y147.099 E331.71648
G1 X101.844 Y147.099 E331.85757
G1 X72.899 Y118.154 E335.94202
G1 X72.899 Y116.74 E336.08311
G1 X103.258 Y147.099 E340.36709
G1 X104.673 Y147.099 E340.50828
G1 X72.899 Y115.326 E344.99187
G1 X72.899 Y113.912 E345.13296
G1 X106.087 Y147.099 E349.81607
G1 X107.501 Y147.099 E349.95716
G1 X72.899 Y112.497 E354.83988
G1 X72.899 Y111.083 E354.98097
G1 X108.915 Y147.099 E360.06321
G1 X110.329 Y147.099 E360.2043
G1 X72.899 Y109.669 E365.48608
G1 X72.899 Y108.255 E365.62717
G1 X111.744 Y147.099 E371.10855
G1 X113.158 Y147.099 E371.24964
G1 X72.899 Y106.841 E376.93055
G1 X72.899 Y105.426 E377.07173
G1 X114.572 Y147.099 E382.95225
G1 X115.986 Y147.099 E383.09333
G1 X72.899 Y104.012 E389.17338
G1 X72.899 Y102.598 E389.31447
G1 X117.4 Y147.099 E395.59404
G1 X118.815 Y147.099 E395.73523
G1 X72.899 Y101.184 E402.2144
G1 X72.899 Y99.769 E402.35559
G1 X120.229 Y147.099 E409.03436
G1 X121.643 Y147.099 E409.17545
G1 X72.899 Y98.355 E416.05376
G1 X72.899 Y96.941 E416.19485
G1 X123.057 Y147.099 E423.27268
G1 X124.472 Y147.099 E423.41387
G1 X72.899 Y95.527 E430.69131
G1 X72.899 Y94.113 E430.8324
G1 X125.886 Y147.099 E438.30937
G1 X127.3 Y147.099 E438.45046
G1 X72.899 Y92.698 E446.12702
G1 X72.899 Y91.284 E446.26811
G1 X128.714 Y147.099 E454.14421
G1 X130.128 Y147.099 E454.2853
G1 X72.899 Y89.87 E462.36093
G1 X72.899 Y88.456 E462.50202
G1 X131.543 Y147.099 E470.77725
G1 X132.957 Y147.099 E470.91834
G1 X72.899 Y87.042 E479.3931
G1 X72.899 Y85.627 E479.53429
G1 X134.371 Y147.099 E488.20866
G1 X135.785 Y147.099 E488.34975
G1 X72.899 Y84.213 E497.22364
G1 X72.899 Y82.799 E497.36473
G1 X137.199 Y147.099 E506.43815
G1 X137.409 Y147.099 E506.45911
G1 X137.569 Y147.094 E506.47508
G1 X138.529 Y147.03 E506.57108
G1 X138.544 Y147.029 E506.57258
G1 X72.969 Y81.455 E515.82585
G1 X72.97 Y81.45 E515.82636
G1 X72.985 Y81.278 E515.84359
G1 X73.018 Y81.061 E515.86549
G1 X73.131 Y80.431 E515.92936
G1 X73.173 Y80.244 E515.94848
G1 X139.751 Y146.822 E525.34335
G1 X140.188 Y146.709 E525.38839
G1 X140.397 Y146.645 E525.4102
G1 X140.831 Y146.488 E525.45625
G1 X73.507 Y79.164 E534.9564
G1 X73.58 Y78.972 E534.97689
G1 X73.658 Y78.779 E534.99766
G1 X73.708 Y78.667 E535.0099
G1 X73.937 Y78.179 E535.06369
G1 X141.822 Y146.064 E544.643
G1 X141.95 Y146 E544.65728
G1 X142.469 Y145.707 E544.71674
G1 X142.67 Y145.58 E544.74047
G1 X142.718 Y145.546 E544.74634
G1 X74.449 Y77.278 E554.37976
G1 X74.502 Y77.198 E554.38934
G1 X74.814 Y76.76 E554.44299
G1 X74.936 Y76.602 E554.46291
G1 X74.999 Y76.523 E554.47299
G1 X75.049 Y76.463 E554.48079
G1 X143.535 Y144.949 E564.1449
G1 X143.853 Y144.688 E564.18595
G1 X143.986 Y144.567 E564.20389
G1 X144.28 Y144.28 E564.24489
G1 X75.718 Y75.718 E573.91973
G1 X76.012 Y75.431 E573.96072
G1 X76.146 Y75.31 E573.97874
G1 X76.463 Y75.049 E574.01971
G1 X144.949 Y143.535 E583.68382
G1 X144.999 Y143.476 E583.69154
G1 X145.062 Y143.397 E583.70162
G1 X145.184 Y143.238 E583.72162
G1 X145.487 Y142.815 E583.77354
G1 X145.549 Y142.721 E583.78477
G1 X77.281 Y74.452 E593.4182
G1 X77.329 Y74.418 E593.42407
G1 X77.529 Y74.292 E593.44765
G1 X78.049 Y73.998 E593.50726
G1 X78.177 Y73.934 E593.52154
G1 X146.062 Y141.819 E603.10084
G1 X146.291 Y141.331 E603.15463
G1 X146.34 Y141.219 E603.16683
G1 X146.423 Y141.015 E603.1888
G1 X146.491 Y140.834 E603.2081
G1 X79.167 Y73.51 E612.70824
G1 X79.601 Y73.353 E612.75429
G1 X79.811 Y73.288 E612.77623
G1 X80.247 Y73.176 E612.82114
G1 X146.825 Y139.754 E622.21602
G1 X146.867 Y139.567 E622.23514
G1 X146.982 Y138.928 E622.29993
G1 X147.006 Y138.776 E622.31528
G1 X147.028 Y138.549 E622.33804
G1 X147.029 Y138.544 E622.33855
G1 X81.455 Y72.969 E631.59182
G1 X81.469 Y72.968 E631.59322
G1 X82.429 Y72.904 E631.68922
G1 X82.59 Y72.899 E631.70529
G1 X82.8 Y72.9 E631.72624
G1 X147.099 Y137.199 E640.79953
G1 X147.099 Y135.785 E640.94062
G1 X84.214 Y72.9 E649.81437
G1 X85.628 Y72.9 E649.95546
G1 X147.099 Y134.371 E658.62968
G1 X147.099 Y132.957 E658.77077
G1 X87.042 Y72.9 E667.24546
G1 X88.456 Y72.9 E667.38655
G1 X147.099 Y131.543 E675.66171
G1 X147.099 Y130.128 E675.8029
G1 X89.871 Y72.9 E683.87839
G1 X91.285 Y72.9 E684.01948
G1 X147.099 Y128.714 E691.89544
G1 X147.099 Y127.3 E692.03653
G1 X92.699 Y72.9 E699.71296
G1 X94.113 Y72.9 E699.85405
G1 X147.099 Y125.886 E707.33094
G1 X147.099 Y124.472 E707.47203
G1 X95.528 Y72.9 E714.74933
G1 X96.942 Y72.9 E714.89042
G1 X147.099 Y123.057 E721.96811
G1 X147.099 Y121.643 E722.1092
G1 X98.356 Y72.9 E728.98737
G1 X99.77 Y72.9 E729.12845
G1 X147.099 Y120.229 E735.80709
G1 X147.099 Y118.815 E735.94818
G1 X101.184 Y72.9 E742.42728
G1 X102.599 Y72.9 E742.56847
G1 X147.099 Y117.4 E748.8479
G1 X147.099 Y115.986 E748.98899
G1 X104.013 Y72.9 E755.06889
G1 X105.427 Y72.9 E755.20998
G1 X147.099 Y114.572 E761.09035
G1 X147.099 Y113.158 E761.23144
G1 X106.841 Y72.9 E766.91228
G1 X108.255 Y72.9 E767.05337
G1 X147.099 Y111.744 E772.53467
G1 X147.099 Y110.329 E772.67586
G1 X109.67 Y72.9 E777.9575
G1 X111.085 Y72.901 E778.09869
