;FLAVOR:Marlin
;TIME:6985
;Filament used: 5.83664m
;Layer height: 0.2
;MINX:71.337
;MINY:71.337
;MINZ:0.24
;MAXX:148.664
;MAXY:148.665
;MAXZ:16.09
;Generated with Cura_SteamEngine 4.9.1
M140 S60
M105
M190 S60
M104 S200
M105
M109 S200
M82 ;absolute extrusion mode
; Ender 3 Custom Start G-code
G92 E0 ; Reset Extruder
G28 ; Home all axes
G1 Z2.0 F3000 ; Move Z Axis up little to prevent scratching of Heat Bed
G1 X0.1 Y20 Z0.3 F5000.0 ; Move to start position
G1 X0.1 Y200.0 Z0.3 F1500.0 E15 ; Draw the first line
G1 X0.4 Y200.0 Z0.3 F5000.0 ; Move to side a little
G1 X0.4 Y20 Z0.3 F1500.0 E30 ; Draw the second line
G92 E0 ; Reset Extruder
G1 Z2.0 F3000 ; Move Z Axis up little to prevent scratching of Heat Bed
G1 X5 Y20 Z0.3 F5000.0 ; Move over to prevent blob squish
G92 E0
G92 E0
G1 F1500 E-6.5
;LAYER_COUNT:75
;LAYER:-6
M107
G0 F9000 X75.076 Y75.357 Z0.24
;TYPE:SUPPORT-INTERFACE
G1 F1500 E0
G1 F1125 X75.513 Y74.931 E0.04872
G1 X75.647 Y74.81 E0.06313
G1 X76.09 Y74.445 E0.10895
G1 X76.291 Y74.293 E0.12906
G1 X76.83 Y73.919 E0.18143
G1 X77.03 Y73.792 E0.20034
G1 X77.55 Y73.499 E0.24799
G1 X77.707 Y73.419 E0.26205
G1 X78.242 Y73.175 E0.30899
G1 X78.482 Y73.078 E0.32965
G1 X79.102 Y72.854 E0.38228
G1 X79.313 Y72.788 E0.39992
G1 X79.919 Y72.632 E0.44987
G1 X80.071 Y72.6 E0.46227
G1 X80.587 Y72.513 E0.50404
G1 X80.97 Y72.468 E0.53483
G1 X81.93 Y72.405 E0.61162
G1 X82.091 Y72.4 E0.62448
G1 X104.94 Y72.4 E2.44839
G1 X105.712 Y72.434 E2.51007
G1 X105.908 Y72.453 E2.52579
G1 X106.503 Y72.538 E2.57377
G1 X106.722 Y72.58 E2.59157
G1 X107.299 Y72.718 E2.63893
G1 X107.51 Y72.78 E2.65648
G1 X108.597 Y73.152 E2.74819
G1 X108.685 Y73.167 E2.75532
G1 X109.356 Y73.29 E2.80977
G1 X110.038 Y73.329 E2.8643
G1 X110.718 Y73.28 E2.91872
G1 X111.388 Y73.147 E2.97325
G1 X111.507 Y73.122 E2.98295
G1 X112.184 Y72.878 E3.0404
G1 X112.753 Y72.704 E3.08789
G1 X112.983 Y72.646 E3.10683
G1 X113.563 Y72.526 E3.15411
G1 X113.755 Y72.496 E3.16962
G1 X114.379 Y72.427 E3.21973
G1 X114.561 Y72.414 E3.2343
G1 X115.073 Y72.4 E3.27518
G1 X137.917 Y72.401 E5.09869
G1 X138.078 Y72.406 E5.11155
G1 X139.056 Y72.471 E5.18979
G1 X139.436 Y72.519 E5.22036
G1 X140.067 Y72.632 E5.27153
G1 X140.291 Y72.682 E5.28985
G1 X140.876 Y72.846 E5.33835
G1 X141.033 Y72.897 E5.35153
G1 X141.516 Y73.076 E5.39265
G1 X141.84 Y73.212 E5.4207
G1 X142.422 Y73.486 E5.47204
G1 X142.638 Y73.601 E5.49158
G1 X143.143 Y73.9 E5.53842
G1 X143.315 Y74.012 E5.55481
G1 X143.758 Y74.33 E5.59834
G1 X143.976 Y74.5 E5.62041
G1 X144.492 Y74.936 E5.67433
G1 X144.643 Y75.076 E5.69077
G1 X145.069 Y75.513 E5.73948
G1 X145.195 Y75.653 E5.75452
G1 X145.555 Y76.091 E5.79977
G1 X145.707 Y76.292 E5.81989
G1 X146.081 Y76.83 E5.87219
G1 X146.208 Y77.03 E5.89111
G1 X146.501 Y77.55 E5.93875
G1 X146.581 Y77.707 E5.95282
G1 X146.837 Y78.268 E6.00204
G1 X146.922 Y78.482 E6.02042
G1 X147.146 Y79.102 E6.07304
G1 X147.212 Y79.313 E6.09069
G1 X147.369 Y79.924 E6.14105
G1 X147.399 Y80.067 E6.15271
G1 X147.487 Y80.588 E6.19489
G1 X147.532 Y80.97 E6.22559
G1 X147.595 Y81.93 E6.30239
G1 X147.6 Y82.079 E6.31429
G1 X147.599 Y137.917 E10.77152
G1 X147.594 Y138.078 E10.78438
G1 X147.53 Y139.049 E10.86205
G1 X147.484 Y139.428 E10.89253
G1 X147.368 Y140.067 E10.94437
G1 X147.32 Y140.282 E10.96196
G1 X147.153 Y140.878 E11.01136
G1 X147.103 Y141.033 E11.02436
G1 X146.924 Y141.516 E11.06548
G1 X146.792 Y141.832 E11.09282
G1 X146.515 Y142.421 E11.14477
G1 X146.408 Y142.622 E11.16295
G1 X146.101 Y143.141 E11.21108
G1 X145.988 Y143.315 E11.22765
G1 X145.685 Y143.739 E11.26925
G1 X145.5 Y143.976 E11.29325
G1 X145.064 Y144.492 E11.34717
G1 X144.927 Y144.639 E11.36321
G1 X144.487 Y145.069 E11.41232
G1 X144.353 Y145.19 E11.42673
G1 X143.91 Y145.555 E11.47255
G1 X143.709 Y145.707 E11.49267
G1 X143.17 Y146.081 E11.54504
G1 X142.97 Y146.208 E11.56395
G1 X142.45 Y146.501 E11.61159
G1 X142.293 Y146.581 E11.62566
G1 X141.758 Y146.825 E11.67259
G1 X141.518 Y146.922 E11.69326
G1 X140.898 Y147.146 E11.74588
G1 X140.689 Y147.211 E11.76335
G1 X140.081 Y147.368 E11.81348
G1 X139.929 Y147.4 E11.82588
G1 X139.413 Y147.487 E11.86765
G1 X139.03 Y147.532 E11.89843
G1 X138.07 Y147.595 E11.97523
G1 X137.909 Y147.6 E11.98808
G1 X94.06 Y147.6 E15.4883
G1 X93.288 Y147.566 E15.54998
G1 X93.092 Y147.547 E15.5657
G1 X92.497 Y147.462 E15.61368
G1 X92.278 Y147.42 E15.63148
G1 X91.701 Y147.282 E15.67884
G1 X91.494 Y147.221 E15.69607
G1 X90.84 Y147.075 E15.74956
G1 X90.16 Y147.01 E15.80408
G1 X89.478 Y147.033 E15.85855
G1 X88.809 Y147.14 E15.91264
G1 X88.421 Y147.243 E15.94468
G1 X88.029 Y147.352 E15.97716
G1 X87.437 Y147.474 E16.02541
G1 X87.245 Y147.504 E16.04092
G1 X86.62 Y147.573 E16.09111
G1 X86.438 Y147.586 E16.10568
G1 X85.925 Y147.6 E16.14664
G1 X82.08 Y147.599 E16.45357
G1 X81.92 Y147.594 E16.46635
G1 X80.944 Y147.529 E16.54443
G1 X80.564 Y147.481 E16.575
G1 X79.933 Y147.368 E16.62617
G1 X79.709 Y147.318 E16.64449
G1 X79.122 Y147.153 E16.69317
G1 X78.965 Y147.102 E16.70634
G1 X78.484 Y146.924 E16.74728
G1 X78.167 Y146.791 E16.77472
G1 X77.578 Y146.514 E16.82668
G1 X77.362 Y146.399 E16.84621
G1 X76.857 Y146.1 E16.89306
G1 X76.685 Y145.988 E16.90944
G1 X76.243 Y145.671 E16.95286
G1 X76.024 Y145.5 E16.97504
G1 X75.508 Y145.064 E17.02897
G1 X75.357 Y144.924 E17.0454
G1 X74.931 Y144.487 E17.09412
G1 X74.805 Y144.347 E17.10915
G1 X74.438 Y143.901 E17.15526
G1 X74.293 Y143.709 E17.17447
G1 X73.919 Y143.17 E17.22683
G1 X73.792 Y142.97 E17.24575
G1 X73.499 Y142.45 E17.29339
G1 X73.419 Y142.293 E17.30746
G1 X73.194 Y141.804 E17.35042
G1 X73.075 Y141.51 E17.37574
G1 X72.849 Y140.883 E17.42894
G1 X72.788 Y140.687 E17.44533
G1 X72.631 Y140.076 E17.49569
G1 X72.598 Y139.918 E17.50857
G1 X72.511 Y139.401 E17.55042
G1 X72.468 Y139.03 E17.58023
G1 X72.405 Y138.064 E17.65751
G1 X72.4 Y137.921 E17.66893
G1 X72.401 Y82.083 E22.12616
G1 X72.406 Y81.922 E22.13902
G1 X72.47 Y80.951 E22.2167
G1 X72.497 Y80.7 E22.23685
G1 X72.519 Y80.562 E22.248
G1 X72.632 Y79.933 E22.29901
G1 X72.68 Y79.718 E22.3166
G1 X72.847 Y79.122 E22.36601
G1 X72.897 Y78.967 E22.37901
G1 X73.08 Y78.473 E22.42106
G1 X73.208 Y78.168 E22.44746
G1 X73.493 Y77.564 E22.50078
G1 X73.605 Y77.354 E22.51977
G1 X73.9 Y76.857 E22.56591
G1 X74.003 Y76.699 E22.58096
G1 X74.315 Y76.261 E22.62389
G1 X74.5 Y76.024 E22.64789
G1 X74.936 Y75.508 E22.70181
G1 X75.076 Y75.357 E22.71825
G0 F9000 X75.2 Y75.236
G1 F1125 X75.2 Y144.762 E28.26812
G0 F9000 X76.8 Y146.062
G1 F1125 X76.8 Y73.939 E34.02529
G0 F9000 X78.4 Y73.111
G1 F1125 X78.4 Y146.888 E39.91449
G0 F9000 X80 Y147.379
G1 F1125 X80 Y72.614 E45.88255
G0 F9000 X81.6 Y72.426
G1 F1125 X81.6 Y147.572 E51.88103
G0 F9000 X83.2 Y147.599
G1 F1125 X83.2 Y72.4 E57.88374
G0 F9000 X84.8 Y72.4
G1 F1125 X84.8 Y147.599 E63.88645
G0 F9000 X86.4 Y147.588
G1 F1125 X86.4 Y72.4 E69.88828
G0 F9000 X88 Y72.4
G1 F1125 X88 Y147.358 E75.87175
G0 F9000 X89.6 Y147.029
G1 F1125 X89.6 Y72.4 E81.82896
G0 F9000 X91.2 Y72.4
G1 F1125 X91.2 Y147.155 E87.79623
G0 F9000 X92.8 Y147.505
G1 F1125 X92.8 Y72.4 E93.79143
G0 F9000 X94.4 Y72.4
G1 F1125 X94.4 Y147.6 E99.79422
G0 F9000 X96 Y147.6
G1 F1125 X96 Y72.4 E105.79701
G0 F9000 X97.6 Y72.4
G1 F1125 X97.6 Y147.6 E111.7998
G0 F9000 X99.2 Y147.6
G1 F1125 X99.2 Y72.4 E117.80259
G0 F9000 X100.8 Y72.4
G1 F1125 X100.8 Y147.6 E123.80538
G0 F9000 X102.4 Y147.6
G1 F1125 X102.4 Y72.4 E129.80817
G0 F9000 X104 Y72.4
G1 F1125 X104 Y147.6 E135.81096
G0 F9000 X105.6 Y147.6
G1 F1125 X105.6 Y72.43 E141.81135
G0 F9000 X107.2 Y72.695
G1 F1125 X107.2 Y147.6 E147.79059
G0 F9000 X108.8 Y147.6
G1 F1125 X108.8 Y73.189 E153.7304
G0 F9000 X110.4 Y73.302
G1 F1125 X110.4 Y147.6 E159.66119
G0 F9000 X112 Y147.6
G1 F1125 X112 Y72.944 E165.62055
G0 F9000 X113.6 Y72.52
G1 F1125 X113.6 Y147.6 E171.61376
G0 F9000 X115.2 Y147.6
G1 F1125 X115.2 Y72.401 E177.61647
G0 F9000 X116.8 Y72.401
G1 F1125 X116.8 Y147.6 E183.61918
G0 F9000 X118.4 Y147.6
G1 F1125 X118.4 Y72.401 E189.62189
G0 F9000 X120 Y72.401
G1 F1125 X120 Y147.6 E195.6246
G0 F9000 X121.6 Y147.6
G1 F1125 X121.6 Y72.401 E201.62731
G0 F9000 X123.2 Y72.401
G1 F1125 X123.2 Y147.6 E207.63002
G0 F9000 X124.8 Y147.6
G1 F1125 X124.8 Y72.401 E213.63273
G0 F9000 X126.4 Y72.401
G1 F1125 X126.4 Y147.6 E219.63544
G0 F9000 X128 Y147.6
G1 F1125 X128 Y72.401 E225.63815
G0 F9000 X129.6 Y72.401
G1 F1125 X129.6 Y147.6 E231.64086
G0 F9000 X131.2 Y147.6
G1 F1125 X131.2 Y72.401 E237.64357
G0 F9000 X132.8 Y72.401
G1 F1125 X132.8 Y147.6 E243.64628
G0 F9000 X134.4 Y147.6
G1 F1125 X134.4 Y72.401 E249.64899
G0 F9000 X136 Y72.401
G1 F1125 X136 Y147.6 E255.6517
G0 F9000 X137.6 Y147.6
G1 F1125 X137.6 Y72.401 E261.65441
G0 F9000 X139.2 Y72.49
G1 F1125 X139.2 Y147.513 E267.64307
G0 F9000 X140.8 Y147.177
G1 F1125 X140.8 Y72.825 E273.57816
G0 F9000 X142.4 Y73.476
G1 F1125 X142.4 Y146.527 E279.40941
G0 F9000 X144 Y145.481
G1 F1125 X144 Y74.521 E285.07374
G0 F9000 X145.6 Y76.151
G1 F1125 X145.6 Y143.848 E290.47761
G0 F9000 X147.2 Y140.711
G1 F1125 X147.2 Y79.275 E295.3817
G1 F1500 E288.8817
G0 F9000 X148.157 Y78.771
G0 X147.443 Y77.054
G0 X146.496 Y75.568
G0 X145.378 Y74.307
G0 X143.907 Y73.128
G0 X142.898 Y72.534
G0 X141.183 Y71.827
G0 X139.451 Y71.444
G0 X137.939 Y71.337
G0 X81.887 Y71.342
G0 X80.432 Y71.46
G0 X78.771 Y71.843
G0 X77.054 Y72.557
G0 X75.581 Y73.495
G0 X74.307 Y74.622
G0 X73.352 Y75.812
G0 X72.684 Y76.821
G0 X73.6 Y77.363
G1 F1500 E295.3817
G1 F1125 X73.6 Y142.629 E300.59151
G0 F300 X73.6 Y142.629 Z0.54
G0 F9000 X74.024 Y143.32
;TIME_ELAPSED:212.488147
;LAYER:-5
;TYPE:SUPPORT
G1 F1125 X76.701 Y145.997 E300.96927
G1 X76.856 Y146.099 E300.98778
G1 X77.361 Y146.397 E301.04629
G1 X77.577 Y146.513 E301.07075
G1 X78.167 Y146.79 E301.13579
G1 X78.268 Y146.834 E301.14678
G1 X78.483 Y146.923 E301.17
G1 X78.964 Y147.101 E301.22117
G1 X79.121 Y147.152 E301.23765
G1 X79.327 Y147.209 E301.25897
G1 X72.782 Y140.664 E302.18254
G1 X72.631 Y140.075 E302.24321
G1 X72.597 Y139.917 E302.25934
G1 X72.51 Y139.4 E302.31165
G1 X72.487 Y139.224 E302.32936
G1 X72.467 Y139.029 E302.34892
G1 X72.46 Y138.928 E302.35902
G1 X81.067 Y147.535 E303.57357
G1 X81.919 Y147.592 E303.65877
G1 X82.08 Y147.597 E303.67484
G1 X82.544 Y147.597 E303.72114
G1 X72.399 Y137.453 E305.15264
G1 X72.399 Y136.039 E305.29373
G1 X83.958 Y147.597 E306.92476
G1 X85.373 Y147.598 E307.06595
G1 X72.399 Y134.625 E308.89665
G1 X72.399 Y133.211 E309.03774
G1 X86.747 Y147.558 E311.06232
G1 X87.244 Y147.503 E311.11222
G1 X87.437 Y147.473 E311.13171
G1 X87.966 Y147.363 E311.18562
G1 X72.399 Y131.796 E313.38229
G1 X72.399 Y130.382 E313.52338
G1 X89.108 Y147.09 E315.88113
G1 X89.477 Y147.032 E315.9184
G1 X90.159 Y147.009 E315.98649
G1 X90.47 Y147.039 E316.01767
G1 X72.399 Y128.968 E318.56768
G1 X72.399 Y127.554 E318.70877
G1 X92.261 Y147.415 E321.51144
G1 X92.278 Y147.419 E321.51318
G1 X92.496 Y147.461 E321.53534
G1 X93.092 Y147.546 E321.59541
G1 X93.287 Y147.565 E321.61496
G1 X93.849 Y147.589 E321.67108
G1 X72.399 Y126.14 E324.69784
G1 X72.399 Y124.725 E324.83903
G1 X95.273 Y147.599 E328.0668
G1 X96.687 Y147.599 E328.20789
G1 X72.399 Y123.311 E331.63519
G1 X72.399 Y121.897 E331.77628
G1 X98.101 Y147.599 E335.4031
G1 X99.516 Y147.599 E335.54429
G1 X72.399 Y120.483 E339.37073
G1 X72.399 Y119.069 E339.51181
G1 X100.93 Y147.599 E343.53778
G1 X102.344 Y147.599 E343.67887
G1 X72.399 Y117.654 E347.90443
G1 X72.399 Y116.24 E348.04552
G1 X103.758 Y147.599 E352.47061
G1 X105.172 Y147.599 E352.6117
G1 X72.399 Y114.826 E357.23633
G1 X72.399 Y113.412 E357.37742
G1 X106.587 Y147.599 E362.20164
G1 X108.001 Y147.599 E362.34273
G1 X72.399 Y111.997 E367.36656
G1 X72.399 Y110.583 E367.50765
G1 X109.415 Y147.599 E372.731
G1 X110.829 Y147.599 E372.87209
G1 X72.399 Y109.169 E378.29498
G1 X72.399 Y107.755 E378.43607
G1 X112.244 Y147.599 E384.05856
G1 X113.658 Y147.599 E384.19965
G1 X72.399 Y106.341 E390.02167
G1 X72.399 Y104.926 E390.16286
G1 X115.072 Y147.599 E396.18448
G1 X116.486 Y147.599 E396.32557
G1 X72.399 Y103.512 E402.54672
G1 X72.399 Y102.098 E402.68781
G1 X117.9 Y147.599 E409.10849
G1 X119.315 Y147.599 E409.24968
G1 X72.399 Y100.684 E415.86997
G1 X72.399 Y99.27 E416.01106
G1 X120.729 Y147.599 E422.83087
G1 X122.143 Y147.599 E422.97196
G1 X72.399 Y97.855 E429.99138
G1 X72.399 Y96.441 E430.13247
G1 X123.557 Y147.599 E437.35141
G1 X124.971 Y147.599 E437.4925
G1 X72.399 Y95.027 E444.91098
G1 X72.399 Y93.613 E445.05207
G1 X126.386 Y147.599 E452.67015
G1 X127.8 Y147.599 E452.81124
G1 X72.399 Y92.198 E460.62892
G1 X72.399 Y90.784 E460.77001
G1 X129.214 Y147.599 E468.78722
G1 X130.628 Y147.599 E468.92831
G1 X72.399 Y89.37 E477.14505
G1 X72.399 Y87.956 E477.28614
G1 X132.042 Y147.599 E485.70241
G1 X133.457 Y147.599 E485.8436
G1 X72.399 Y86.542 E494.45947
G1 X72.399 Y85.127 E494.60066
G1 X134.871 Y147.599 E503.41613
G1 X136.285 Y147.599 E503.55722
G1 X72.399 Y83.713 E512.57223
G1 X72.399 Y82.299 E512.71332
G1 X137.699 Y147.599 E521.92785
G1 X137.909 Y147.599 E521.94881
G1 X138.069 Y147.594 E521.96478
G1 X139.029 Y147.53 E522.06078
G1 X139.044 Y147.529 E522.06228
G1 X72.469 Y80.955 E531.45666
G1 X72.47 Y80.95 E531.45717
G1 X72.485 Y80.778 E531.4744
G1 X72.518 Y80.561 E531.4963
G1 X72.631 Y79.932 E531.56007
G1 X72.673 Y79.744 E531.57929
G1 X140.251 Y147.322 E541.11527
G1 X140.689 Y147.21 E541.16038
G1 X140.897 Y147.145 E541.18213
G1 X141.331 Y146.988 E541.22818
G1 X73.008 Y78.664 E550.86936
G1 X73.08 Y78.472 E550.88982
G1 X73.158 Y78.279 E550.91059
G1 X73.207 Y78.167 E550.92279
G1 X73.437 Y77.679 E550.97662
G1 X142.322 Y146.564 E560.69704
G1 X142.45 Y146.5 E560.71132
G1 X142.969 Y146.207 E560.77079
G1 X143.17 Y146.08 E560.79451
G1 X143.218 Y146.046 E560.80038
G1 X73.949 Y76.778 E570.57491
G1 X74.002 Y76.698 E570.58449
G1 X74.314 Y76.26 E570.63815
G1 X74.436 Y76.102 E570.65806
G1 X74.5 Y76.023 E570.66821
G1 X74.549 Y75.963 E570.67594
G1 X144.035 Y145.449 E580.48116
G1 X144.353 Y145.188 E580.52221
G1 X144.487 Y145.068 E580.54016
G1 X144.78 Y144.78 E580.58116
G1 X75.218 Y75.218 E590.39711
G1 X75.511 Y74.93 E590.4381
G1 X75.646 Y74.81 E590.45612
G1 X75.963 Y74.549 E590.49709
G1 X145.449 Y144.035 E600.30232
G1 X145.499 Y143.976 E600.31004
G1 X145.562 Y143.896 E600.3202
G1 X145.684 Y143.738 E600.34011
G1 X145.987 Y143.314 E600.39211
G1 X146.049 Y143.22 E600.40335
G1 X76.781 Y73.952 E610.17781
G1 X76.829 Y73.918 E610.18368
G1 X77.029 Y73.792 E610.20727
G1 X77.549 Y73.498 E610.26687
G1 X77.677 Y73.434 E610.28115
G1 X146.562 Y142.319 E620.00157
G1 X146.791 Y141.831 E620.05536
G1 X146.84 Y141.719 E620.06756
G1 X146.923 Y141.515 E620.08953
G1 X146.991 Y141.334 E620.10882
G1 X78.667 Y73.01 E629.75008
G1 X79.101 Y72.853 E629.79613
G1 X79.311 Y72.788 E629.81806
G1 X79.747 Y72.676 E629.86298
G1 X147.325 Y140.254 E639.39897
G1 X147.367 Y140.067 E639.41809
G1 X147.481 Y139.428 E639.48286
G1 X147.506 Y139.276 E639.49823
G1 X147.528 Y139.049 E639.52098
G1 X147.529 Y139.044 E639.52149
G1 X80.955 Y72.469 E648.91587
G1 X80.969 Y72.468 E648.91727
G1 X81.929 Y72.404 E649.01328
G1 X82.09 Y72.399 E649.02935
G1 X82.299 Y72.399 E649.0502
G1 X147.599 Y137.699 E658.26474
G1 X147.599 Y136.285 E658.40583
G1 X83.713 Y72.399 E667.42083
G1 X85.127 Y72.399 E667.56192
G1 X147.599 Y134.871 E676.3774
G1 X147.599 Y133.457 E676.51848
G1 X86.542 Y72.399 E685.13436
G1 X87.956 Y72.399 E685.27545
G1 X147.599 Y132.042 E693.69172
G1 X147.599 Y130.628 E693.83281
G1 X89.37 Y72.399 E702.04955
G1 X90.784 Y72.399 E702.19064
G1 X147.599 Y129.214 E710.20785
G1 X147.599 Y127.8 E710.34894
G1 X92.198 Y72.399 E718.16662
G1 X93.613 Y72.399 E718.30781
G1 X147.599 Y126.386 E725.92589
G1 X147.599 Y124.971 E726.06707
G1 X95.027 Y72.399 E733.48555
G1 X96.441 Y72.399 E733.62664
G1 X147.599 Y123.557 E740.84559
G1 X147.599 Y122.143 E740.98668
G1 X97.855 Y72.399 E748.00609
G1 X99.27 Y72.399 E748.14728
G1 X147.599 Y120.729 E754.9671
G1 X147.599 Y119.315 E755.10819
G1 X100.684 Y72.399 E761.72847
G1 X102.098 Y72.399 E761.86956
G1 X147.599 Y117.9 E768.29024
G1 X147.599 Y116.486 E768.43133
G1 X103.512 Y72.399 E774.65248
G1 X104.926 Y72.399 E774.79357
G1 X147.599 Y115.072 E780.81519
G1 X147.599 Y113.658 E780.95628
G1 X106.476 Y72.535 E786.75918
G1 X106.502 Y72.538 E786.76179
G1 X106.721 Y72.579 E786.78403
