;FLAVOR:Marlin
;TIME:14993
;Filament used: 10.9812m
;Layer height: 0.2
;MINX:16.373
;MINY:70.856
;MINZ:0.24
;MAXX:200.462
;MAXY:162.907
;MAXZ:16.09
;Generated with Cura_SteamEngine 4.9.1
M140 S60
M105
M190 S60
M104 S200
M105
M109 S200
M82 ;absolute extrusion mode
; Ender 3 Custom Start G-code
G92 E0 ; Reset Extruder
G28 ; Home all axes
G1 Z2.0 F3000 ; Move Z Axis up little to prevent scratching of Heat Bed
G1 X0.1 Y20 Z0.3 F5000.0 ; Move to start position
G1 X0.1 Y200.0 Z0.3 F1500.0 E15 ; Draw the first line
G1 X0.4 Y200.0 Z0.3 F5000.0 ; Move to side a little
G1 X0.4 Y20 Z0.3 F1500.0 E30 ; Draw the second line
G92 E0 ; Reset Extruder
G1 Z2.0 F3000 ; Move Z Axis up little to prevent scratching of Heat Bed
G1 X5 Y20 Z0.3 F5000.0 ; Move over to prevent blob squish
G92 E0
G92 E0
G1 F1500 E-6.5
;LAYER_COUNT:75
;LAYER:-6
M107
G0 F9000 X25.481 Y72.433 Z0.24
;TYPE:SUPPORT-INTERFACE
G1 F1500 E0
G1 F1125 X25.656 Y72.379 E0.01462
G1 X26.275 Y72.221 E0.06561
G1 X26.439 Y72.186 E0.079
G1 X26.953 Y72.099 E0.12061
G1 X27.642 Y72.008 E0.17609
G1 X27.807 Y71.992 E0.18932
G1 X28.794 Y71.926 E0.26829
G1 X28.951 Y71.921 E0.28082
G1 X87.779 Y71.921 E4.97673
G1 X87.921 Y71.926 E4.98807
G1 X88.972 Y71.997 E5.07216
G1 X89.099 Y72.009 E5.08234
G1 X89.731 Y72.095 E5.13326
G1 X89.846 Y72.113 E5.14255
G1 X90.467 Y72.227 E5.19295
G1 X90.707 Y72.282 E5.2126
G1 X91.291 Y72.448 E5.26106
G1 X91.47 Y72.506 E5.27608
G1 X91.898 Y72.668 E5.31261
G1 X92.613 Y72.963 E5.37436
G1 X92.686 Y72.995 E5.38072
G1 X93.3 Y73.284 E5.43489
G1 X93.494 Y73.388 E5.45246
G1 X94.013 Y73.696 E5.50063
G1 X94.176 Y73.802 E5.51615
G1 X94.638 Y74.132 E5.56148
G1 X95.181 Y74.55 E5.61618
G1 X95.267 Y74.62 E5.62503
G1 X95.771 Y75.048 E5.67781
G1 X95.929 Y75.195 E5.69503
G1 X96.351 Y75.629 E5.74336
G1 X96.491 Y75.784 E5.76003
G1 X96.754 Y76.103 E5.79303
G1 X96.86 Y76.236 E5.80661
G1 X97.241 Y76.732 E5.85653
G1 X97.294 Y76.804 E5.86367
G1 X97.677 Y77.354 E5.91717
G1 X97.797 Y77.545 E5.93517
G1 X98.084 Y78.054 E5.98182
G1 X98.19 Y78.263 E6.00052
G1 X98.385 Y78.69 E6.038
G1 X98.422 Y78.774 E6.04532
G1 X98.672 Y79.377 E6.09743
G1 X98.721 Y79.505 E6.10837
G1 X98.937 Y80.101 E6.15897
G1 X99.007 Y80.33 E6.17809
G1 X99.153 Y80.892 E6.22444
G1 X99.201 Y81.119 E6.24296
G1 X99.271 Y81.541 E6.27711
G1 X99.297 Y81.714 E6.29107
G1 X99.375 Y82.305 E6.33866
G1 X99.391 Y82.468 E6.35173
G1 X99.456 Y83.451 E6.43037
G1 X99.461 Y83.6 E6.44227
G1 X99.461 Y142.438 E11.13897
G1 X99.456 Y142.583 E11.15055
G1 X99.388 Y143.604 E11.23223
G1 X99.373 Y143.755 E11.24435
G1 X99.291 Y144.367 E11.29364
G1 X99.269 Y144.504 E11.30471
G1 X99.158 Y145.115 E11.35428
G1 X99.1 Y145.367 E11.37492
G1 X98.94 Y145.931 E11.42172
G1 X98.89 Y146.087 E11.4348
G1 X98.695 Y146.612 E11.4795
G1 X98.44 Y147.224 E11.53243
G1 X98.371 Y147.38 E11.54604
G1 X98.095 Y147.965 E11.59768
G1 X97.999 Y148.147 E11.6141
G1 X97.687 Y148.673 E11.66292
G1 X97.582 Y148.834 E11.67826
G1 X97.243 Y149.307 E11.72472
G1 X96.841 Y149.83 E11.77737
G1 X96.765 Y149.924 E11.78702
G1 X96.34 Y150.426 E11.83953
G1 X96.181 Y150.594 E11.85799
G1 X95.757 Y151.008 E11.90529
G1 X95.616 Y151.136 E11.9205
G1 X95.247 Y151.441 E11.95871
G1 X94.656 Y151.897 E12.0183
G1 X94.561 Y151.966 E12.02767
G1 X93.998 Y152.356 E12.08234
G1 X93.835 Y152.458 E12.09769
G1 X93.309 Y152.754 E12.14587
G1 X93.14 Y152.84 E12.161
G1 X92.711 Y153.037 E12.19869
G1 X92.583 Y153.093 E12.20984
G1 X91.989 Y153.339 E12.26116
G1 X91.897 Y153.375 E12.26905
G1 X91.277 Y153.599 E12.32167
G1 X91.068 Y153.664 E12.33914
G1 X90.46 Y153.821 E12.38927
G1 X90.308 Y153.853 E12.40166
G1 X89.792 Y153.94 E12.44344
G1 X89.084 Y154.033 E12.50044
G1 X88.891 Y154.053 E12.51592
G1 X87.931 Y154.116 E12.59272
G1 X87.77 Y154.121 E12.60558
G1 X28.944 Y154.121 E17.30132
G1 X28.798 Y154.116 E17.31299
G1 X27.766 Y154.047 E17.39555
G1 X27.629 Y154.034 E17.40653
G1 X26.999 Y153.949 E17.45728
G1 X26.896 Y153.932 E17.46561
G1 X26.236 Y153.813 E17.51915
G1 X26.05 Y153.769 E17.5344
G1 X25.465 Y153.605 E17.5829
G1 X25.262 Y153.538 E17.59996
G1 X24.723 Y153.336 E17.64591
G1 X24.119 Y153.084 E17.69815
G1 X23.997 Y153.029 E17.70884
G1 X23.405 Y152.749 E17.76111
G1 X23.231 Y152.656 E17.77686
G1 X22.687 Y152.333 E17.82736
G1 X22.555 Y152.247 E17.83994
G1 X22.054 Y151.887 E17.88918
G1 X21.539 Y151.491 E17.94104
G1 X21.45 Y151.418 E17.95023
G1 X20.956 Y150.999 E18.00194
G1 X20.803 Y150.857 E18.0186
G1 X20.364 Y150.408 E18.06873
G1 X20.239 Y150.268 E18.08371
G1 X19.958 Y149.925 E18.1191
G1 X19.855 Y149.796 E18.13228
G1 X19.481 Y149.308 E18.18136
G1 X19.4 Y149.197 E18.19233
G1 X19.031 Y148.667 E18.24388
G1 X18.921 Y148.49 E18.26051
G1 X18.633 Y147.979 E18.30733
G1 X18.534 Y147.784 E18.32479
G1 X18.33 Y147.338 E18.36394
G1 X18.043 Y146.649 E18.42352
G1 X17.993 Y146.521 E18.43449
G1 X17.781 Y145.931 E18.48453
G1 X17.717 Y145.726 E18.50168
G1 X17.56 Y145.115 E18.55203
G1 X17.527 Y144.957 E18.56492
G1 X17.441 Y144.439 E18.60683
G1 X17.349 Y143.744 E18.6628
G1 X17.329 Y143.551 E18.67828
G1 X17.266 Y142.591 E18.75508
G1 X17.261 Y142.442 E18.76698
G1 X17.261 Y83.59 E23.4648
G1 X17.266 Y83.459 E23.47527
G1 X17.334 Y82.435 E23.55719
G1 X17.351 Y82.271 E23.57035
G1 X17.433 Y81.658 E23.61972
G1 X17.45 Y81.554 E23.62813
G1 X17.57 Y80.896 E23.68152
G1 X17.619 Y80.687 E23.69865
G1 X17.777 Y80.124 E23.74533
G1 X17.841 Y79.93 E23.76164
G1 X18.042 Y79.393 E23.80741
G1 X18.298 Y78.778 E23.86058
G1 X18.35 Y78.663 E23.87066
G1 X18.633 Y78.065 E23.92347
G1 X18.721 Y77.899 E23.93847
G1 X19.049 Y77.347 E23.98972
G1 X19.142 Y77.204 E24.00334
G1 X19.476 Y76.739 E24.04904
G1 X19.889 Y76.202 E24.10312
G1 X19.968 Y76.106 E24.11304
G1 X20.388 Y75.611 E24.16486
G1 X20.535 Y75.453 E24.18209
G1 X20.973 Y75.027 E24.23086
G1 X21.124 Y74.891 E24.24708
G1 X21.443 Y74.628 E24.28008
G1 X21.56 Y74.535 E24.29201
G1 X22.154 Y74.081 E24.35169
G1 X22.694 Y73.705 E24.40422
G1 X22.885 Y73.585 E24.42222
G1 X23.406 Y73.291 E24.46998
G1 X23.572 Y73.206 E24.48486
G1 X24.042 Y72.991 E24.52612
G1 X24.76 Y72.693 E24.58817
G1 X24.832 Y72.665 E24.59434
G1 X25.481 Y72.433 E24.64936
G1 F1500 E18.14936
G0 F9000 X25.378 Y71.351
G0 X41.256 Y93.495
G0 X40.86 Y92.505
G1 F1500 E24.64936
G1 F1125 X40.243 Y92.797 E24.70385
G1 X39.668 Y93.165 E24.75834
G1 X39.144 Y93.603 E24.81286
G1 X38.68 Y94.103 E24.86731
G1 X38.281 Y94.659 E24.92194
G1 X37.957 Y95.259 E24.97637
G1 X37.711 Y95.895 E25.0308
G1 X37.545 Y96.564 E25.08582
G1 X37.461 Y97.503 E25.16108
G1 X37.461 Y128.534 E27.63811
G1 X37.503 Y129.202 E27.69153
G1 X37.632 Y129.873 E27.74608
G1 X37.845 Y130.522 E27.8006
G1 X38.137 Y131.139 E27.85509
G1 X38.505 Y131.714 E27.90958
G1 X38.943 Y132.238 E27.9641
G1 X39.443 Y132.702 E28.01855
G1 X39.999 Y133.101 E28.07318
G1 X40.599 Y133.425 E28.12761
G1 X41.235 Y133.671 E28.18204
G1 X41.904 Y133.837 E28.23707
G1 X42.843 Y133.921 E28.31232
G1 X73.873 Y133.921 E30.78927
G1 X74.541 Y133.879 E30.8427
G1 X75.212 Y133.75 E30.89724
G1 X75.861 Y133.537 E30.95176
G1 X76.478 Y133.245 E31.00625
G1 X77.053 Y132.877 E31.06075
G1 X77.577 Y132.439 E31.11526
G1 X78.041 Y131.939 E31.16971
G1 X78.44 Y131.383 E31.22434
G1 X78.764 Y130.783 E31.27877
G1 X79.01 Y130.147 E31.33321
G1 X79.176 Y129.478 E31.38823
G1 X79.26 Y128.539 E31.46348
G1 X79.261 Y97.508 E33.94051
G1 X79.219 Y96.84 E33.99394
G1 X79.09 Y96.169 E34.04848
G1 X78.877 Y95.52 E34.10301
G1 X78.585 Y94.904 E34.15742
G1 X78.217 Y94.328 E34.21198
G1 X77.779 Y93.804 E34.2665
G1 X77.279 Y93.34 E34.32095
G1 X76.725 Y92.941 E34.37545
G1 X76.123 Y92.617 E34.43002
G1 X75.487 Y92.371 E34.48445
G1 X74.818 Y92.205 E34.53948
G1 X73.879 Y92.121 E34.61473
G1 X42.848 Y92.121 E37.09176
G1 X42.18 Y92.163 E37.14519
G1 X41.509 Y92.292 E37.19973
G1 X40.86 Y92.505 E37.25426
G1 F1500 E30.75426
G0 F9000 X41.775 Y93.325
G0 X118.142 Y84.513
G0 X119.134 Y84.939
G1 F1500 E37.25426
G1 F1125 X119.405 Y84.558 E37.29158
G1 X119.49 Y84.443 E37.30299
G1 X119.892 Y83.92 E37.35565
G1 X120.384 Y83.337 E37.41654
G1 X120.526 Y83.184 E37.43321
G1 X120.969 Y82.751 E37.48265
G1 X121.116 Y82.62 E37.49837
G1 X121.449 Y82.345 E37.53285
G1 X121.586 Y82.236 E37.54682
G1 X122.05 Y81.88 E37.5935
G1 X122.184 Y81.782 E37.60676
G1 X122.699 Y81.423 E37.65687
G1 X122.884 Y81.308 E37.67426
G1 X123.423 Y81.003 E37.72369
G1 X123.583 Y80.922 E37.73801
G1 X124.119 Y80.678 E37.78502
G1 X124.841 Y80.382 E37.84731
G1 X125.454 Y80.162 E37.89929
G1 X125.665 Y80.098 E37.9169
G1 X126.264 Y79.945 E37.96625
G1 X126.454 Y79.904 E37.98176
G1 X127.025 Y79.81 E38.02795
G1 X127.655 Y79.726 E38.07869
G1 X127.783 Y79.713 E38.08896
G1 X128.796 Y79.647 E38.16999
G1 X128.952 Y79.642 E38.18245
G1 X187.78 Y79.642 E42.87836
G1 X187.923 Y79.647 E42.88978
G1 X188.975 Y79.718 E42.97394
G1 X189.102 Y79.73 E42.98413
G1 X189.752 Y79.818 E43.03649
G1 X189.821 Y79.829 E43.04206
G1 X190.495 Y79.953 E43.09677
G1 X190.685 Y79.998 E43.11235
G1 X191.288 Y80.169 E43.16239
G1 X191.463 Y80.226 E43.17708
G1 X191.89 Y80.386 E43.21348
G1 X192.595 Y80.676 E43.27433
G1 X192.706 Y80.725 E43.28401
G1 X193.288 Y80.999 E43.33536
G1 X193.504 Y81.114 E43.3549
G1 X194.001 Y81.409 E43.40103
G1 X194.165 Y81.514 E43.41658
G1 X194.657 Y81.867 E43.46491
G1 X195.182 Y82.271 E43.51779
G1 X195.263 Y82.337 E43.52613
G1 X195.772 Y82.769 E43.57942
G1 X195.93 Y82.916 E43.59665
G1 X196.356 Y83.354 E43.64542
G1 X196.492 Y83.505 E43.66165
G1 X196.755 Y83.824 E43.69465
G1 X196.861 Y83.957 E43.70822
G1 X197.242 Y84.453 E43.75815
G1 X197.295 Y84.525 E43.76529
G1 X197.678 Y85.075 E43.81879
G1 X197.798 Y85.266 E43.83679
G1 X198.085 Y85.775 E43.88344
G1 X198.191 Y85.984 E43.90214
G1 X198.386 Y86.411 E43.93961
G1 X198.423 Y86.495 E43.94694
G1 X198.673 Y87.098 E43.99905
G1 X198.722 Y87.226 E44.00999
G1 X198.945 Y87.842 E44.06228
G1 X199.004 Y88.034 E44.07832
G1 X199.156 Y88.622 E44.1268
G1 X199.202 Y88.84 E44.14458
G1 X199.272 Y89.262 E44.17873
G1 X199.298 Y89.435 E44.19269
G1 X199.376 Y90.026 E44.24028
G1 X199.392 Y90.189 E44.25335
G1 X199.457 Y91.172 E44.33199
G1 X199.462 Y91.321 E44.34389
G1 X199.462 Y150.159 E49.04059
G1 X199.457 Y150.304 E49.05217
G1 X199.389 Y151.325 E49.13386
G1 X199.375 Y151.471 E49.14556
G1 X199.292 Y152.088 E49.19526
G1 X199.27 Y152.225 E49.20633
G1 X199.159 Y152.836 E49.25591
G1 X199.102 Y153.084 E49.27622
G1 X198.947 Y153.635 E49.32191
G1 X198.892 Y153.807 E49.33632
G1 X198.696 Y154.333 E49.38113
G1 X198.432 Y154.966 E49.43588
G1 X198.36 Y155.126 E49.44988
G1 X198.088 Y155.701 E49.50066
G1 X198 Y155.868 E49.51573
G1 X197.688 Y156.394 E49.56455
G1 X197.583 Y156.555 E49.57989
G1 X197.241 Y157.032 E49.62674
G1 X196.844 Y157.549 E49.67877
G1 X196.755 Y157.658 E49.69001
G1 X196.341 Y158.147 E49.74115
G1 X196.19 Y158.307 E49.75871
G1 X195.761 Y158.726 E49.80658
G1 X195.61 Y158.862 E49.8228
G1 X195.212 Y159.192 E49.86407
G1 X194.643 Y159.628 E49.92129
G1 X194.57 Y159.682 E49.92854
G1 X194.029 Y160.059 E49.98118
G1 X193.838 Y160.179 E49.99918
G1 X193.317 Y160.473 E50.04694
G1 X193.151 Y160.558 E50.06182
G1 X192.681 Y160.773 E50.10308
G1 X191.963 Y161.071 E50.16513
G1 X191.9 Y161.096 E50.17055
G1 X191.242 Y161.331 E50.22632
G1 X191.067 Y161.385 E50.24094
G1 X190.468 Y161.539 E50.29031
G1 X190.272 Y161.58 E50.30629
G1 X189.8 Y161.659 E50.34449
G1 X189.693 Y161.675 E50.35313
G1 X189.078 Y161.756 E50.40265
G1 X188.91 Y161.772 E50.41612
G1 X187.932 Y161.837 E50.49436
G1 X187.771 Y161.842 E50.50721
G1 X128.945 Y161.842 E55.20296
G1 X128.8 Y161.837 E55.21454
G1 X127.773 Y161.768 E55.29671
G1 X127.626 Y161.754 E55.30849
G1 X127.016 Y161.672 E55.35762
G1 X126.879 Y161.65 E55.3687
G1 X126.258 Y161.537 E55.41909
G1 X126.016 Y161.481 E55.43891
G1 X125.452 Y161.322 E55.48569
G1 X125.27 Y161.262 E55.50099
G1 X124.72 Y161.055 E55.5479
G1 X124.035 Y160.768 E55.60718
G1 X123.423 Y160.48 E55.66117
G1 X123.229 Y160.376 E55.67874
G1 X122.722 Y160.076 E55.72577
G1 X122.531 Y159.951 E55.74399
G1 X122.137 Y159.67 E55.78262
G1 X121.546 Y159.218 E55.84201
G1 X121.43 Y159.123 E55.85398
G1 X120.956 Y158.721 E55.90359
G1 X120.797 Y158.571 E55.92104
G1 X120.37 Y158.134 E55.96981
G1 X120.239 Y157.987 E55.98553
G1 X119.912 Y157.591 E56.02652
G1 X119.418 Y156.944 E56.0915
G1 X119.029 Y156.382 E56.14606
G1 X118.927 Y156.219 E56.16141
G1 X118.615 Y155.664 E56.21224
G1 X118.537 Y155.511 E56.22594
G1 X118.342 Y155.084 E56.26341
G1 X118.284 Y154.95 E56.27507
G1 X118.04 Y154.36 E56.32604
G1 X117.994 Y154.242 E56.33614
G1 X117.781 Y153.649 E56.38644
G1 X117.718 Y153.447 E56.40333
G1 X117.565 Y152.85 E56.45253
G1 X117.525 Y152.657 E56.46826
G1 X117.428 Y152.064 E56.51623
G1 X117.349 Y151.459 E56.56493
G1 X117.33 Y151.273 E56.57985
G1 X117.267 Y150.312 E56.65673
G1 X117.262 Y150.163 E56.66863
G1 X117.262 Y91.325 E61.36533
G1 X117.267 Y91.179 E61.377
G1 X117.335 Y90.154 E61.459
G1 X117.349 Y90.01 E61.47054
G1 X117.434 Y89.379 E61.52137
G1 X117.451 Y89.275 E61.52978
G1 X117.57 Y88.617 E61.58316
G1 X117.614 Y88.431 E61.59841
G1 X117.778 Y87.845 E61.64699
G1 X117.842 Y87.651 E61.66329
G1 X118.043 Y87.114 E61.70906
G1 X118.299 Y86.499 E61.76224
G1 X118.351 Y86.384 E61.77231
G1 X118.634 Y85.786 E61.82513
G1 X118.722 Y85.62 E61.84012
G1 X119.05 Y85.068 E61.89138
G1 X119.134 Y84.939 E61.90367
G1 F1500 E55.40367
G0 F9000 X118.24 Y84.361
G0 X138.506 Y101.499
G0 X137.681 Y100.824
G1 F1500 E61.90367
G1 F1125 X137.282 Y101.38 E61.95829
G1 X136.958 Y101.98 E62.01273
G1 X136.712 Y102.616 E62.06716
G1 X136.546 Y103.285 E62.12218
G1 X136.462 Y104.224 E62.19744
G1 X136.462 Y137.255 E64.83411
G1 X136.504 Y137.923 E64.88754
G1 X136.633 Y138.594 E64.94208
G1 X136.846 Y139.243 E64.99661
G1 X137.138 Y139.86 E65.0511
G1 X137.506 Y140.435 E65.10559
G1 X137.944 Y140.959 E65.16011
G1 X138.444 Y141.423 E65.21456
G1 X139 Y141.822 E65.26919
G1 X139.6 Y142.146 E65.32362
G1 X140.236 Y142.392 E65.37805
G1 X140.905 Y142.558 E65.43307
G1 X141.844 Y142.642 E65.50833
G1 X174.875 Y142.642 E68.145
G1 X175.543 Y142.6 E68.19843
G1 X176.214 Y142.471 E68.25297
G1 X176.863 Y142.258 E68.3075
G1 X177.48 Y141.966 E68.36199
G1 X178.055 Y141.598 E68.41648
G1 X178.579 Y141.16 E68.471
G1 X179.043 Y140.66 E68.52545
G1 X179.442 Y140.104 E68.58008
G1 X179.766 Y139.504 E68.63451
G1 X180.012 Y138.868 E68.68894
G1 X180.178 Y138.199 E68.74396
G1 X180.262 Y137.26 E68.81922
G1 X180.262 Y104.229 E71.4559
G1 X180.22 Y103.561 E71.50932
G1 X180.091 Y102.89 E71.56387
G1 X179.878 Y102.241 E71.61839
G1 X179.586 Y101.624 E71.67288
G1 X179.218 Y101.049 E71.72737
G1 X178.78 Y100.525 E71.78189
G1 X178.28 Y100.061 E71.83634
G1 X177.724 Y99.662 E71.89097
G1 X177.124 Y99.338 E71.9454
G1 X176.488 Y99.092 E71.99983
G1 X175.819 Y98.926 E72.05486
G1 X174.88 Y98.842 E72.13011
G1 X141.849 Y98.842 E74.76679
G1 X141.181 Y98.884 E74.82021
G1 X140.51 Y99.013 E74.87476
G1 X139.861 Y99.226 E74.92928
G1 X139.244 Y99.518 E74.98377
G1 X138.669 Y99.886 E75.03827
G1 X138.145 Y100.324 E75.09278
G1 X137.681 Y100.824 E75.14723
G0 F9000 X137.6 Y100.937
G1 F1125 X137.6 Y79.642 E76.84709
G0 F9000 X136 Y79.642
G1 F1125 X136 Y161.842 E83.40865
G0 F9000 X134.4 Y161.842
G1 F1125 X134.4 Y79.642 E89.97021
G0 F9000 X132.8 Y79.642
G1 F1125 X132.8 Y161.842 E96.53177
G0 F9000 X131.2 Y161.842
G1 F1125 X131.2 Y79.642 E103.09333
G0 F9000 X129.6 Y79.642
G1 F1125 X129.6 Y161.842 E109.65489
G0 F9000 X128 Y161.783
G1 F1125 X128 Y79.698 E116.20727
G0 F9000 X126.4 Y79.915
G1 F1125 X126.4 Y161.562 E122.72468
G0 F9000 X124.8 Y161.085
G1 F1125 X124.8 Y80.398 E129.16547
G0 F9000 X123.2 Y81.129
G1 F1125 X123.2 Y160.358 E135.48987
G0 F9000 X121.6 Y159.259
G1 F1125 X121.6 Y82.225 E141.63906
G0 F9000 X120 Y83.792
G1 F1125 X120 Y157.697 E147.53847
G0 F9000 X118.4 Y155.211
G1 F1125 X118.4 Y86.28 E153.04084
G1 F1500 E146.54084
G0 F9000 X117.385 Y85.936
G0 X100.249 Y80.939
G0 X99.2 Y81.115
G1 F1500 E153.04084
G1 F1125 X99.2 Y144.884 E158.13116
G0 F9000 X97.6 Y148.807
G1 F1125 X97.6 Y77.244 E163.84363
G0 F9000 X96 Y75.269
G1 F1125 X96 Y150.771 E169.87053
G0 F9000 X94.4 Y152.078
G1 F1125 X94.4 Y73.962 E176.10608
G0 F9000 X92.8 Y73.049
G1 F1125 X92.8 Y152.997 E182.48788
G0 F9000 X91.2 Y153.623
G1 F1125 X91.2 Y72.423 E188.96961
G0 F9000 X89.6 Y72.078
G1 F1125 X89.6 Y153.966 E195.50627
G0 F9000 X88 Y154.112
