;FLAVOR:Marlin
;TIME:28352
;Filament used: 24.9716m
;Layer height: 0.2
;MINX:18.954
;MINY:18.846
;MINZ:0.24
;MAXX:193.754
;MAXY:197.405
;MAXZ:21.09
;Generated with Cura_SteamEngine 4.9.1
M140 S60
M105
M190 S60
M104 S200
M105
M109 S200
M82 ;absolute extrusion mode
; Ender 3 Custom Start G-code
G92 E0 ; Reset Extruder
G28 ; Home all axes
G1 Z2.0 F3000 ; Move Z Axis up little to prevent scratching of Heat Bed
G1 X0.1 Y20 Z0.3 F5000.0 ; Move to start position
G1 X0.1 Y200.0 Z0.3 F1500.0 E15 ; Draw the first line
G1 X0.4 Y200.0 Z0.3 F5000.0 ; Move to side a little
G1 X0.4 Y20 Z0.3 F1500.0 E30 ; Draw the second line
G92 E0 ; Reset Extruder
G1 Z2.0 F3000 ; Move Z Axis up little to prevent scratching of Heat Bed
G1 X5 Y20 Z0.3 F5000.0 ; Move over to prevent blob squish
G92 E0
G92 E0
G1 F1500 E-6.5
;LAYER_COUNT:100
;LAYER:-6
M107
G0 F9000 X23.148 Y22.892 Z0.24
;TYPE:SUPPORT-INTERFACE
G1 F1500 E0
G1 F1125 X23.59 Y22.457 E0.0495
G1 X23.732 Y22.329 E0.06476
G1 X24.131 Y21.999 E0.1061
G1 X24.401 Y21.792 E0.13325
G1 X24.95 Y21.413 E0.18651
G1 X25.126 Y21.303 E0.20307
G1 X25.676 Y20.994 E0.25343
G1 X25.83 Y20.916 E0.26721
G1 X26.226 Y20.735 E0.30197
G1 X26.485 Y20.624 E0.32446
G1 X26.578 Y20.588 E0.33242
G1 X27.198 Y20.364 E0.38504
G1 X27.409 Y20.298 E0.40269
G1 X28.015 Y20.142 E0.45264
G1 X28.167 Y20.11 E0.46504
G1 X28.683 Y20.023 E0.50681
G1 X29.066 Y19.978 E0.53759
G1 X30.026 Y19.915 E0.61439
G1 X30.187 Y19.91 E0.62725
G1 X85.009 Y19.911 E5.00338
G1 X85.174 Y19.917 E5.01656
G1 X86.167 Y19.981 E5.09599
G1 X86.536 Y20.029 E5.12569
G1 X87.169 Y20.143 E5.17703
G1 X87.392 Y20.194 E5.19529
G1 X87.968 Y20.355 E5.24303
G1 X88.141 Y20.411 E5.25755
G1 X88.684 Y20.614 E5.30382
G1 X88.943 Y20.726 E5.32635
G1 X89.514 Y20.994 E5.3767
G1 X89.712 Y21.099 E5.39459
G1 X90.232 Y21.406 E5.44279
G1 X90.376 Y21.499 E5.45647
G1 X90.882 Y21.861 E5.50614
G1 X91.072 Y22.01 E5.52541
G1 X91.588 Y22.446 E5.57934
G1 X91.725 Y22.573 E5.59425
G1 X92.173 Y23.031 E5.64539
G1 X92.29 Y23.162 E5.65941
G1 X92.639 Y23.586 E5.70325
G1 X92.803 Y23.801 E5.72483
G1 X93.177 Y24.341 E5.77727
G1 X93.299 Y24.533 E5.79542
G1 X93.598 Y25.062 E5.84393
G1 X93.686 Y25.236 E5.85949
G1 X93.891 Y25.687 E5.89904
G1 X93.997 Y25.936 E5.92064
G1 X94.032 Y26.029 E5.92857
G1 X94.255 Y26.657 E5.98177
G1 X94.319 Y26.867 E5.99929
G1 X94.467 Y27.456 E6.04777
G1 X94.508 Y27.648 E6.06344
G1 X94.583 Y28.097 E6.09978
G1 X94.619 Y28.389 E6.12327
G1 X94.692 Y29.457 E6.20872
G1 X94.696 Y29.581 E6.21862
G1 X94.695 Y84.431 E10.59699
G1 X94.69 Y84.574 E10.60841
G1 X94.622 Y85.597 E10.69025
G1 X94.593 Y85.855 E10.71097
G1 X94.575 Y85.969 E10.72019
G1 X94.458 Y86.602 E10.77157
G1 X94.403 Y86.84 E10.79107
G1 X94.244 Y87.398 E10.83738
G1 X94.18 Y87.596 E10.85399
G1 X94.001 Y88.073 E10.89466
G1 X93.911 Y88.29 E10.91342
G1 X93.618 Y88.917 E10.96866
G1 X93.529 Y89.087 E10.98398
G1 X93.203 Y89.641 E11.03529
G1 X93.116 Y89.777 E11.04818
G1 X92.748 Y90.292 E11.0987
G1 X92.596 Y90.486 E11.11838
G1 X92.16 Y91.002 E11.1723
G1 X92.023 Y91.149 E11.18834
G1 X91.583 Y91.579 E11.23745
G1 X91.449 Y91.7 E11.25186
G1 X91.005 Y92.065 E11.29774
G1 X90.804 Y92.217 E11.31786
G1 X90.266 Y92.591 E11.37016
G1 X90.078 Y92.71 E11.38792
G1 X89.528 Y93.02 E11.43832
G1 X89.394 Y93.088 E11.45031
G1 X88.86 Y93.332 E11.49718
G1 X88.609 Y93.434 E11.51881
G1 X87.971 Y93.662 E11.57289
G1 X87.762 Y93.726 E11.59034
G1 X87.191 Y93.873 E11.6374
G1 X86.987 Y93.917 E11.65406
G1 X86.47 Y94.003 E11.6959
G1 X86.148 Y94.041 E11.72178
G1 X85.167 Y94.105 E11.80025
G1 X85.005 Y94.11 E11.81319
G1 X42.156 Y94.11 E15.23358
G1 X41.384 Y94.076 E15.29527
G1 X41.188 Y94.057 E15.31099
G1 X40.593 Y93.972 E15.35896
G1 X40.374 Y93.93 E15.37676
G1 X39.797 Y93.792 E15.42412
G1 X39.59 Y93.731 E15.44135
G1 X38.936 Y93.585 E15.49484
G1 X38.256 Y93.52 E15.54937
G1 X37.574 Y93.543 E15.60384
G1 X36.905 Y93.65 E15.65792
G1 X36.517 Y93.753 E15.68996
G1 X36.125 Y93.862 E15.72244
G1 X35.533 Y93.984 E15.77069
G1 X35.341 Y94.014 E15.7862
G1 X34.716 Y94.083 E15.8364
G1 X34.534 Y94.096 E15.85096
G1 X34.021 Y94.11 E15.89193
G1 X30.176 Y94.109 E16.19885
G1 X30.016 Y94.104 E16.21163
G1 X29.04 Y94.039 E16.28971
G1 X28.66 Y93.991 E16.32028
G1 X28.029 Y93.878 E16.37145
G1 X27.805 Y93.828 E16.38978
G1 X27.218 Y93.663 E16.43845
G1 X27.061 Y93.612 E16.45163
G1 X26.58 Y93.434 E16.49257
G1 X26.256 Y93.298 E16.52061
G1 X25.674 Y93.024 E16.57196
G1 X25.458 Y92.909 E16.5915
G1 X24.947 Y92.606 E16.63892
G1 X24.803 Y92.513 E16.6526
G1 X24.342 Y92.185 E16.69777
G1 X24.125 Y92.015 E16.71977
G1 X23.634 Y91.602 E16.77099
G1 X23.461 Y91.442 E16.7898
G1 X23.051 Y91.024 E16.83653
G1 X22.908 Y90.866 E16.85354
G1 X22.546 Y90.428 E16.8989
G1 X22.361 Y90.181 E16.92354
G1 X21.999 Y89.655 E16.97451
G1 X21.879 Y89.464 E16.99251
G1 X21.582 Y88.933 E17.04108
G1 X21.498 Y88.767 E17.05593
G1 X21.292 Y88.317 E17.09544
G1 X21.171 Y88.02 E17.12104
G1 X20.947 Y87.398 E17.17381
G1 X20.884 Y87.197 E17.19062
G1 X20.727 Y86.586 E17.24098
G1 X20.694 Y86.428 E17.25386
G1 X20.609 Y85.92 E17.29498
G1 X20.564 Y85.54 E17.32552
G1 X20.501 Y84.574 E17.4028
G1 X20.496 Y84.431 E17.41422
G1 X20.497 Y29.597 E21.79131
G1 X20.503 Y29.432 E21.80449
G1 X20.567 Y28.442 E21.88368
G1 X20.62 Y28.038 E21.9162
G1 X20.73 Y27.43 E21.96552
G1 X20.78 Y27.214 E21.98322
G1 X20.941 Y26.638 E22.03096
G1 X20.999 Y26.458 E22.04606
G1 X21.198 Y25.926 E22.0914
G1 X21.308 Y25.671 E22.11357
G1 X21.58 Y25.092 E22.16463
G1 X21.685 Y24.894 E22.18252
G1 X21.985 Y24.386 E22.22962
G1 X22.109 Y24.194 E22.24786
G1 X22.394 Y23.791 E22.28726
G1 X22.566 Y23.568 E22.30974
G1 X23.008 Y23.044 E22.36446
G1 X23.148 Y22.892 E22.38096
G1 F1500 E15.88096
G0 F9000 X22.4 Y22.134
G0 X23.684 Y20.999
G0 X25.168 Y20.058
G0 X26.867 Y19.353
G0 X28.528 Y18.97
G0 X30.165 Y18.846
G0 X85.223 Y18.854
G0 X86.718 Y18.98
G0 X88.282 Y19.337
G0 X89.665 Y19.907
G0 X110.177 Y30.746
G0 X111.203 Y31.03
G1 F1500 E22.38096
G1 F1125 X111.263 Y30.844 E22.39656
G1 X111.434 Y30.385 E22.43566
G1 X111.485 Y30.257 E22.44666
G1 X111.728 Y29.672 E22.49722
G1 X111.768 Y29.581 E22.50516
G1 X112.046 Y28.991 E22.55722
G1 X112.156 Y28.783 E22.576
G1 X112.467 Y28.26 E22.62457
G1 X112.564 Y28.109 E22.6389
G1 X112.884 Y27.661 E22.68285
G1 X113.319 Y27.093 E22.73996
G1 X113.806 Y26.515 E22.80029
G1 X113.943 Y26.367 E22.81639
G1 X114.389 Y25.931 E22.86617
G1 X114.535 Y25.799 E22.88189
G1 X114.878 Y25.516 E22.91738
G1 X114.997 Y25.421 E22.92954
G1 X115.576 Y24.979 E22.98768
G1 X116.145 Y24.584 E23.04297
G1 X116.313 Y24.479 E23.05879
G1 X116.858 Y24.172 E23.10872
G1 X117.016 Y24.092 E23.12286
G1 X117.538 Y23.855 E23.16862
G1 X118.158 Y23.598 E23.22219
G1 X118.276 Y23.552 E23.2323
G1 X118.889 Y23.331 E23.28432
G1 X119.088 Y23.27 E23.30093
G1 X119.672 Y23.119 E23.34908
G1 X119.873 Y23.077 E23.36548
G1 X120.476 Y22.977 E23.41427
G1 X121.076 Y22.899 E23.46256
G1 X121.244 Y22.883 E23.47604
G1 X122.222 Y22.818 E23.55428
G1 X122.383 Y22.813 E23.56713
G1 X181.201 Y22.813 E28.26224
G1 X181.362 Y22.818 E28.2751
G1 X182.322 Y22.881 E28.35189
G1 X182.515 Y22.901 E28.36738
G1 X183.096 Y22.976 E28.41415
G1 X183.254 Y23.001 E28.42692
G1 X183.885 Y23.114 E28.47809
G1 X184.087 Y23.16 E28.49462
G1 X184.675 Y23.324 E28.54335
G1 X184.861 Y23.384 E28.55895
G1 X185.318 Y23.554 E28.59787
G1 X186.021 Y23.844 E28.65858
G1 X186.132 Y23.893 E28.66826
G1 X186.714 Y24.167 E28.71961
G1 X186.93 Y24.282 E28.73915
G1 X187.446 Y24.588 E28.78703
G1 X187.601 Y24.689 E28.8018
G1 X188.063 Y25.019 E28.84712
G1 X188.667 Y25.485 E28.90802
G1 X189.191 Y25.927 E28.96274
G1 X189.329 Y26.055 E28.97776
G1 X189.777 Y26.512 E29.02885
G1 X189.896 Y26.645 E29.04309
G1 X190.262 Y27.087 E29.0889
G1 X190.679 Y27.632 E29.14368
G1 X190.735 Y27.709 E29.15128
G1 X191.11 Y28.248 E29.20369
G1 X191.235 Y28.448 E29.22252
G1 X191.519 Y28.953 E29.26877
G1 X191.625 Y29.162 E29.28748
G1 X191.799 Y29.543 E29.32091
G1 X191.872 Y29.708 E29.33531
G1 X192.098 Y30.253 E29.38241
G1 X192.146 Y30.377 E29.39302
G1 X192.37 Y30.997 E29.44564
G1 X192.436 Y31.208 E29.46329
G1 X192.593 Y31.819 E29.51365
G1 X192.623 Y31.962 E29.52531
G1 X192.711 Y32.483 E29.56749
G1 X192.803 Y33.179 E29.62353
G1 X192.824 Y33.383 E29.6399
G1 X192.887 Y34.343 E29.7167
G1 X192.892 Y34.492 E29.7286
G1 X192.892 Y93.315 E34.4241
G1 X192.887 Y93.483 E34.43752
G1 X192.824 Y94.447 E34.51464
G1 X192.806 Y94.629 E34.52923
G1 X192.728 Y95.22 E34.57682
G1 X192.705 Y95.366 E34.58862
G1 X192.592 Y95.995 E34.63963
G1 X192.539 Y96.23 E34.65886
G1 X192.384 Y96.787 E34.70501
G1 X192.322 Y96.977 E34.72097
G1 X192.112 Y97.537 E34.76871
G1 X191.815 Y98.245 E34.82999
G1 X191.542 Y98.827 E34.88131
G1 X191.432 Y99.034 E34.90002
G1 X191.126 Y99.552 E34.94805
G1 X191.018 Y99.718 E34.96385
G1 X190.68 Y100.19 E35.0102
G1 X190.276 Y100.717 E35.0632
G1 X190.225 Y100.78 E35.06967
G1 X189.77 Y101.319 E35.12598
G1 X189.633 Y101.466 E35.14202
G1 X189.193 Y101.896 E35.19113
G1 X189.059 Y102.017 E35.20554
G1 X188.615 Y102.382 E35.25142
G1 X188.001 Y102.852 E35.31314
G1 X187.462 Y103.226 E35.36551
G1 X187.274 Y103.345 E35.38327
G1 X186.731 Y103.651 E35.43303
G1 X186.575 Y103.731 E35.44702
G1 X186.144 Y103.928 E35.48485
G1 X186 Y103.99 E35.49736
G1 X185.41 Y104.234 E35.54833
G1 X185.313 Y104.273 E35.55667
G1 X184.7 Y104.493 E35.60866
G1 X184.489 Y104.557 E35.62626
G1 X183.89 Y104.71 E35.67561
G1 X183.699 Y104.751 E35.69121
G1 X183.259 Y104.825 E35.72682
G1 X183.129 Y104.845 E35.73732
G1 X182.499 Y104.929 E35.78806
G1 X182.371 Y104.942 E35.79833
G1 X181.358 Y105.008 E35.87936
G1 X181.202 Y105.013 E35.89182
G1 X139.352 Y105.013 E39.23247
G1 X138.58 Y104.979 E39.29415
G1 X138.384 Y104.96 E39.30987
G1 X137.789 Y104.875 E39.35785
G1 X137.57 Y104.833 E39.37565
G1 X136.993 Y104.695 E39.423
G1 X136.782 Y104.633 E39.44056
G1 X135.695 Y104.261 E39.53227
G1 X135.607 Y104.246 E39.5394
G1 X134.936 Y104.123 E39.59385
G1 X134.254 Y104.084 E39.64838
G1 X133.574 Y104.133 E39.7028
G1 X132.904 Y104.266 E39.75733
G1 X132.785 Y104.291 E39.76703
G1 X132.108 Y104.535 E39.82448
G1 X131.539 Y104.709 E39.87197
G1 X131.309 Y104.767 E39.89091
G1 X130.729 Y104.887 E39.93819
G1 X130.537 Y104.917 E39.9537
G1 X129.913 Y104.986 E40.00381
G1 X129.731 Y104.999 E40.01838
G1 X129.219 Y105.013 E40.05926
G1 X122.382 Y105.013 E40.60502
G1 X122.225 Y105.008 E40.61756
G1 X121.238 Y104.942 E40.69652
G1 X121.073 Y104.926 E40.70976
G1 X120.443 Y104.843 E40.76048
G1 X120.329 Y104.825 E40.76969
G1 X119.693 Y104.71 E40.82128
G1 X119.478 Y104.66 E40.8389
G1 X118.896 Y104.497 E40.88715
G1 X118.723 Y104.441 E40.90166
G1 X118.275 Y104.274 E40.93983
G1 X118.173 Y104.234 E40.94857
G1 X117.571 Y103.985 E41.00058
G1 X117.461 Y103.937 E41.01016
G1 X116.872 Y103.66 E41.06211
G1 X116.69 Y103.564 E41.07854
G1 X116.169 Y103.257 E41.12681
G1 X115.98 Y103.134 E41.14481
G1 X115.529 Y102.812 E41.18905
G1 X114.989 Y102.398 E41.24336
G1 X114.902 Y102.327 E41.25233
G1 X114.386 Y101.891 E41.30625
G1 X114.235 Y101.751 E41.32269
G1 X113.809 Y101.314 E41.3714
G1 X113.683 Y101.174 E41.38644
G1 X113.323 Y100.736 E41.43169
G1 X112.909 Y100.196 E41.48601
G1 X112.853 Y100.122 E41.49342
G1 X112.479 Y99.583 E41.54579
G1 X112.352 Y99.383 E41.5647
G1 X112.065 Y98.874 E41.61134
G1 X111.972 Y98.691 E41.62773
G1 X111.731 Y98.161 E41.6742
G1 X111.476 Y97.547 E41.72727
G1 X111.419 Y97.398 E41.74001
G1 X111.209 Y96.814 E41.78955
G1 X111.149 Y96.617 E41.80599
G1 X110.996 Y96.024 E41.85487
G1 X110.956 Y95.832 E41.87053
G1 X110.855 Y95.22 E41.92004
G1 X110.778 Y94.629 E41.96762
G1 X110.76 Y94.447 E41.98222
G1 X110.697 Y93.483 E42.05933
G1 X110.692 Y93.327 E42.07179
G1 X110.692 Y34.504 E46.7673
G1 X110.697 Y34.343 E46.78015
G1 X110.76 Y33.383 E46.85695
G1 X110.78 Y33.19 E46.87244
G1 X110.853 Y32.628 E46.91768
G1 X110.881 Y32.448 E46.93222
G1 X110.994 Y31.813 E46.9837
G1 X111.04 Y31.612 E47.00016
G1 X111.203 Y31.03 E47.04841
G1 F1500 E40.54841
G0 F9000 X110.006 Y31.361
G0 X109.7 Y33.286
G0 X109.628 Y34.482
G0 X109.634 Y93.526
G0 X109.829 Y95.547
G0 X110.131 Y96.852
G0 X118.235 Y119.985
G0 X118.978 Y120.745
G1 F1500 E47.04841
G1 F1125 X119.415 Y120.319 E47.09712
G1 X119.549 Y120.198 E47.11153
G1 X119.992 Y119.833 E47.15735
G1 X120.193 Y119.681 E47.17747
G1 X120.732 Y119.307 E47.22984
G1 X120.932 Y119.18 E47.24875
G1 X121.452 Y118.887 E47.29639
G1 X121.609 Y118.807 E47.31046
G1 X122.144 Y118.563 E47.3574
G1 X122.384 Y118.466 E47.37806
G1 X123.004 Y118.242 E47.43068
G1 X123.215 Y118.176 E47.44833
G1 X123.821 Y118.02 E47.49828
G1 X123.973 Y117.988 E47.51068
G1 X124.489 Y117.901 E47.55245
G1 X124.872 Y117.856 E47.58323
G1 X125.832 Y117.793 E47.66003
G1 X125.993 Y117.788 E47.67289
G1 X148.842 Y117.788 E49.49679
G1 X149.614 Y117.822 E49.55848
G1 X149.81 Y117.841 E49.5742
G1 X150.405 Y117.926 E49.62218
G1 X150.624 Y117.968 E49.63998
G1 X151.201 Y118.106 E49.68733
G1 X151.412 Y118.168 E49.70489
G1 X152.499 Y118.54 E49.7966
G1 X152.587 Y118.555 E49.80372
G1 X153.258 Y118.678 E49.85818
G1 X153.94 Y118.717 E49.91271
G1 X154.62 Y118.668 E49.96713
G1 X155.29 Y118.535 E50.02165
G1 X155.409 Y118.51 E50.03136
G1 X156.086 Y118.266 E50.0888
G1 X156.655 Y118.092 E50.1363
G1 X156.885 Y118.034 E50.15524
G1 X157.465 Y117.914 E50.20251
G1 X157.657 Y117.884 E50.21803
G1 X158.281 Y117.815 E50.26814
G1 X158.463 Y117.802 E50.28271
G1 X158.975 Y117.788 E50.32359
G1 X181.819 Y117.789 E52.1471
G1 X181.98 Y117.794 E52.15996
G1 X182.958 Y117.859 E52.2382
G1 X183.338 Y117.907 E52.26877
G1 X183.969 Y118.02 E52.31994
G1 X184.193 Y118.07 E52.33826
G1 X184.778 Y118.234 E52.38676
G1 X184.935 Y118.285 E52.39994
G1 X185.418 Y118.464 E52.44105
G1 X185.742 Y118.6 E52.4691
G1 X186.324 Y118.874 E52.52045
G1 X186.54 Y118.989 E52.53998
G1 X187.045 Y119.288 E52.58683
G1 X187.217 Y119.4 E52.60322
G1 X187.66 Y119.718 E52.64675
G1 X187.878 Y119.888 E52.66881
G1 X188.394 Y120.324 E52.72274
G1 X188.545 Y120.464 E52.73917
G1 X188.971 Y120.901 E52.78789
G1 X189.097 Y121.041 E52.80292
G1 X189.457 Y121.479 E52.84818
G1 X189.609 Y121.68 E52.8683
G1 X189.983 Y122.218 E52.9206
G1 X190.11 Y122.418 E52.93951
G1 X190.403 Y122.938 E52.98716
G1 X190.483 Y123.095 E53.00122
G1 X190.739 Y123.656 E53.05045
G1 X190.824 Y123.87 E53.06883
G1 X191.048 Y124.49 E53.12145
G1 X191.114 Y124.701 E53.1391
G1 X191.271 Y125.312 E53.18945
G1 X191.301 Y125.455 E53.20112
G1 X191.387 Y125.967 E53.24256
G1 X191.434 Y126.358 E53.274
G1 X191.497 Y127.318 E53.35079
G1 X191.502 Y127.467 E53.36269
G1 X191.501 Y183.305 E57.81992
G1 X191.496 Y183.466 E57.83278
G1 X191.432 Y184.437 E57.91046
G1 X191.386 Y184.816 E57.94093
G1 X191.27 Y185.455 E57.99278
G1 X191.222 Y185.67 E58.01036
G1 X191.055 Y186.266 E58.05977
G1 X191.005 Y186.421 E58.07277
G1 X190.822 Y186.914 E58.11475
G1 X190.694 Y187.22 E58.14122
G1 X190.417 Y187.809 E58.19318
G1 X190.31 Y188.01 E58.21136
G1 X190.003 Y188.529 E58.25949
G1 X189.89 Y188.703 E58.27605
G1 X189.587 Y189.127 E58.31765
G1 X189.402 Y189.364 E58.34165
G1 X188.966 Y189.88 E58.39557
G1 X188.829 Y190.027 E58.41161
G1 X188.389 Y190.457 E58.46072
G1 X188.258 Y190.575 E58.4748
G1 X187.812 Y190.943 E58.52095
G1 X187.611 Y191.095 E58.54107
G1 X187.072 Y191.469 E58.59344
G1 X186.872 Y191.596 E58.61235
G1 X186.352 Y191.889 E58.65999
G1 X186.195 Y191.969 E58.67406
G1 X185.66 Y192.213 E58.721
G1 X185.42 Y192.31 E58.74166
G1 X184.8 Y192.534 E58.79428
G1 X184.591 Y192.599 E58.81176
G1 X183.983 Y192.756 E58.86188
G1 X183.831 Y192.788 E58.87428
G1 X183.315 Y192.875 E58.91605
G1 X182.932 Y192.92 E58.94683
G1 X181.972 Y192.983 E59.02363
G1 X181.811 Y192.988 E59.03649
G1 X137.962 Y192.988 E62.5367
G1 X137.19 Y192.954 E62.59839
G1 X136.994 Y192.935 E62.61411
G1 X136.399 Y192.85 E62.66208
G1 X136.18 Y192.808 E62.67988
G1 X135.603 Y192.67 E62.72724
G1 X135.396 Y192.609 E62.74447
G1 X134.742 Y192.463 E62.79796
G1 X134.062 Y192.398 E62.85249
G1 X133.38 Y192.421 E62.90696
G1 X132.711 Y192.528 E62.96104
G1 X132.323 Y192.631 E62.99308
G1 X131.931 Y192.74 E63.02556
G1 X131.339 Y192.862 E63.07381
G1 X131.147 Y192.892 E63.08932
G1 X130.522 Y192.961 E63.13952
G1 X130.34 Y192.974 E63.15408
G1 X129.827 Y192.988 E63.19505
G1 X125.982 Y192.987 E63.50197
G1 X125.822 Y192.982 E63.51475
G1 X124.846 Y192.917 E63.59283
