;FLAVOR:Marlin
;TIME:28351
;Filament used: 22.2371m
;Layer height: 0.2
;MINX:66.275
;MINY:66.515
;MINZ:0.24
;MAXX:150.528
;MAXY:150.845
;MAXZ:98.59
;Generated with Cura_SteamEngine 4.9.1
M140 S60
M105
M190 S60
M104 S200
M105
M109 S200
M82 ;absolute extrusion mode
; Ender 3 Custom Start G-code
G92 E0 ; Reset Extruder
G28 ; Home all axes
G1 Z2.0 F3000 ; Move Z Axis up little to prevent scratching of Heat Bed
G1 X0.1 Y20 Z0.3 F5000.0 ; Move to start position
G1 X0.1 Y200.0 Z0.3 F1500.0 E15 ; Draw the first line
G1 X0.4 Y200.0 Z0.3 F5000.0 ; Move to side a little
G1 X0.4 Y20 Z0.3 F1500.0 E30 ; Draw the second line
G92 E0 ; Reset Extruder
G1 Z2.0 F3000 ; Move Z Axis up little to prevent scratching of Heat Bed
G1 X5 Y20 Z0.3 F5000.0 ; Move over to prevent blob squish
G92 E0
G92 E0
G1 F1500 E-6.5
;LAYER_COUNT:487
;LAYER:-6
M107
G0 F9000 X70.538 Y71.112 Z0.24
;TYPE:SUPPORT-INTERFACE
G1 F1500 E0
G1 F1125 X70.979 Y70.683 E0.04911
G1 X71.114 Y70.562 E0.06358
G1 X71.483 Y70.258 E0.10175
G1 X71.576 Y70.184 E0.11123
G1 X72.152 Y69.744 E0.16909
G1 X72.721 Y69.349 E0.22438
G1 X72.905 Y69.234 E0.2417
G1 X73.411 Y68.949 E0.28806
G1 X73.603 Y68.851 E0.30527
G1 X74.113 Y68.62 E0.34996
G1 X74.738 Y68.362 E0.40393
G1 X74.848 Y68.318 E0.41339
G1 X75.459 Y68.099 E0.4652
G1 X75.671 Y68.033 E0.48293
G1 X76.259 Y67.882 E0.53139
G1 X76.439 Y67.845 E0.54605
G1 X76.941 Y67.761 E0.58668
G1 X77.649 Y67.666 E0.64371
G1 X77.816 Y67.65 E0.6571
G1 X78.794 Y67.585 E0.73534
G1 X78.955 Y67.58 E0.7482
G1 X120.804 Y67.58 E4.08876
G1 X121.576 Y67.614 E4.15045
G1 X121.772 Y67.633 E4.16617
G1 X122.367 Y67.718 E4.21414
G1 X122.586 Y67.76 E4.23194
G1 X123.163 Y67.898 E4.2793
G1 X123.374 Y67.96 E4.29686
G1 X124.461 Y68.332 E4.38857
G1 X124.549 Y68.347 E4.39569
G1 X125.22 Y68.47 E4.45015
G1 X125.902 Y68.509 E4.50468
G1 X126.582 Y68.46 E4.5591
G1 X127.252 Y68.327 E4.61362
G1 X127.371 Y68.302 E4.62333
G1 X128.048 Y68.058 E4.68077
G1 X128.617 Y67.884 E4.72827
G1 X128.847 Y67.826 E4.7472
G1 X129.427 Y67.706 E4.79448
G1 X129.619 Y67.676 E4.81
G1 X130.243 Y67.607 E4.86011
G1 X130.425 Y67.594 E4.87467
G1 X130.937 Y67.58 E4.91556
G1 X137.779 Y67.58 E5.46172
G1 X137.934 Y67.585 E5.4741
G1 X138.938 Y67.652 E5.55442
G1 X139.071 Y67.665 E5.56509
G1 X139.7 Y67.748 E5.61573
G1 X139.827 Y67.768 E5.62599
G1 X140.457 Y67.882 E5.6771
G1 X140.68 Y67.933 E5.69536
G1 X141.248 Y68.092 E5.74244
G1 X141.445 Y68.156 E5.75898
G1 X142.004 Y68.367 E5.80667
G1 X142.615 Y68.621 E5.85949
G1 X142.696 Y68.657 E5.86657
G1 X143.316 Y68.95 E5.92131
G1 X143.499 Y69.048 E5.93788
G1 X144.01 Y69.351 E5.9853
G1 X144.194 Y69.471 E6.00283
G1 X144.643 Y69.793 E6.04694
G1 X145.193 Y70.216 E6.10233
G1 X145.272 Y70.281 E6.11049
G1 X145.774 Y70.707 E6.16305
G1 X145.932 Y70.854 E6.18027
G1 X146.361 Y71.295 E6.22939
G1 X146.488 Y71.436 E6.24453
G1 X146.865 Y71.898 E6.29213
G1 X147.251 Y72.401 E6.34274
G1 X147.3 Y72.468 E6.34937
G1 X147.695 Y73.037 E6.40466
G1 X147.81 Y73.221 E6.42198
G1 X148.095 Y73.727 E6.46834
G1 X148.193 Y73.919 E6.48555
G1 X148.424 Y74.429 E6.53024
G1 X148.682 Y75.054 E6.58421
G1 X148.726 Y75.164 E6.59367
G1 X148.945 Y75.775 E6.64548
G1 X149.011 Y75.987 E6.6632
G1 X149.16 Y76.567 E6.71101
G1 X149.198 Y76.746 E6.72561
G1 X149.283 Y77.257 E6.76696
G1 X149.378 Y77.965 E6.82399
G1 X149.394 Y78.127 E6.83698
G1 X149.459 Y79.11 E6.91562
G1 X149.464 Y79.259 E6.92752
G1 X149.464 Y138.095 E11.62406
G1 X149.459 Y138.25 E11.63644
G1 X149.394 Y139.238 E11.71548
G1 X149.378 Y139.393 E11.72792
G1 X149.282 Y140.111 E11.78574
G1 X149.164 Y140.762 E11.83855
G1 X149.107 Y141.011 E11.85894
G1 X148.956 Y141.552 E11.90378
G1 X148.892 Y141.751 E11.92047
G1 X148.681 Y142.312 E11.96831
G1 X148.445 Y142.877 E12.01719
G1 X148.377 Y143.031 E12.03063
G1 X148.09 Y143.638 E12.08422
G1 X148.002 Y143.805 E12.09929
G1 X147.686 Y144.337 E12.14868
G1 X147.576 Y144.506 E12.16478
G1 X147.227 Y144.992 E12.21254
G1 X146.846 Y145.487 E12.2624
G1 X146.757 Y145.596 E12.27364
G1 X146.348 Y146.079 E12.32416
G1 X146.192 Y146.245 E12.34234
G1 X145.75 Y146.677 E12.39168
G1 X145.623 Y146.791 E12.4053
G1 X145.175 Y147.16 E12.45163
G1 X144.618 Y147.586 E12.5076
G1 X143.992 Y148.021 E12.56845
G1 X143.839 Y148.117 E12.58287
G1 X143.282 Y148.429 E12.63383
G1 X143.129 Y148.506 E12.64751
G1 X142.712 Y148.698 E12.68415
G1 X142.588 Y148.752 E12.69495
G1 X141.99 Y148.998 E12.74657
G1 X141.88 Y149.042 E12.75602
G1 X141.269 Y149.261 E12.80783
G1 X141.057 Y149.327 E12.82556
G1 X140.472 Y149.477 E12.87377
G1 X140.289 Y149.515 E12.88868
G1 X139.787 Y149.599 E12.92931
G1 X139.079 Y149.694 E12.98634
G1 X138.912 Y149.71 E12.99973
G1 X137.934 Y149.775 E13.07797
G1 X137.773 Y149.78 E13.09083
G1 X78.949 Y149.78 E17.78641
G1 X78.794 Y149.775 E17.79879
G1 X77.79 Y149.708 E17.87911
G1 X77.657 Y149.695 E17.88978
G1 X77.028 Y149.612 E17.94042
G1 X76.901 Y149.592 E17.95069
G1 X76.271 Y149.478 E18.00179
G1 X76.048 Y149.427 E18.02005
G1 X75.48 Y149.268 E18.06714
G1 X75.283 Y149.204 E18.08367
G1 X74.724 Y148.993 E18.13137
G1 X74.114 Y148.739 E18.18411
G1 X74.024 Y148.699 E18.19197
G1 X73.412 Y148.41 E18.246
G1 X73.229 Y148.312 E18.26257
G1 X72.716 Y148.008 E18.31017
G1 X72.534 Y147.889 E18.32753
G1 X72.053 Y147.543 E18.37482
G1 X71.542 Y147.15 E18.42628
G1 X71.452 Y147.076 E18.43558
G1 X70.959 Y146.658 E18.48718
G1 X70.806 Y146.516 E18.50384
G1 X70.379 Y146.079 E18.55261
G1 X70.229 Y145.911 E18.57059
G1 X69.881 Y145.487 E18.61438
G1 X69.476 Y144.956 E18.66768
G1 X69.387 Y144.834 E18.67974
G1 X69.032 Y144.321 E18.72954
G1 X68.927 Y144.153 E18.74535
G1 X68.618 Y143.604 E18.79564
G1 X68.537 Y143.444 E18.80996
G1 X68.339 Y143.011 E18.84796
G1 X68.293 Y142.907 E18.85704
G1 X68.053 Y142.326 E18.90722
G1 X67.996 Y142.177 E18.91995
G1 X67.781 Y141.582 E18.97045
G1 X67.721 Y141.386 E18.98682
G1 X67.565 Y140.78 E19.03677
G1 X67.528 Y140.603 E19.0512
G1 X67.448 Y140.126 E19.08981
G1 X67.429 Y139.995 E19.10038
G1 X67.352 Y139.403 E19.14803
G1 X67.332 Y139.21 E19.16352
G1 X67.269 Y138.25 E19.24031
G1 X67.264 Y138.101 E19.25221
G1 X67.264 Y79.265 E23.94876
G1 X67.269 Y79.11 E23.96114
G1 X67.335 Y78.112 E24.04098
G1 X67.349 Y77.973 E24.05213
G1 X67.432 Y77.344 E24.10277
G1 X67.454 Y77.205 E24.11401
G1 X67.567 Y76.58 E24.16471
G1 X67.617 Y76.364 E24.1824
G1 X67.777 Y75.791 E24.22989
G1 X67.84 Y75.599 E24.24602
G1 X67.998 Y75.175 E24.28214
G1 X68.051 Y75.04 E24.29372
G1 X68.305 Y74.429 E24.34654
G1 X68.341 Y74.348 E24.35361
G1 X68.634 Y73.728 E24.40835
G1 X68.727 Y73.553 E24.42417
G1 X69.035 Y73.034 E24.47235
G1 X69.155 Y72.85 E24.48988
G1 X69.472 Y72.407 E24.53337
G1 X69.892 Y71.861 E24.58835
G1 X69.971 Y71.765 E24.59828
G1 X70.391 Y71.27 E24.6501
G1 X70.538 Y71.112 E24.66732
G1 F1500 E18.16732
G0 F9000 X69.757 Y70.389
G0 X88.882 Y89.035
G0 X88.147 Y88.262
G1 F1500 E24.66732
G1 F1125 X87.683 Y88.762 E24.72177
G1 X87.284 Y89.318 E24.7764
G1 X86.96 Y89.918 E24.83083
G1 X86.714 Y90.554 E24.88527
G1 X86.548 Y91.223 E24.94029
G1 X86.464 Y92.162 E25.01554
G1 X86.464 Y125.193 E27.65222
G1 X86.506 Y125.861 E27.70565
G1 X86.635 Y126.532 E27.76019
G1 X86.848 Y127.181 E27.81472
G1 X87.14 Y127.798 E27.8692
G1 X87.508 Y128.373 E27.9237
G1 X87.946 Y128.897 E27.97822
G1 X88.446 Y129.361 E28.03267
G1 X89.002 Y129.76 E28.08729
G1 X89.602 Y130.084 E28.14172
G1 X90.238 Y130.33 E28.19616
G1 X90.907 Y130.496 E28.25118
G1 X91.846 Y130.58 E28.32643
G1 X124.877 Y130.58 E30.96311
G1 X125.545 Y130.538 E31.01654
G1 X126.216 Y130.409 E31.07108
G1 X126.865 Y130.196 E31.12561
G1 X127.482 Y129.904 E31.1801
G1 X128.057 Y129.536 E31.23459
G1 X128.581 Y129.098 E31.28911
G1 X129.045 Y128.598 E31.34356
G1 X129.444 Y128.042 E31.39818
G1 X129.768 Y127.442 E31.45262
G1 X130.014 Y126.806 E31.50705
G1 X130.18 Y126.137 E31.56207
G1 X130.264 Y125.198 E31.63733
G1 X130.264 Y91.574 E34.32134
G1 X130.222 Y90.906 E34.37477
G1 X130.093 Y90.235 E34.42931
G1 X129.88 Y89.586 E34.48383
G1 X129.588 Y88.969 E34.53832
G1 X129.22 Y88.394 E34.59282
G1 X128.782 Y87.87 E34.64733
G1 X128.282 Y87.406 E34.70178
G1 X127.726 Y87.007 E34.75641
G1 X127.126 Y86.683 E34.81084
G1 X126.49 Y86.437 E34.86528
G1 X125.826 Y86.273 E34.91987
G1 X125.148 Y86.194 E34.97436
G1 X124.465 Y86.201 E35.02888
G1 X123.792 Y86.294 E35.08312
G1 X123.286 Y86.423 E35.1248
G1 X122.887 Y86.533 E35.15784
G1 X122.301 Y86.654 E35.2056
G1 X122.109 Y86.684 E35.22111
G1 X121.485 Y86.753 E35.27123
G1 X121.303 Y86.766 E35.28579
G1 X120.791 Y86.78 E35.32668
G1 X91.851 Y86.78 E37.63679
G1 X91.183 Y86.822 E37.69022
G1 X90.512 Y86.951 E37.74476
G1 X89.863 Y87.164 E37.79929
G1 X89.246 Y87.456 E37.85378
G1 X88.671 Y87.824 E37.90827
G1 X88.147 Y88.262 E37.96279
G0 F9000 X88 Y88.421
G1 F1125 X88 Y67.58 E39.62641
G0 F9000 X86.4 Y67.58
G1 F1125 X86.4 Y149.78 E46.18797
G0 F9000 X84.8 Y149.78
G1 F1125 X84.8 Y67.58 E52.74953
G0 F9000 X83.2 Y67.58
G1 F1125 X83.2 Y149.78 E59.31108
G0 F9000 X81.6 Y149.78
G1 F1125 X81.6 Y67.58 E65.87264
G0 F9000 X80 Y67.58
G1 F1125 X80 Y149.78 E72.4342
G0 F9000 X78.4 Y149.748
G1 F1125 X78.4 Y67.611 E78.99073
G0 F9000 X76.8 Y67.784
G1 F1125 X76.8 Y149.573 E85.51949
G0 F9000 X75.2 Y149.172
G1 F1125 X75.2 Y68.191 E91.98374
G0 F9000 X73.6 Y68.852
G1 F1125 X73.6 Y148.498 E98.34143
G0 F9000 X72 Y147.502
G1 F1125 X72 Y69.86 E104.53915
G0 F9000 X70.4 Y71.26
G1 F1125 X70.4 Y146.1 E110.5132
G0 F9000 X68.8 Y143.927
G1 F1125 X68.8 Y73.429 E116.14066
G1 F1500 E109.64066
G0 F9000 X68.136 Y72.464
G0 X69.59 Y70.57
G0 X70.816 Y69.428
G0 X72.354 Y68.323
G0 X73.701 Y67.638
G0 X75.371 Y67.012
G0 X76.864 Y66.696
G0 X78.539 Y66.551
G0 X89.6 Y66.515
G0 X89.6 Y67.58
G1 F1500 E116.14066
G1 F1125 X89.6 Y87.289 E117.71391
G0 F9000 X91.2 Y86.821
G1 F1125 X91.2 Y67.58 E119.24981
G0 F9000 X92.8 Y67.58
G1 F1125 X92.8 Y86.78 E120.78244
G0 F9000 X94.4 Y86.78
G1 F1125 X94.4 Y67.58 E122.31507
G0 F9000 X96 Y67.58
G1 F1125 X96 Y86.78 E123.84769
G0 F9000 X97.6 Y86.78
G1 F1125 X97.6 Y67.58 E125.38032
G0 F9000 X99.2 Y67.58
G1 F1125 X99.2 Y86.78 E126.91295
G0 F9000 X100.8 Y86.78
G1 F1125 X100.8 Y67.58 E128.44557
G0 F9000 X102.4 Y67.58
G1 F1125 X102.4 Y86.78 E129.9782
G0 F9000 X104 Y86.78
G1 F1125 X104 Y67.58 E131.51083
G0 F9000 X105.6 Y67.58
G1 F1125 X105.6 Y86.78 E133.04346
G0 F9000 X107.2 Y86.78
G1 F1125 X107.2 Y67.58 E134.57608
G0 F9000 X108.8 Y67.58
G1 F1125 X108.8 Y86.78 E136.10871
G0 F9000 X110.4 Y86.78
G1 F1125 X110.4 Y67.58 E137.64134
G0 F9000 X112 Y67.58
G1 F1125 X112 Y86.78 E139.17396
G0 F9000 X113.6 Y86.78
G1 F1125 X113.6 Y67.58 E140.70659
G0 F9000 X115.2 Y67.58
G1 F1125 X115.2 Y86.78 E142.23922
G0 F9000 X116.8 Y86.78
G1 F1125 X116.8 Y67.58 E143.77184
G0 F9000 X118.4 Y67.58
G1 F1125 X118.4 Y86.78 E145.30447
G0 F9000 X120 Y86.78
G1 F1125 X120 Y67.58 E146.8371
G0 F9000 X121.6 Y67.617
G1 F1125 X121.6 Y86.741 E148.36366
G0 F9000 X123.2 Y86.447
G1 F1125 X123.2 Y67.909 E149.84344
G0 F9000 X124.8 Y68.394
G1 F1125 X124.8 Y86.198 E151.26463
G0 F9000 X126.4 Y86.414
G1 F1125 X126.4 Y68.473 E152.69676
G0 F9000 X128 Y68.075
G1 F1125 X128 Y87.203 E154.22364
G0 F9000 X129.6 Y88.994
G1 F1125 X129.6 Y67.678 E155.92518
G0 F9000 X131.2 Y67.58
G1 F1125 X131.2 Y149.78 E162.48674
G0 F9000 X129.6 Y149.78
G1 F1125 X129.6 Y127.753 E164.24503
G0 F9000 X128 Y129.572
G1 F1125 X128 Y149.78 E165.85812
G0 F9000 X126.4 Y149.78
G1 F1125 X126.4 Y130.348 E167.40926
G0 F9000 X124.8 Y130.58
G1 F1125 X124.8 Y149.78 E168.94189
G0 F9000 X123.2 Y149.78
G1 F1125 X123.2 Y130.58 E170.47452
G0 F9000 X121.6 Y130.58
G1 F1125 X121.6 Y149.78 E172.00715
G0 F9000 X120 Y149.78
G1 F1125 X120 Y130.58 E173.53977
G0 F9000 X118.4 Y130.58
G1 F1125 X118.4 Y149.78 E175.0724
G0 F9000 X116.8 Y149.78
G1 F1125 X116.8 Y130.58 E176.60503
G0 F9000 X115.2 Y130.58
G1 F1125 X115.2 Y149.78 E178.13765
G0 F9000 X113.6 Y149.78
G1 F1125 X113.6 Y130.58 E179.67028
G0 F9000 X112 Y130.58
G1 F1125 X112 Y149.78 E181.20291
G0 F9000 X110.4 Y149.78
G1 F1125 X110.4 Y130.58 E182.73553
G0 F9000 X108.8 Y130.58
G1 F1125 X108.8 Y149.78 E184.26816
G0 F9000 X107.2 Y149.78
G1 F1125 X107.2 Y130.58 E185.80079
G0 F9000 X105.6 Y130.58
G1 F1125 X105.6 Y149.78 E187.33342
G0 F9000 X104 Y149.78
G1 F1125 X104 Y130.58 E188.86604
G0 F9000 X102.4 Y130.58
G1 F1125 X102.4 Y149.78 E190.39867
G0 F9000 X100.8 Y149.78
G1 F1125 X100.8 Y130.58 E191.9313
G0 F9000 X99.2 Y130.58
G1 F1125 X99.2 Y149.78 E193.46392
G0 F9000 X97.6 Y149.78
G1 F1125 X97.6 Y130.58 E194.99655
G0 F9000 X96 Y130.58
G1 F1125 X96 Y149.78 E196.52918
G0 F9000 X94.4 Y149.78
G1 F1125 X94.4 Y130.58 E198.0618
G0 F9000 X92.8 Y130.58
G1 F1125 X92.8 Y149.78 E199.59443
G0 F9000 X91.2 Y149.78
G1 F1125 X91.2 Y130.523 E201.13161
G0 F9000 X89.6 Y130.083
G1 F1125 X89.6 Y149.78 E202.70391
G0 F9000 X88 Y149.78
G1 F1125 X88 Y128.948 E204.36681
G1 F1500 E197.86681
G0 F9000 X89.121 Y128.536
G0 X132.8 Y150.845
G0 X132.8 Y149.78
G1 F1500 E204.36681
G1 F1125 X132.8 Y67.58 E210.92837
G0 F9000 X134.4 Y67.58
G1 F1125 X134.4 Y149.78 E217.48993
G0 F9000 X136 Y149.78
G1 F1125 X136 Y67.58 E224.05149
G0 F9000 X137.6 Y67.58
G1 F1125 X137.6 Y149.78 E230.61305
G0 F9000 X139.2 Y149.678
G1 F1125 X139.2 Y67.683 E237.15824
G0 F9000 X140.8 Y67.967
G1 F1125 X140.8 Y149.393 E243.65802
G0 F9000 X142.4 Y148.83
G1 F1125 X142.4 Y68.532 E250.06775
G0 F9000 X144 Y69.346
G1 F1125 X144 Y148.016 E256.34753
G0 F9000 X145.6 Y146.81
G1 F1125 X145.6 Y70.56 E262.43414
G0 F9000 X147.2 Y72.335
G1 F1125 X147.2 Y145.028 E268.2368
G0 F9000 X148.8 Y141.996
G1 F1125 X148.8 Y75.371 E273.5551
G0 F300 X148.8 Y75.371 Z0.54
G0 F9000 X146.906 Y71.953
;TIME_ELAPSED:200.122293
;LAYER:-5
;TYPE:SUPPORT
G1 F1125 X145.094 Y70.141 E273.81079
G1 X144.642 Y69.793 E273.86771
G1 X144.193 Y69.47 E273.9229
G1 X144.009 Y69.351 E273.94477
G1 X143.498 Y69.048 E274.00404
G1 X143.314 Y68.949 E274.02489
G1 X142.695 Y68.657 E274.09318
G1 X142.614 Y68.621 E274.10203
G1 X142.003 Y68.366 E274.16809
G1 X141.847 Y68.307 E274.18473
G1 X148.738 Y75.199 E275.1572
G1 X148.944 Y75.774 E275.21814
G1 X149.01 Y75.987 E275.24039
G1 X149.159 Y76.566 E275.30005
G1 X149.197 Y76.745 E275.31831
G1 X149.263 Y77.138 E275.35807
G1 X139.907 Y67.782 E276.6783
G1 X139.826 Y67.767 E276.68652
G1 X139.698 Y67.747 E276.69945
G1 X139.07 Y67.665 E276.76264
G1 X138.937 Y67.652 E276.77598
G1 X138.322 Y67.611 E276.83748
G1 X149.432 Y78.722 E278.40529
G1 X149.458 Y79.109 E278.44399
G1 X149.463 Y79.258 E278.45887
G1 X149.463 Y80.166 E278.54947
G1 X136.876 Y67.579 E280.32563
G1 X135.461 Y67.579 E280.46682
G1 X149.463 Y81.581 E282.44265
G1 X149.463 Y82.995 E282.58374
G1 X134.047 Y67.579 E284.75911
G1 X132.633 Y67.579 E284.90019
G1 X149.463 Y84.409 E287.27509
G1 X149.463 Y85.823 E287.41618
G1 X131.219 Y67.579 E289.9906
G1 X130.936 Y67.579 E290.01884
G1 X130.424 Y67.593 E290.06995
G1 X130.242 Y67.607 E290.08816
G1 X129.873 Y67.648 E290.12521
G1 X149.463 Y87.237 E292.8895
G1 X149.463 Y88.652 E293.03069
G1 X128.679 Y67.868 E295.96353
G1 X128.616 Y67.884 E295.97002
G1 X128.047 Y68.057 E296.02936
G1 X127.612 Y68.215 E296.07554
G1 X149.463 Y90.066 E299.15895
G1 X149.463 Y91.48 E299.30004
G1 X126.452 Y68.469 E302.54714
G1 X125.901 Y68.509 E302.60227
G1 X125.219 Y68.469 E302.67043
G1 X124.998 Y68.429 E302.69284
G1 X149.463 Y92.894 E306.14512
G1 X149.463 Y94.308 E306.28621
G1 X123.018 Y67.863 E310.01788
G1 X122.584 Y67.759 E310.06241
G1 X122.366 Y67.718 E310.08455
G1 X121.771 Y67.632 E310.14453
G1 X121.574 Y67.614 E310.16427
G1 X121.344 Y67.604 E310.18724
G1 X149.463 Y95.723 E314.15514
G1 X149.463 Y97.137 E314.29623
G1 X119.905 Y67.579 E318.46718
G1 X118.491 Y67.579 E318.60827
G1 X149.463 Y98.551 E322.97875
G1 X149.463 Y99.965 E323.11984
G1 X117.077 Y67.579 E327.68986
G1 X115.662 Y67.579 E327.83105
G1 X149.463 Y101.38 E332.60073
G1 X149.463 Y102.794 E332.74182
G1 X114.248 Y67.579 E337.71104
G1 X112.834 Y67.579 E337.85213
G1 X149.463 Y104.208 E343.02088
G1 X149.463 Y105.622 E343.16197
G1 X111.42 Y67.579 E348.53025
G1 X110.006 Y67.579 E348.67133
G1 X149.463 Y107.036 E354.23914
G1 X149.463 Y108.451 E354.38033
G1 X108.591 Y67.579 E360.14781
G1 X107.177 Y67.579 E360.2889
G1 X125.885 Y86.287 E362.9288
G1 X125.825 Y86.272 E362.93497
G1 X125.147 Y86.194 E363.00307
G1 X124.464 Y86.201 E363.07123
G1 X124.394 Y86.21 E363.07827
G1 X105.763 Y67.579 E365.7073
