;FLAVOR:Marlin
;TIME:6427
;Filament used: 4.35535m
;Layer height: 0.2
;MINX:66.73
;MINY:69.16
;MINZ:0.24
;MAXX:153.622
;MAXY:156.49
;MAXZ:13.09
;Generated with Cura_SteamEngine 4.9.1
M140 S60
M105
M190 S60
M104 S200
M105
M109 S200
M82 ;absolute extrusion mode
; Ender 3 Custom Start G-code
G92 E0 ; Reset Extruder
G28 ; Home all axes
G1 Z2.0 F3000 ; Move Z Axis up little to prevent scratching of Heat Bed
G1 X0.1 Y20 Z0.3 F5000.0 ; Move to start position
G1 X0.1 Y200.0 Z0.3 F1500.0 E15 ; Draw the first line
G1 X0.4 Y200.0 Z0.3 F5000.0 ; Move to side a little
G1 X0.4 Y20 Z0.3 F1500.0 E30 ; Draw the second line
G92 E0 ; Reset Extruder
G1 Z2.0 F3000 ; Move Z Axis up little to prevent scratching of Heat Bed
G1 X5 Y20 Z0.3 F5000.0 ; Move over to prevent blob squish
G92 E0
G92 E0
G1 F1500 E-6.5
;LAYER_COUNT:60
;LAYER:-6
M107
G0 F9000 X70.439 Y72.732 Z0.24
;TYPE:SUPPORT-INTERFACE
G1 F1500 E0
G1 F1125 X70.949 Y72.266 E0.05515
G1 X71.105 Y72.138 E0.07125
G1 X71.601 Y71.766 E0.12074
G1 X71.755 Y71.662 E0.13558
G1 X72.269 Y71.347 E0.1837
G1 X72.465 Y71.239 E0.20156
G1 X72.988 Y70.984 E0.24801
G1 X73.206 Y70.889 E0.26699
G1 X73.742 Y70.686 E0.31274
G1 X73.955 Y70.617 E0.33062
G1 X74.531 Y70.46 E0.37827
G1 X74.743 Y70.412 E0.39562
G1 X75.3 Y70.316 E0.44074
G1 X75.555 Y70.285 E0.46125
G1 X76.453 Y70.229 E0.53307
G1 X76.583 Y70.225 E0.54345
G1 X144.212 Y70.225 E5.94189
G1 X144.984 Y70.259 E6.00357
G1 X145.18 Y70.278 E6.01929
G1 X145.775 Y70.363 E6.06727
G1 X145.994 Y70.405 E6.08507
G1 X146.571 Y70.543 E6.13243
G1 X146.782 Y70.605 E6.14998
G1 X147.331 Y70.792 E6.19628
G1 X147.541 Y70.875 E6.2143
G1 X148.073 Y71.116 E6.26092
G1 X148.278 Y71.22 E6.27927
G1 X148.782 Y71.508 E6.32561
G1 X148.972 Y71.629 E6.34359
G1 X149.425 Y71.947 E6.38777
G1 X149.642 Y72.119 E6.40987
G1 X150.312 Y72.709 E6.48114
G1 X150.482 Y72.875 E6.5001
G1 X150.948 Y73.385 E6.55525
G1 X151.076 Y73.541 E6.57136
G1 X151.448 Y74.037 E6.62085
G1 X151.552 Y74.191 E6.63568
G1 X151.867 Y74.705 E6.6838
G1 X151.972 Y74.895 E6.70113
G1 X152.228 Y75.418 E6.74761
G1 X152.327 Y75.646 E6.76746
G1 X152.525 Y76.17 E6.81217
G1 X152.596 Y76.388 E6.83047
G1 X152.755 Y76.971 E6.87871
G1 X152.802 Y77.179 E6.89573
G1 X152.898 Y77.736 E6.94085
G1 X152.928 Y77.986 E6.96095
G1 X152.985 Y78.889 E7.03317
G1 X152.989 Y79.007 E7.0426
G1 X152.989 Y146.648 E12.44199
G1 X152.955 Y147.419 E12.5036
G1 X152.937 Y147.608 E12.51875
G1 X152.852 Y148.208 E12.56713
G1 X152.809 Y148.428 E12.58502
G1 X152.673 Y148.999 E12.63187
G1 X152.609 Y149.218 E12.65009
G1 X152.423 Y149.763 E12.69606
G1 X152.339 Y149.977 E12.71441
G1 X152.101 Y150.504 E12.76057
G1 X151.995 Y150.712 E12.7792
G1 X151.709 Y151.214 E12.82532
G1 X151.59 Y151.401 E12.84301
G1 X151.27 Y151.857 E12.88748
G1 X151.095 Y152.078 E12.90998
G1 X150.51 Y152.742 E12.98062
G1 X150.339 Y152.918 E13.00021
G1 X149.829 Y153.384 E13.05536
G1 X149.673 Y153.512 E13.07146
G1 X149.18 Y153.882 E13.12067
G1 X149.023 Y153.988 E13.13579
G1 X148.512 Y154.301 E13.18362
G1 X148.313 Y154.411 E13.20177
G1 X147.79 Y154.666 E13.24822
G1 X147.572 Y154.761 E13.2672
G1 X147.036 Y154.964 E13.31295
G1 X146.823 Y155.033 E13.33083
G1 X146.247 Y155.19 E13.37848
G1 X146.035 Y155.238 E13.39583
G1 X145.478 Y155.334 E13.44095
G1 X145.223 Y155.365 E13.46146
G1 X144.325 Y155.421 E13.53328
G1 X144.196 Y155.425 E13.54358
G1 X101.564 Y155.425 E16.94665
G1 X101.351 Y155.417 E16.96367
G1 X100.963 Y155.414 E16.99464
G1 X100.517 Y155.425 E17.03025
G1 X88.246 Y155.425 E18.00978
G1 X87.963 Y155.413 E18.03239
G1 X87.355 Y155.418 E18.08092
G1 X87.167 Y155.425 E18.09594
G1 X76.566 Y155.425 E18.94216
G1 X75.794 Y155.391 E19.00384
G1 X75.598 Y155.372 E19.01956
G1 X75.003 Y155.287 E19.06754
G1 X74.784 Y155.245 E19.08534
G1 X74.207 Y155.107 E19.13269
G1 X73.996 Y155.045 E19.15025
G1 X73.447 Y154.858 E19.19654
G1 X73.237 Y154.775 E19.21457
G1 X72.705 Y154.534 E19.26119
G1 X72.5 Y154.43 E19.27954
G1 X71.996 Y154.142 E19.32588
G1 X71.804 Y154.02 E19.34404
G1 X71.353 Y153.703 E19.38804
G1 X71.136 Y153.531 E19.41014
G1 X70.464 Y152.939 E19.48163
G1 X70.292 Y152.771 E19.50082
G1 X69.83 Y152.265 E19.55552
G1 X69.702 Y152.109 E19.57163
G1 X69.33 Y151.613 E19.62112
G1 X69.225 Y151.457 E19.63613
G1 X68.911 Y150.945 E19.68407
G1 X68.803 Y150.749 E19.70193
G1 X68.546 Y150.222 E19.74874
G1 X68.451 Y150.004 E19.76772
G1 X68.247 Y149.463 E19.81387
G1 X68.181 Y149.259 E19.83099
G1 X68.023 Y148.679 E19.87897
G1 X67.976 Y148.471 E19.896
G1 X67.88 Y147.914 E19.94111
G1 X67.849 Y147.659 E19.96162
G1 X67.793 Y146.761 E20.03344
G1 X67.789 Y146.644 E20.04278
G1 X67.789 Y79.002 E25.44226
G1 X67.823 Y78.23 E25.50395
G1 X67.841 Y78.042 E25.51902
G1 X67.926 Y77.442 E25.56739
G1 X67.969 Y77.22 E25.58544
G1 X68.105 Y76.651 E25.63214
G1 X68.169 Y76.432 E25.65036
G1 X68.355 Y75.887 E25.69632
G1 X68.439 Y75.673 E25.71468
G1 X68.677 Y75.146 E25.76083
G1 X68.784 Y74.936 E25.77965
G1 X69.069 Y74.436 E25.82559
G1 X69.188 Y74.249 E25.84328
G1 X69.508 Y73.793 E25.88775
G1 X69.683 Y73.572 E25.91025
G1 X70.268 Y72.908 E25.98089
G1 X70.439 Y72.732 E26.00048
G1 F1500 E19.50048
G0 F9000 X69.712 Y71.955
G0 X90.702 Y92.987
G0 X89.972 Y92.208
G1 F1500 E26.00048
G1 F1125 X89.507 Y92.708 E26.05499
G1 X89.109 Y93.264 E26.10957
G1 X88.785 Y93.864 E26.164
G1 X88.539 Y94.5 E26.21843
G1 X88.373 Y95.169 E26.27345
G1 X88.289 Y96.108 E26.34871
G1 X88.29 Y129.538 E29.01724
G1 X88.332 Y130.206 E29.07066
G1 X88.461 Y130.877 E29.12521
G1 X88.674 Y131.527 E29.17981
G1 X88.967 Y132.143 E29.23426
G1 X89.335 Y132.718 E29.28875
G1 X89.772 Y133.242 E29.34322
G1 X90.272 Y133.707 E29.39772
G1 X90.828 Y134.105 E29.4523
G1 X91.428 Y134.429 E29.50673
G1 X92.064 Y134.675 E29.56117
G1 X92.733 Y134.841 E29.61619
G1 X93.672 Y134.925 E29.69144
G1 X127.102 Y134.924 E32.35997
G1 X127.77 Y134.882 E32.4134
G1 X128.441 Y134.753 E32.46794
G1 X129.09 Y134.54 E32.52247
G1 X129.707 Y134.248 E32.57696
G1 X130.282 Y133.88 E32.63145
G1 X130.806 Y133.442 E32.68597
G1 X131.27 Y132.942 E32.74042
G1 X131.669 Y132.386 E32.79504
G1 X131.993 Y131.786 E32.84948
G1 X132.239 Y131.15 E32.90391
G1 X132.405 Y130.481 E32.95893
G1 X132.489 Y129.542 E33.03419
G1 X132.488 Y96.112 E35.70271
G1 X132.446 Y95.444 E35.75614
G1 X132.317 Y94.773 E35.81068
G1 X132.104 Y94.123 E35.86528
G1 X131.811 Y93.507 E35.91974
G1 X131.443 Y92.932 E35.97423
G1 X131.006 Y92.408 E36.02869
G1 X130.506 Y91.943 E36.0832
G1 X129.95 Y91.545 E36.13778
G1 X129.35 Y91.221 E36.19221
G1 X128.714 Y90.975 E36.24665
G1 X128.045 Y90.809 E36.30167
G1 X127.106 Y90.725 E36.37692
G1 X93.676 Y90.726 E39.04545
G1 X93.008 Y90.768 E39.09888
G1 X92.337 Y90.897 E39.15342
G1 X91.687 Y91.11 E39.20802
G1 X91.071 Y91.403 E39.26247
G1 X90.496 Y91.771 E39.31697
G1 X89.972 Y92.208 E39.37143
G0 F9000 X89.6 Y92.608
G1 F1125 X89.6 Y70.225 E41.15814
G0 F9000 X88 Y70.225
G1 F1125 X88 Y155.414 E47.95829
G0 F9000 X86.4 Y155.425
G1 F1125 X86.4 Y70.225 E54.75932
G0 F9000 X84.8 Y70.225
G1 F1125 X84.8 Y155.425 E61.56036
G0 F9000 X83.2 Y155.425
G1 F1125 X83.2 Y70.225 E68.36139
G0 F9000 X81.6 Y70.225
G1 F1125 X81.6 Y155.425 E75.16242
G0 F9000 X80 Y155.425
G1 F1125 X80 Y70.225 E81.96345
G0 F9000 X78.4 Y70.225
G1 F1125 X78.4 Y155.425 E88.76449
G0 F9000 X76.8 Y155.425
G1 F1125 X76.8 Y70.225 E95.56552
G0 F9000 X75.2 Y70.333
G1 F1125 X75.2 Y155.315 E102.34915
G0 F9000 X73.6 Y154.91
G1 F1125 X73.6 Y70.739 E109.06804
G0 F9000 X72 Y71.511
G1 F1125 X72 Y154.144 E115.66417
G0 F9000 X70.4 Y152.876
G1 F1125 X70.4 Y72.772 E122.05841
G0 F9000 X68.8 Y74.907
G1 F1125 X68.8 Y150.742 E128.11189
G1 F1500 E121.61189
G0 F9000 X67.996 Y151.488
G0 X68.864 Y152.766
G0 X69.753 Y153.731
G0 X70.713 Y154.553
G0 X72.003 Y155.371
G0 X73.077 Y155.855
G0 X74.568 Y156.288
G0 X75.729 Y156.454
G0 X89.6 Y156.49
G0 X89.6 Y155.425
G1 F1500 E128.11189
G1 F1125 X89.6 Y133.036 E129.89908
G0 F9000 X91.2 Y134.306
G1 F1125 X91.2 Y155.425 E131.58489
G0 F9000 X92.8 Y155.425
G1 F1125 X92.8 Y134.847 E133.22751
G0 F9000 X94.4 Y134.924
G1 F1125 X94.4 Y155.425 E134.86399
G0 F9000 X96 Y155.425
G1 F1125 X96 Y134.924 E136.50047
G0 F9000 X97.6 Y134.924
G1 F1125 X97.6 Y155.425 E138.13695
G0 F9000 X99.2 Y155.425
G1 F1125 X99.2 Y134.924 E139.77343
G0 F9000 X100.8 Y134.924
G1 F1125 X100.8 Y155.419 E141.40943
G0 F9000 X102.4 Y155.425
G1 F1125 X102.4 Y134.924 E143.04591
G0 F9000 X104 Y134.924
G1 F1125 X104 Y155.425 E144.68238
G0 F9000 X105.6 Y155.425
G1 F1125 X105.6 Y134.924 E146.31886
G0 F9000 X107.2 Y134.924
G1 F1125 X107.2 Y155.425 E147.95534
G0 F9000 X108.8 Y155.425
G1 F1125 X108.8 Y134.924 E149.59182
G0 F9000 X110.4 Y134.924
G1 F1125 X110.4 Y155.425 E151.2283
G0 F9000 X112 Y155.425
G1 F1125 X112 Y134.924 E152.86478
G0 F9000 X113.6 Y134.924
G1 F1125 X113.6 Y155.425 E154.50125
G0 F9000 X115.2 Y155.425
G1 F1125 X115.2 Y134.924 E156.13773
G0 F9000 X116.8 Y134.924
G1 F1125 X116.8 Y155.425 E157.77421
G0 F9000 X118.4 Y155.425
G1 F1125 X118.4 Y134.924 E159.41069
G0 F9000 X120 Y134.924
G1 F1125 X120 Y155.425 E161.04717
G0 F9000 X121.6 Y155.425
G1 F1125 X121.6 Y134.924 E162.68365
G0 F9000 X123.2 Y134.924
G1 F1125 X123.2 Y155.425 E164.32013
G0 F9000 X124.8 Y155.425
G1 F1125 X124.8 Y134.924 E165.9566
G0 F9000 X126.4 Y134.924
G1 F1125 X126.4 Y155.425 E167.59308
G0 F9000 X128 Y155.425
G1 F1125 X128 Y134.837 E169.23651
G0 F9000 X129.6 Y134.298
G1 F1125 X129.6 Y155.425 E170.92295
G0 F9000 X131.2 Y155.425
G1 F1125 X131.2 Y133.017 E172.71166
G1 F1500 E166.21166
G0 F9000 X130.071 Y132.669
G0 X132.8 Y156.49
G0 X132.8 Y155.425
G1 F1500 E172.71166
G1 F1125 X132.8 Y70.225 E179.51269
G0 F9000 X131.2 Y70.225
G1 F1125 X131.2 Y92.64 E181.30195
G0 F9000 X129.6 Y91.356
G1 F1125 X129.6 Y70.225 E182.98872
G0 F9000 X128 Y70.225
G1 F1125 X128 Y90.804 E184.63142
G0 F9000 X126.4 Y90.726
G1 F1125 X126.4 Y70.225 E186.2679
G0 F9000 X124.8 Y70.225
G1 F1125 X124.8 Y90.726 E187.90438
G0 F9000 X123.2 Y90.726
G1 F1125 X123.2 Y70.225 E189.54086
G0 F9000 X121.6 Y70.225
G1 F1125 X121.6 Y90.726 E191.17734
G0 F9000 X120 Y90.726
G1 F1125 X120 Y70.225 E192.81382
G0 F9000 X118.4 Y70.225
G1 F1125 X118.4 Y90.726 E194.4503
G0 F9000 X116.8 Y90.726
G1 F1125 X116.8 Y70.225 E196.08677
G0 F9000 X115.2 Y70.225
G1 F1125 X115.2 Y90.726 E197.72325
G0 F9000 X113.6 Y90.726
G1 F1125 X113.6 Y70.225 E199.35973
G0 F9000 X112 Y70.225
G1 F1125 X112 Y90.726 E200.99621
G0 F9000 X110.4 Y90.726
G1 F1125 X110.4 Y70.225 E202.63269
G0 F9000 X108.8 Y70.225
G1 F1125 X108.8 Y90.726 E204.26917
G0 F9000 X107.2 Y90.726
G1 F1125 X107.2 Y70.225 E205.90564
G0 F9000 X105.6 Y70.225
G1 F1125 X105.6 Y90.726 E207.54212
G0 F9000 X104 Y90.726
G1 F1125 X104 Y70.225 E209.1786
G0 F9000 X102.4 Y70.225
G1 F1125 X102.4 Y90.726 E210.81508
G0 F9000 X100.8 Y90.726
G1 F1125 X100.8 Y70.225 E212.45156
G0 F9000 X99.2 Y70.225
G1 F1125 X99.2 Y90.726 E214.08804
G0 F9000 X97.6 Y90.726
G1 F1125 X97.6 Y70.225 E215.72452
G0 F9000 X96 Y70.225
G1 F1125 X96 Y90.726 E217.36099
G0 F9000 X94.4 Y90.726
G1 F1125 X94.4 Y70.225 E218.99747
G0 F9000 X92.8 Y70.225
G1 F1125 X92.8 Y90.808 E220.6405
G0 F9000 X91.2 Y91.342
G1 F1125 X91.2 Y70.225 E222.32615
G1 F1500 E215.82615
G0 F9000 X91.2 Y69.16
G0 X134.4 Y69.16
G0 X134.4 Y70.225
G1 F1500 E222.32615
G1 F1125 X134.4 Y155.425 E229.12718
G0 F9000 X136 Y155.425
G1 F1125 X136 Y70.225 E235.92821
G0 F9000 X137.6 Y70.225
G1 F1125 X137.6 Y155.425 E242.72924
G0 F9000 X139.2 Y155.425
G1 F1125 X139.2 Y70.225 E249.53028
G0 F9000 X140.8 Y70.225
G1 F1125 X140.8 Y155.425 E256.33131
G0 F9000 X142.4 Y155.425
G1 F1125 X142.4 Y70.225 E263.13234
G0 F9000 X144 Y70.225
G1 F1125 X144 Y155.425 E269.93337
G0 F9000 X145.6 Y155.313
G1 F1125 X145.6 Y70.338 E276.71645
G0 F9000 X147.2 Y70.748
G1 F1125 X147.2 Y154.902 E283.43398
G0 F9000 X148.8 Y154.125
G1 F1125 X148.8 Y71.52 E290.02787
G0 F9000 X150.4 Y72.795
G1 F1125 X150.4 Y152.856 E296.41869
G0 F9000 X152 Y150.703
G1 F1125 X152 Y74.953 E302.46538
G0 F300 X152 Y74.953 Z0.54
G0 F9000 X152.326 Y75.646
;TIME_ELAPSED:220.556511
;LAYER:-5
;TYPE:SUPPORT
G1 F1125 X152.227 Y75.418 E302.49018
G1 X151.971 Y74.895 E302.54828
G1 X151.866 Y74.705 E302.56994
G1 X151.551 Y74.191 E302.63009
G1 X151.446 Y74.036 E302.64877
G1 X151.075 Y73.541 E302.7105
G1 X150.947 Y73.384 E302.73071
G1 X150.436 Y72.828 E302.80606
G1 X150.311 Y72.708 E302.82335
G1 X149.641 Y72.118 E302.91243
G1 X149.424 Y71.946 E302.94006
G1 X148.971 Y71.629 E302.99523
G1 X148.78 Y71.508 E303.01779
G1 X148.277 Y71.219 E303.07567
G1 X148.072 Y71.116 E303.09856
G1 X147.54 Y70.874 E303.15688
G1 X147.33 Y70.791 E303.17941
G1 X147.071 Y70.703 E303.2067
G1 X152.517 Y76.149 E303.97519
G1 X152.524 Y76.169 E303.97731
G1 X152.595 Y76.388 E304.00028
G1 X152.754 Y76.97 E304.06048
G1 X152.801 Y77.179 E304.08186
G1 X152.896 Y77.735 E304.13814
G1 X152.925 Y77.971 E304.16186
G1 X145.24 Y70.287 E305.24623
G1 X145.178 Y70.277 E305.25249
G1 X144.983 Y70.258 E305.27204
G1 X144.21 Y70.224 E305.34925
G1 X143.764 Y70.224 E305.39375
G1 X152.988 Y79.449 E306.69543
G1 X152.988 Y80.863 E306.83652
G1 X142.349 Y70.224 E308.3378
G1 X140.935 Y70.224 E308.47888
G1 X152.988 Y82.277 E310.17969
G1 X152.988 Y83.691 E310.32078
G1 X139.521 Y70.224 E312.22112
G1 X138.107 Y70.224 E312.36221
G1 X152.988 Y85.105 E314.46208
G1 X152.988 Y86.52 E314.60327
G1 X136.692 Y70.224 E316.90281
G1 X135.278 Y70.224 E317.0439
G1 X152.988 Y87.934 E319.54297
G1 X152.988 Y89.348 E319.68406
G1 X133.864 Y70.224 E322.38267
G1 X132.45 Y70.224 E322.52376
G1 X152.988 Y90.762 E325.42189
G1 X152.988 Y92.177 E325.56308
G1 X131.036 Y70.224 E328.66081
G1 X129.621 Y70.224 E328.802
G1 X152.988 Y93.591 E332.09934
G1 X152.988 Y95.005 E332.24043
G1 X128.207 Y70.224 E335.7373
G1 X126.793 Y70.224 E335.87838
G1 X152.988 Y96.419 E339.57478
G1 X152.988 Y97.833 E339.71587
G1 X125.379 Y70.224 E343.6118
G1 X123.965 Y70.224 E343.75289
G1 X152.988 Y99.248 E347.84842
G1 X152.988 Y100.662 E347.98951
G1 X122.55 Y70.224 E352.28464
G1 X121.136 Y70.224 E352.42573
G1 X152.988 Y102.076 E356.92039
G1 X152.988 Y103.49 E357.06148
G1 X119.722 Y70.224 E361.75567
G1 X118.308 Y70.224 E361.89676
G1 X152.988 Y104.904 E366.79048
G1 X152.988 Y106.319 E366.93167
G1 X116.893 Y70.224 E372.02507
G1 X115.479 Y70.224 E372.16616
G1 X152.988 Y107.733 E377.45908
G1 X152.988 Y109.147 E377.60017
G1 X114.065 Y70.224 E383.09263
G1 X112.651 Y70.224 E383.23372
G1 X152.988 Y110.561 E388.9257
G1 X152.988 Y111.976 E389.06689
G1 X111.237 Y70.224 E394.95848
G1 X109.822 Y70.224 E395.09967
G1 X152.988 Y113.39 E401.19086
G1 X152.988 Y114.804 E401.33195
G1 X131.918 Y93.734 E404.30515
G1 X132.103 Y94.122 E404.34804
G1 X132.315 Y94.772 E404.41626
G1 X132.445 Y95.443 E404.48446
G1 X132.46 Y95.69 E404.50915
G1 X152.988 Y116.218 E407.40587
G1 X152.988 Y117.632 E407.54696
G1 X132.487 Y97.131 E410.43988
G1 X132.487 Y98.545 E410.58096
G1 X152.988 Y119.047 E413.47395
G1 X152.988 Y120.461 E413.61504
G1 X132.487 Y99.96 E416.50795
G1 X132.487 Y101.374 E416.64904
G1 X152.988 Y121.875 E419.54195
G1 X152.988 Y123.289 E419.68304
G1 X132.487 Y102.788 E422.57595
G1 X132.487 Y104.202 E422.71704
G1 X152.988 Y124.703 E425.60996
G1 X152.988 Y126.118 E425.75115
G1 X132.487 Y105.617 E428.64406
G1 X132.487 Y107.031 E428.78515
G1 X152.988 Y127.532 E431.67806
G1 X152.988 Y128.946 E431.81915
G1 X132.487 Y108.445 E434.71206
G1 X132.487 Y109.859 E434.85315
G1 X152.988 Y130.36 E437.74606
G1 X152.988 Y131.775 E437.88725
G1 X132.487 Y111.273 E440.78024
G1 X132.487 Y112.688 E440.92143
G1 X152.988 Y133.189 E443.81434
G1 X152.988 Y134.603 E443.95543
G1 X132.487 Y114.102 E446.84834
G1 X132.487 Y115.516 E446.98943
G1 X152.988 Y136.017 E449.88234
G1 X152.988 Y137.431 E450.02343
G1 X132.487 Y116.93 E452.91634
G1 X132.487 Y118.344 E453.05743
G1 X152.988 Y138.846 E455.95042
G1 X152.988 Y140.26 E456.09151
G1 X132.487 Y119.759 E458.98442
G1 X132.487 Y121.173 E459.12551
G1 X152.988 Y141.674 E462.01842
G1 X152.988 Y143.088 E462.15951
G1 X132.487 Y122.587 E465.05242
G1 X132.487 Y124.001 E465.19351
G1 X152.988 Y144.502 E468.08643
G1 X152.988 Y145.917 E468.22761
G1 X132.487 Y125.415 E471.1206
G1 X132.487 Y126.83 E471.26179
G1 X152.959 Y147.303 E474.15068
G1 X152.954 Y147.419 E474.16226
G1 X152.936 Y147.607 E474.18111
G1 X152.851 Y148.208 E474.24167
G1 X152.807 Y148.428 E474.26406
