;FLAVOR:Marlin
;TIME:5699
;Filament used: 4.83244m
;Layer height: 0.2
;MINX:71.589
;MINY:74.019
;MINZ:0.24
;MAXX:155.588
;MAXY:158.349
;MAXZ:16.09
;Generated with Cura_SteamEngine 4.9.1
M140 S60
M105
M190 S60
M104 S200
M105
M109 S200
M82 ;absolute extrusion mode
; Ender 3 Custom Start G-code
G92 E0 ; Reset Extruder
G28 ; Home all axes
G1 Z2.0 F3000 ; Move Z Axis up little to prevent scratching of Heat Bed
G1 X0.1 Y20 Z0.3 F5000.0 ; Move to start position
G1 X0.1 Y200.0 Z0.3 F1500.0 E15 ; Draw the first line
G1 X0.4 Y200.0 Z0.3 F5000.0 ; Move to side a little
G1 X0.4 Y20 Z0.3 F1500.0 E30 ; Draw the second line
G92 E0 ; Reset Extruder
G1 Z2.0 F3000 ; Move Z Axis up little to prevent scratching of Heat Bed
G1 X5 Y20 Z0.3 F5000.0 ; Move over to prevent blob squish
G92 E0
G92 E0
G1 F1500 E-6.5
;LAYER_COUNT:75
;LAYER:-6
M107
G0 F9000 X76.036 Y78.19 Z0.24
;TYPE:SUPPORT-INTERFACE
G1 F1500 E0
G1 F1125 X76.187 Y78.054 E0.01622
G1 X76.506 Y77.791 E0.04922
G1 X76.623 Y77.698 E0.06115
G1 X77.217 Y77.244 E0.12083
G1 X77.757 Y76.868 E0.17336
G1 X77.948 Y76.748 E0.19136
G1 X78.457 Y76.461 E0.23801
G1 X78.666 Y76.355 E0.25672
G1 X79.093 Y76.16 E0.29419
G1 X79.177 Y76.123 E0.30151
G1 X79.781 Y75.872 E0.35372
G1 X79.908 Y75.823 E0.36459
G1 X80.521 Y75.602 E0.41661
G1 X80.72 Y75.541 E0.43322
G1 X81.304 Y75.39 E0.48137
G1 X81.505 Y75.348 E0.49776
G1 X82.108 Y75.248 E0.54655
G1 X82.708 Y75.17 E0.59485
G1 X82.876 Y75.154 E0.60832
G1 X83.854 Y75.089 E0.68656
G1 X84.015 Y75.084 E0.69942
G1 X142.841 Y75.084 E5.39517
G1 X142.986 Y75.089 E5.40675
G1 X144.013 Y75.158 E5.48891
G1 X144.16 Y75.172 E5.5007
G1 X144.77 Y75.254 E5.54983
G1 X144.907 Y75.276 E5.56091
G1 X145.528 Y75.389 E5.61129
G1 X145.77 Y75.445 E5.63112
G1 X146.334 Y75.605 E5.67792
G1 X146.5 Y75.659 E5.69185
G1 X147.031 Y75.857 E5.73709
G1 X147.648 Y76.114 E5.79044
G1 X147.808 Y76.186 E5.80445
G1 X148.384 Y76.458 E5.85529
G1 X148.558 Y76.551 E5.87104
G1 X149.086 Y76.864 E5.92004
G1 X149.245 Y76.968 E5.93521
G1 X149.617 Y77.234 E5.97171
G1 X149.729 Y77.317 E5.98284
G1 X150.244 Y77.713 E6.0347
G1 X150.33 Y77.783 E6.04355
G1 X150.834 Y78.211 E6.09633
G1 X150.992 Y78.358 E6.11356
G1 X151.418 Y78.796 E6.16233
G1 X151.554 Y78.947 E6.17855
G1 X151.817 Y79.266 E6.21155
G1 X151.923 Y79.399 E6.22513
G1 X152.304 Y79.895 E6.27505
G1 X152.357 Y79.967 E6.28219
G1 X152.74 Y80.517 E6.33569
G1 X152.86 Y80.708 E6.3537
G1 X153.147 Y81.217 E6.40034
G1 X153.253 Y81.426 E6.41905
G1 X153.448 Y81.853 E6.45652
G1 X153.485 Y81.937 E6.46384
G1 X153.735 Y82.54 E6.51595
G1 X153.784 Y82.668 E6.52689
G1 X154.007 Y83.284 E6.57919
G1 X154.066 Y83.476 E6.59522
G1 X154.218 Y84.064 E6.6437
G1 X154.264 Y84.282 E6.66148
G1 X154.334 Y84.704 E6.69563
G1 X154.36 Y84.877 E6.70959
G1 X154.438 Y85.468 E6.75718
G1 X154.454 Y85.631 E6.77025
G1 X154.519 Y86.614 E6.84889
G1 X154.524 Y86.763 E6.86079
G1 X154.524 Y145.601 E11.5575
G1 X154.519 Y145.746 E11.56908
G1 X154.451 Y146.767 E11.65076
G1 X154.436 Y146.918 E11.66287
G1 X154.354 Y147.53 E11.71216
G1 X154.332 Y147.667 E11.72324
G1 X154.221 Y148.278 E11.77281
G1 X154.163 Y148.53 E11.79345
G1 X154.003 Y149.094 E11.84025
G1 X153.953 Y149.25 E11.85332
G1 X153.758 Y149.775 E11.89803
G1 X153.503 Y150.387 E11.95095
G1 X153.434 Y150.543 E11.96457
G1 X153.158 Y151.128 E12.0162
G1 X153.062 Y151.31 E12.03263
G1 X152.75 Y151.836 E12.08145
G1 X152.645 Y151.997 E12.09679
G1 X152.306 Y152.47 E12.14324
G1 X151.899 Y153 E12.19658
G1 X151.828 Y153.087 E12.20555
G1 X151.403 Y153.589 E12.25805
G1 X151.244 Y153.757 E12.27652
G1 X150.82 Y154.171 E12.32382
G1 X150.679 Y154.299 E12.33902
G1 X150.31 Y154.604 E12.37724
G1 X149.719 Y155.06 E12.43682
G1 X149.624 Y155.129 E12.44619
G1 X149.061 Y155.519 E12.50087
G1 X148.898 Y155.621 E12.51621
G1 X148.372 Y155.917 E12.56439
G1 X148.203 Y156.003 E12.57953
G1 X147.774 Y156.2 E12.61721
G1 X147.646 Y156.256 E12.62837
G1 X147.052 Y156.502 E12.67969
G1 X146.96 Y156.538 E12.68757
G1 X146.34 Y156.762 E12.74019
G1 X146.131 Y156.827 E12.75767
G1 X145.523 Y156.984 E12.80779
G1 X145.371 Y157.016 E12.82019
G1 X144.855 Y157.103 E12.86196
G1 X144.147 Y157.196 E12.91896
G1 X143.954 Y157.216 E12.93445
G1 X142.994 Y157.279 E13.01125
G1 X142.833 Y157.284 E13.0241
G1 X84.007 Y157.284 E17.71985
G1 X83.861 Y157.279 E17.73151
G1 X82.829 Y157.21 E17.81407
G1 X82.692 Y157.197 E17.82506
G1 X82.062 Y157.112 E17.8758
G1 X81.959 Y157.095 E17.88414
G1 X81.299 Y156.976 E17.93767
G1 X81.113 Y156.932 E17.95293
G1 X80.528 Y156.768 E18.00143
G1 X80.325 Y156.701 E18.01849
G1 X79.786 Y156.499 E18.06444
G1 X79.182 Y156.247 E18.11668
G1 X79.06 Y156.192 E18.12736
G1 X78.468 Y155.912 E18.17964
G1 X78.294 Y155.819 E18.19539
G1 X77.75 Y155.496 E18.24589
G1 X77.618 Y155.41 E18.25846
G1 X77.117 Y155.05 E18.30771
G1 X76.602 Y154.654 E18.35957
G1 X76.513 Y154.581 E18.36876
G1 X76.019 Y154.162 E18.42046
G1 X75.866 Y154.02 E18.43713
G1 X75.427 Y153.571 E18.48725
G1 X75.302 Y153.431 E18.50223
G1 X75.021 Y153.088 E18.53763
G1 X74.918 Y152.959 E18.5508
G1 X74.544 Y152.471 E18.59988
G1 X74.463 Y152.36 E18.61085
G1 X74.094 Y151.83 E18.6624
G1 X73.984 Y151.653 E18.67904
G1 X73.696 Y151.142 E18.72586
G1 X73.597 Y150.947 E18.74332
G1 X73.393 Y150.501 E18.78247
G1 X73.106 Y149.812 E18.84205
G1 X73.056 Y149.684 E18.85302
G1 X72.844 Y149.094 E18.90306
G1 X72.78 Y148.889 E18.9202
G1 X72.623 Y148.278 E18.97056
G1 X72.59 Y148.12 E18.98344
G1 X72.504 Y147.602 E19.02536
G1 X72.412 Y146.907 E19.08132
G1 X72.392 Y146.714 E19.09681
G1 X72.329 Y145.754 E19.17361
G1 X72.324 Y145.605 E19.18551
G1 X72.324 Y86.767 E23.88221
G1 X72.329 Y86.621 E23.89387
G1 X72.397 Y85.596 E23.97587
G1 X72.411 Y85.452 E23.98742
G1 X72.496 Y84.821 E24.03824
G1 X72.513 Y84.717 E24.04666
G1 X72.632 Y84.059 E24.10003
G1 X72.676 Y83.873 E24.11529
G1 X72.84 Y83.287 E24.16386
G1 X72.904 Y83.093 E24.18017
G1 X73.105 Y82.556 E24.22594
G1 X73.361 Y81.941 E24.27912
G1 X73.413 Y81.826 E24.28919
G1 X73.696 Y81.228 E24.342
G1 X73.784 Y81.062 E24.357
G1 X74.112 Y80.51 E24.40825
G1 X74.205 Y80.367 E24.42187
G1 X74.539 Y79.902 E24.46757
G1 X74.952 Y79.365 E24.52165
G1 X75.031 Y79.269 E24.53157
G1 X75.451 Y78.774 E24.58339
G1 X75.598 Y78.616 E24.60062
G1 X76.036 Y78.19 E24.64939
G1 F1500 E18.14939
G0 F9000 X75.324 Y77.4
G0 X93.942 Y96.539
G0 X93.207 Y95.766
G1 F1500 E24.64939
G1 F1125 X92.743 Y96.266 E24.70384
G1 X92.344 Y96.822 E24.75847
G1 X92.02 Y97.422 E24.8129
G1 X91.774 Y98.058 E24.86734
G1 X91.608 Y98.727 E24.92236
G1 X91.524 Y99.666 E24.99761
G1 X91.524 Y132.697 E27.63429
G1 X91.566 Y133.365 E27.68772
G1 X91.695 Y134.036 E27.74226
G1 X91.908 Y134.685 E27.79678
G1 X92.2 Y135.302 E27.85127
G1 X92.568 Y135.877 E27.90577
G1 X93.006 Y136.401 E27.96028
G1 X93.506 Y136.865 E28.01473
G1 X94.062 Y137.264 E28.06936
G1 X94.662 Y137.588 E28.12379
G1 X95.298 Y137.834 E28.17823
G1 X95.967 Y138 E28.23325
G1 X96.906 Y138.084 E28.3085
G1 X129.937 Y138.084 E30.94518
G1 X130.605 Y138.042 E30.99861
G1 X131.276 Y137.913 E31.05315
G1 X131.925 Y137.7 E31.10768
G1 X132.542 Y137.408 E31.16216
G1 X133.117 Y137.04 E31.21666
G1 X133.641 Y136.602 E31.27117
G1 X134.105 Y136.102 E31.32562
G1 X134.504 Y135.546 E31.38025
G1 X134.828 Y134.946 E31.43468
G1 X135.074 Y134.31 E31.48912
G1 X135.24 Y133.641 E31.54414
G1 X135.324 Y132.702 E31.61939
G1 X135.324 Y99.671 E34.25607
G1 X135.282 Y99.003 E34.3095
G1 X135.153 Y98.332 E34.36404
G1 X134.94 Y97.683 E34.41857
G1 X134.648 Y97.066 E34.47306
G1 X134.28 Y96.491 E34.52755
G1 X133.842 Y95.967 E34.58207
G1 X133.342 Y95.503 E34.63652
G1 X132.786 Y95.104 E34.69114
G1 X132.186 Y94.78 E34.74558
G1 X131.55 Y94.534 E34.80001
G1 X130.881 Y94.368 E34.85503
G1 X129.942 Y94.284 E34.93029
G1 X96.911 Y94.284 E37.56696
G1 X96.243 Y94.326 E37.62039
G1 X95.572 Y94.455 E37.67493
G1 X94.923 Y94.668 E37.72946
G1 X94.306 Y94.96 E37.78395
G1 X93.731 Y95.328 E37.83844
G1 X93.207 Y95.766 E37.89296
G0 F9000 X92.8 Y96.205
G1 F1125 X92.8 Y75.084 E39.57893
G0 F9000 X91.2 Y75.084
G1 F1125 X91.2 Y157.284 E46.14049
G0 F9000 X89.6 Y157.284
G1 F1125 X89.6 Y75.084 E52.70205
G0 F9000 X88 Y75.084
G1 F1125 X88 Y157.284 E59.26361
G0 F9000 X86.4 Y157.284
G1 F1125 X86.4 Y75.084 E65.82516
G0 F9000 X84.8 Y75.084
G1 F1125 X84.8 Y157.284 E72.38672
G0 F9000 X83.2 Y157.234
G1 F1125 X83.2 Y75.132 E78.94046
G0 F9000 X81.6 Y75.332
G1 F1125 X81.6 Y157.03 E85.46195
G0 F9000 X80 Y156.579
G1 F1125 X80 Y75.789 E91.91096
G0 F9000 X78.4 Y76.493
G1 F1125 X78.4 Y155.875 E98.24757
G0 F9000 X76.8 Y154.806
G1 F1125 X76.8 Y77.562 E104.41352
G0 F9000 X75.2 Y79.069
G1 F1125 X75.2 Y153.306 E110.33944
G0 F9000 X73.6 Y150.952
G1 F1125 X73.6 Y81.43 E115.88899
G1 F1500 E109.38899
G0 F9000 X72.74 Y80.759
G0 X73.653 Y79.31
G0 X74.844 Y77.865
G0 X75.97 Y76.857
G0 X77.395 Y75.838
G0 X78.761 Y75.144
G0 X80.436 Y74.515
G0 X81.962 Y74.194
G0 X83.606 Y74.054
G0 X94.4 Y74.019
G0 X94.4 Y75.084
G1 F1500 E115.88899
G1 F1125 X94.4 Y94.916 E117.47206
G0 F9000 X96 Y94.373
G1 F1125 X96 Y75.084 E119.01179
G0 F9000 X97.6 Y75.084
G1 F1125 X97.6 Y94.284 E120.54442
G0 F9000 X99.2 Y94.284
G1 F1125 X99.2 Y75.084 E122.07705
G0 F9000 X100.8 Y75.084
G1 F1125 X100.8 Y94.284 E123.60967
G0 F9000 X102.4 Y94.284
G1 F1125 X102.4 Y75.084 E125.1423
G0 F9000 X104 Y75.084
G1 F1125 X104 Y94.284 E126.67493
G0 F9000 X105.6 Y94.284
G1 F1125 X105.6 Y75.084 E128.20755
G0 F9000 X107.2 Y75.084
G1 F1125 X107.2 Y94.284 E129.74018
G0 F9000 X108.8 Y94.284
G1 F1125 X108.8 Y75.084 E131.27281
G0 F9000 X110.4 Y75.084
G1 F1125 X110.4 Y94.284 E132.80544
G0 F9000 X112 Y94.284
G1 F1125 X112 Y75.084 E134.33806
G0 F9000 X113.6 Y75.084
G1 F1125 X113.6 Y94.284 E135.87069
G0 F9000 X115.2 Y94.284
G1 F1125 X115.2 Y75.084 E137.40332
G0 F9000 X116.8 Y75.084
G1 F1125 X116.8 Y94.284 E138.93594
G0 F9000 X118.4 Y94.284
G1 F1125 X118.4 Y75.084 E140.46857
G0 F9000 X120 Y75.084
G1 F1125 X120 Y94.284 E142.0012
G0 F9000 X121.6 Y94.284
G1 F1125 X121.6 Y75.084 E143.53383
G0 F9000 X123.2 Y75.084
G1 F1125 X123.2 Y94.284 E145.06645
G0 F9000 X124.8 Y94.284
G1 F1125 X124.8 Y75.084 E146.59908
G0 F9000 X126.4 Y75.084
G1 F1125 X126.4 Y94.284 E148.13171
G0 F9000 X128 Y94.284
G1 F1125 X128 Y75.084 E149.66433
G0 F9000 X129.6 Y75.084
G1 F1125 X129.6 Y94.284 E151.19696
G0 F9000 X131.2 Y94.447
G1 F1125 X131.2 Y75.084 E152.7426
G0 F9000 X132.8 Y75.084
G1 F1125 X132.8 Y95.114 E154.34148
G0 F9000 X134.4 Y96.678
G1 F1125 X134.4 Y75.084 E156.06521
G0 F9000 X136 Y75.084
G1 F1125 X136 Y157.284 E162.62677
G0 F9000 X134.4 Y157.284
G1 F1125 X134.4 Y135.69 E164.35049
G0 F9000 X132.8 Y137.242
G1 F1125 X132.8 Y157.284 E165.95033
G0 F9000 X131.2 Y157.284
G1 F1125 X131.2 Y137.927 E167.49549
G0 F9000 X129.6 Y138.084
G1 F1125 X129.6 Y157.284 E169.02812
G0 F9000 X128 Y157.284
G1 F1125 X128 Y138.084 E170.56074
G0 F9000 X126.4 Y138.084
G1 F1125 X126.4 Y157.284 E172.09337
G0 F9000 X124.8 Y157.284
G1 F1125 X124.8 Y138.084 E173.626
G0 F9000 X123.2 Y138.084
G1 F1125 X123.2 Y157.284 E175.15863
G0 F9000 X121.6 Y157.284
G1 F1125 X121.6 Y138.084 E176.69125
G0 F9000 X120 Y138.084
G1 F1125 X120 Y157.284 E178.22388
G0 F9000 X118.4 Y157.284
G1 F1125 X118.4 Y138.084 E179.75651
G0 F9000 X116.8 Y138.084
G1 F1125 X116.8 Y157.284 E181.28913
G0 F9000 X115.2 Y157.284
G1 F1125 X115.2 Y138.084 E182.82176
G0 F9000 X113.6 Y138.084
G1 F1125 X113.6 Y157.284 E184.35439
G0 F9000 X112 Y157.284
G1 F1125 X112 Y138.084 E185.88702
G0 F9000 X110.4 Y138.084
G1 F1125 X110.4 Y157.284 E187.41964
G0 F9000 X108.8 Y157.284
G1 F1125 X108.8 Y138.084 E188.95227
G0 F9000 X107.2 Y138.084
G1 F1125 X107.2 Y157.284 E190.4849
G0 F9000 X105.6 Y157.284
G1 F1125 X105.6 Y138.084 E192.01752
G0 F9000 X104 Y138.084
G1 F1125 X104 Y157.284 E193.55015
G0 F9000 X102.4 Y157.284
G1 F1125 X102.4 Y138.084 E195.08278
G0 F9000 X100.8 Y138.084
G1 F1125 X100.8 Y157.284 E196.6154
G0 F9000 X99.2 Y157.284
G1 F1125 X99.2 Y138.084 E198.14803
G0 F9000 X97.6 Y138.084
G1 F1125 X97.6 Y157.284 E199.68066
G0 F9000 X96 Y157.284
G1 F1125 X96 Y138.003 E201.21975
G0 F9000 X94.4 Y137.447
G1 F1125 X94.4 Y157.284 E202.80323
G0 F9000 X92.8 Y157.284
G1 F1125 X92.8 Y136.155 E204.48983
G1 F1500 E197.98983
G0 F9000 X93.779 Y135.666
G0 X137.6 Y158.349
G0 X137.6 Y157.284
G1 F1500 E204.48983
G1 F1125 X137.6 Y75.084 E211.05139
G0 F9000 X139.2 Y75.084
G1 F1125 X139.2 Y157.284 E217.61295
G0 F9000 X140.8 Y157.284
G1 F1125 X140.8 Y75.084 E224.17451
G0 F9000 X142.4 Y75.084
G1 F1125 X142.4 Y157.284 E230.73607
G0 F9000 X144 Y157.212
G1 F1125 X144 Y75.158 E237.28598
G0 F9000 X145.6 Y75.406
G1 F1125 X145.6 Y156.965 E243.79637
G0 F9000 X147.2 Y156.441
G1 F1125 X147.2 Y75.928 E250.22327
G0 F9000 X148.8 Y76.695
G1 F1125 X148.8 Y155.677 E256.52795
G0 F9000 X150.4 Y154.53
G1 F1125 X150.4 Y77.843 E262.64944
G0 F9000 X152 Y79.5
G1 F1125 X152 Y152.869 E268.50607
G0 F9000 X153.6 Y150.155
G1 F1125 X153.6 Y82.215 E273.92933
G0 F300 X153.6 Y82.215 Z0.54
G0 F9000 X152.894 Y80.769
;TIME_ELAPSED:200.335762
;LAYER:-5
;TYPE:SUPPORT
G1 F1125 X148.849 Y76.724 E274.50013
G1 X148.557 Y76.551 E274.53399
G1 X148.383 Y76.458 E274.55368
G1 X147.807 Y76.185 E274.61728
G1 X147.647 Y76.113 E274.63479
G1 X147.03 Y75.857 E274.70144
G1 X146.499 Y75.659 E274.75799
G1 X146.332 Y75.605 E274.7755
G1 X146.309 Y75.598 E274.7779
G1 X154.012 Y83.301 E275.86488
G1 X154.065 Y83.476 E275.88312
G1 X154.217 Y84.063 E275.94362
G1 X154.263 Y84.282 E275.96595
G1 X154.333 Y84.704 E276.00863
G1 X154.359 Y84.877 E276.02609
G1 X154.388 Y85.091 E276.04764
G1 X144.517 Y75.22 E277.44054
G1 X144.159 Y75.172 E277.47658
G1 X144.012 Y75.158 E277.49132
G1 X142.985 Y75.089 E277.59402
G1 X142.971 Y75.089 E277.59542
G1 X154.519 Y86.637 E279.22497
G1 X154.523 Y86.762 E279.23745
G1 X154.523 Y88.055 E279.36646
G1 X141.552 Y75.084 E281.19681
G1 X140.137 Y75.084 E281.338
G1 X154.523 Y89.469 E283.36795
G1 X154.523 Y90.883 E283.50904
G1 X138.723 Y75.084 E285.73852
G1 X137.309 Y75.084 E285.87961
G1 X154.523 Y92.297 E288.30862
G1 X154.523 Y93.712 E288.44981
G1 X135.895 Y75.084 E291.07842
G1 X134.481 Y75.084 E291.21951
G1 X154.523 Y95.126 E294.04765
G1 X154.523 Y96.54 E294.18874
G1 X133.066 Y75.084 E297.21649
G1 X131.652 Y75.084 E297.35758
G1 X154.523 Y97.954 E300.58485
G1 X154.523 Y99.369 E300.72604
G1 X130.238 Y75.084 E304.15292
G1 X128.824 Y75.084 E304.29401
G1 X154.523 Y100.783 E307.92041
G1 X154.523 Y102.197 E308.0615
G1 X127.41 Y75.084 E311.88744
G1 X125.995 Y75.084 E312.02863
G1 X154.523 Y103.611 E316.05417
G1 X154.523 Y105.025 E316.19526
G1 X124.581 Y75.084 E320.42033
G1 X123.167 Y75.084 E320.56141
G1 X154.523 Y106.44 E324.98609
G1 X154.523 Y107.854 E325.12717
G1 X121.753 Y75.084 E329.75138
G1 X120.338 Y75.084 E329.89256
G1 X154.523 Y109.268 E334.71637
G1 X154.523 Y110.682 E334.85746
G1 X118.924 Y75.084 E339.88079
G1 X117.51 Y75.084 E340.02188
G1 X154.523 Y112.096 E345.24474
G1 X154.523 Y113.511 E345.38593
G1 X116.096 Y75.084 E350.8084
G1 X114.682 Y75.084 E350.94949
G1 X154.523 Y114.925 E356.57148
G1 X154.523 Y116.339 E356.71257
G1 X113.267 Y75.084 E362.53417
G1 X111.853 Y75.084 E362.67526
G1 X131.222 Y94.452 E365.40836
G1 X130.88 Y94.368 E365.4435
G1 X129.941 Y94.283 E365.53758
G1 X129.638 Y94.283 E365.56781
G1 X110.439 Y75.084 E368.277
G1 X109.025 Y75.084 E368.41809
G1 X128.224 Y94.283 E371.12727
G1 X126.81 Y94.283 E371.26836
G1 X107.611 Y75.084 E373.97755
G1 X106.196 Y75.084 E374.11874
G1 X125.396 Y94.283 E376.828
G1 X123.981 Y94.283 E376.96918
G1 X104.782 Y75.084 E379.67837
G1 X103.368 Y75.084 E379.81946
G1 X122.567 Y94.283 E382.52865
G1 X121.153 Y94.283 E382.66974
G1 X101.954 Y75.084 E385.37892
G1 X100.539 Y75.084 E385.52011
G1 X119.739 Y94.283 E388.22937
G1 X118.325 Y94.283 E388.37046
G1 X99.125 Y75.084 E391.07971
G1 X97.711 Y75.084 E391.2208
G1 X116.91 Y94.283 E393.92999
G1 X115.496 Y94.283 E394.07108
G1 X96.297 Y75.084 E396.78027
G1 X94.883 Y75.084 E396.92136
G1 X114.082 Y94.283 E399.63054
G1 X112.668 Y94.283 E399.77163
G1 X93.468 Y75.084 E402.48089
G1 X92.054 Y75.084 E402.62198
G1 X111.254 Y94.283 E405.33123
G1 X109.839 Y94.283 E405.47242
G1 X90.64 Y75.084 E408.18161
G1 X89.226 Y75.084 E408.3227
G1 X108.425 Y94.283 E411.03189
G1 X107.011 Y94.283 E411.17298
G1 X87.812 Y75.084 E413.88216
G1 X86.397 Y75.084 E414.02335
G1 X105.597 Y94.283 E416.73261
