;FLAVOR:Marlin
;TIME:7496
;Filament used: 6.48557m
;Layer height: 0.2
;MINX:76.619
;MINY:81.092
;MINZ:0.24
;MAXX:155.999
;MAXY:160.472
;MAXZ:16.09
;Generated with Cura_SteamEngine 4.9.1
M140 S60
M105
M190 S60
M104 S200
M105
M109 S200
M82 ;absolute extrusion mode
; Ender 3 Custom Start G-code
G92 E0 ; Reset Extruder
G28 ; Home all axes
G1 Z2.0 F3000 ; Move Z Axis up little to prevent scratching of Heat Bed
G1 X0.1 Y20 Z0.3 F5000.0 ; Move to start position
G1 X0.1 Y200.0 Z0.3 F1500.0 E15 ; Draw the first line
G1 X0.4 Y200.0 Z0.3 F5000.0 ; Move to side a little
G1 X0.4 Y20 Z0.3 F1500.0 E30 ; Draw the second line
G92 E0 ; Reset Extruder
G1 Z2.0 F3000 ; Move Z Axis up little to prevent scratching of Heat Bed
G1 X5 Y20 Z0.3 F5000.0 ; Move over to prevent blob squish
G92 E0
G92 E0
G1 F1500 E-6.5
;LAYER_COUNT:75
;LAYER:-6
M107
G0 F9000 X80.796 Y84.687 Z0.24
;TYPE:SUPPORT-INTERFACE
G1 F1500 E0
G1 F1125 X80.932 Y84.565 E0.01458
G1 X81.373 Y84.201 E0.06023
G1 X81.574 Y84.049 E0.08035
G1 X82.113 Y83.675 E0.13271
G1 X82.302 Y83.555 E0.15058
G1 X82.855 Y83.244 E0.20123
G1 X82.985 Y83.178 E0.21287
G1 X83.519 Y82.934 E0.25973
G1 X83.778 Y82.829 E0.28204
G1 X84.408 Y82.604 E0.33544
G1 X84.617 Y82.54 E0.35289
G1 X85.188 Y82.393 E0.39996
G1 X85.392 Y82.349 E0.41661
G1 X85.917 Y82.262 E0.45909
G1 X86.231 Y82.225 E0.48433
G1 X87.212 Y82.161 E0.56281
G1 X87.374 Y82.156 E0.57574
G1 X106.21 Y82.156 E2.07931
G1 X106.982 Y82.19 E2.141
G1 X107.178 Y82.209 E2.15672
G1 X107.773 Y82.294 E2.20469
G1 X107.992 Y82.336 E2.2225
G1 X108.569 Y82.474 E2.26985
G1 X108.78 Y82.536 E2.28741
G1 X109.329 Y82.723 E2.3337
G1 X109.539 Y82.806 E2.35173
G1 X110.071 Y83.047 E2.39835
G1 X110.276 Y83.151 E2.4167
G1 X110.78 Y83.439 E2.46304
G1 X110.969 Y83.559 E2.48091
G1 X111.447 Y83.895 E2.52755
G1 X111.618 Y84.027 E2.54479
G1 X112.087 Y84.428 E2.59405
G1 X112.607 Y84.917 E2.65103
G1 X112.739 Y85.028 E2.66479
G1 X113.298 Y85.42 E2.71929
G1 X113.902 Y85.738 E2.77378
G1 X114.541 Y85.979 E2.82829
G1 X115.21 Y86.137 E2.88317
G1 X116.099 Y86.213 E2.95439
G1 X116.518 Y86.213 E2.98784
G1 X117.186 Y86.171 E3.04126
G1 X117.857 Y86.042 E3.09581
G1 X118.506 Y85.829 E3.15033
G1 X119.123 Y85.537 E3.20482
G1 X119.699 Y85.169 E3.25938
G1 X120.248 Y84.705 E3.31676
G1 X120.589 Y84.376 E3.35458
G1 X120.744 Y84.239 E3.3711
G1 X121.22 Y83.858 E3.41977
G1 X121.381 Y83.741 E3.43565
G1 X121.89 Y83.406 E3.48429
G1 X122.046 Y83.314 E3.49875
G1 X122.613 Y83.015 E3.54992
G1 X122.792 Y82.931 E3.5657
G1 X123.34 Y82.704 E3.61305
G1 X123.541 Y82.632 E3.63009
G1 X124.101 Y82.46 E3.67686
G1 X124.331 Y82.402 E3.69579
G1 X124.911 Y82.282 E3.74307
G1 X125.103 Y82.252 E3.75858
G1 X125.727 Y82.183 E3.8087
G1 X125.909 Y82.17 E3.82326
G1 X126.421 Y82.156 E3.86415
G1 X145.248 Y82.157 E5.367
G1 X145.413 Y82.163 E5.38018
G1 X146.406 Y82.227 E5.45961
G1 X146.775 Y82.275 E5.48931
G1 X147.408 Y82.389 E5.54065
G1 X147.631 Y82.44 E5.55891
G1 X148.207 Y82.601 E5.60665
G1 X148.38 Y82.657 E5.62117
G1 X148.923 Y82.86 E5.66744
G1 X149.182 Y82.972 E5.68997
G1 X149.753 Y83.24 E5.74032
G1 X149.951 Y83.345 E5.75821
G1 X150.471 Y83.652 E5.80641
G1 X150.615 Y83.745 E5.8201
G1 X151.121 Y84.107 E5.86976
G1 X151.311 Y84.256 E5.88903
G1 X151.827 Y84.692 E5.94296
G1 X151.978 Y84.832 E5.95939
G1 X152.404 Y85.269 E6.00811
G1 X152.512 Y85.389 E6.021
G1 X152.884 Y85.84 E6.06766
G1 X153.042 Y86.047 E6.08845
G1 X153.416 Y86.586 E6.14082
G1 X153.532 Y86.768 E6.15805
G1 X153.841 Y87.317 E6.20834
G1 X153.92 Y87.471 E6.22215
G1 X154.173 Y88.029 E6.27106
G1 X154.272 Y88.279 E6.29252
G1 X154.491 Y88.893 E6.34456
G1 X154.552 Y89.092 E6.36117
G1 X154.704 Y89.693 E6.41066
G1 X154.741 Y89.87 E6.42509
G1 X154.812 Y90.279 E6.45823
G1 X154.859 Y90.644 E6.48761
G1 X154.93 Y91.701 E6.57217
G1 X154.935 Y91.829 E6.5824
G1 X154.934 Y149.728 E11.20414
G1 X154.929 Y149.871 E11.21557
G1 X154.861 Y150.894 E11.29741
G1 X154.832 Y151.152 E11.31813
G1 X154.814 Y151.266 E11.32734
G1 X154.697 Y151.899 E11.37873
G1 X154.642 Y152.137 E11.39823
G1 X154.483 Y152.695 E11.44454
G1 X154.419 Y152.893 E11.46115
G1 X154.24 Y153.37 E11.50182
G1 X154.15 Y153.587 E11.52057
G1 X153.857 Y154.214 E11.57582
G1 X153.768 Y154.384 E11.59114
G1 X153.442 Y154.938 E11.64245
G1 X153.355 Y155.074 E11.65533
G1 X153.046 Y155.509 E11.69793
G1 X152.835 Y155.783 E11.72553
G1 X152.399 Y156.299 E11.77946
G1 X152.262 Y156.446 E11.7955
G1 X151.822 Y156.876 E11.84461
G1 X151.688 Y156.997 E11.85902
G1 X151.245 Y157.362 E11.90484
G1 X151.044 Y157.514 E11.92495
G1 X150.505 Y157.888 E11.97732
G1 X150.317 Y158.007 E11.99508
G1 X149.763 Y158.319 E12.04584
G1 X149.633 Y158.385 E12.05747
G1 X149.099 Y158.629 E12.10434
G1 X148.842 Y158.733 E12.12647
G1 X148.21 Y158.959 E12.18005
G1 X148.001 Y159.023 E12.1975
G1 X147.43 Y159.17 E12.24456
G1 X147.226 Y159.214 E12.26122
G1 X146.709 Y159.3 E12.30306
G1 X146.387 Y159.338 E12.32894
G1 X145.406 Y159.402 E12.40741
G1 X145.244 Y159.407 E12.42035
G1 X100.369 Y159.407 E16.00247
G1 X99.597 Y159.373 E16.06415
G1 X99.401 Y159.354 E16.07987
G1 X98.806 Y159.269 E16.12785
G1 X98.587 Y159.227 E16.14565
G1 X98.01 Y159.089 E16.19301
G1 X97.803 Y159.028 E16.21023
G1 X97.149 Y158.882 E16.26372
G1 X96.469 Y158.817 E16.31825
G1 X95.787 Y158.84 E16.37272
G1 X95.118 Y158.947 E16.4268
G1 X94.73 Y159.05 E16.45885
G1 X94.338 Y159.159 E16.49132
G1 X93.746 Y159.281 E16.53957
G1 X93.554 Y159.311 E16.55509
G1 X92.929 Y159.38 E16.60528
G1 X92.747 Y159.393 E16.61984
G1 X92.234 Y159.407 E16.66081
G1 X87.368 Y159.406 E17.04923
G1 X87.204 Y159.4 E17.06233
G1 X86.205 Y159.335 E17.14225
G1 X85.843 Y159.288 E17.17139
G1 X85.21 Y159.174 E17.22273
G1 X84.987 Y159.123 E17.24099
G1 X84.411 Y158.962 E17.28873
G1 X84.238 Y158.906 E17.30325
G1 X83.695 Y158.703 E17.34952
G1 X83.429 Y158.588 E17.37265
G1 X82.865 Y158.323 E17.4224
G1 X82.667 Y158.218 E17.44029
G1 X82.147 Y157.911 E17.48849
G1 X81.999 Y157.815 E17.50257
G1 X81.576 Y157.514 E17.54401
G1 X81.307 Y157.307 E17.57111
G1 X80.791 Y156.871 E17.62503
G1 X80.64 Y156.731 E17.64147
G1 X80.214 Y156.294 E17.69018
G1 X80.088 Y156.154 E17.70522
G1 X79.721 Y155.708 E17.75132
G1 X79.576 Y155.516 E17.77053
G1 X79.202 Y154.977 E17.8229
G1 X79.075 Y154.777 E17.84181
G1 X78.782 Y154.257 E17.88945
G1 X78.702 Y154.1 E17.90352
G1 X78.477 Y153.611 E17.94649
G1 X78.358 Y153.317 E17.97181
G1 X78.134 Y152.695 E18.02458
G1 X78.071 Y152.494 E18.04139
G1 X77.914 Y151.883 E18.09175
G1 X77.881 Y151.725 E18.10463
G1 X77.796 Y151.217 E18.14575
G1 X77.751 Y150.837 E18.17629
G1 X77.688 Y149.871 E18.25357
G1 X77.683 Y149.728 E18.26499
G1 X77.684 Y91.839 E22.88594
G1 X77.689 Y91.678 E22.8988
G1 X77.753 Y90.707 E22.97647
G1 X77.781 Y90.449 E22.99719
G1 X77.802 Y90.318 E23.00778
G1 X77.915 Y89.689 E23.05879
G1 X77.963 Y89.474 E23.07638
G1 X78.131 Y88.873 E23.12619
G1 X78.18 Y88.723 E23.13879
G1 X78.359 Y88.239 E23.17998
G1 X78.49 Y87.924 E23.20721
G1 X78.773 Y87.326 E23.26002
G1 X78.879 Y87.126 E23.27809
G1 X79.183 Y86.613 E23.32569
G1 X79.286 Y86.455 E23.34075
G1 X79.597 Y86.018 E23.38356
G1 X79.783 Y85.78 E23.40767
G1 X80.219 Y85.264 E23.4616
G1 X80.359 Y85.113 E23.47804
G1 X80.796 Y84.687 E23.52675
G0 F9000 X81.6 Y84.03
G1 F1125 X81.6 Y157.531 E29.39392
G0 F9000 X83.2 Y158.48
G1 F1125 X83.2 Y83.079 E35.41275
G0 F9000 X84.8 Y82.492
G1 F1125 X84.8 Y159.07 E41.52554
G0 F9000 X86.4 Y159.347
G1 F1125 X86.4 Y82.213 E47.68271
G0 F9000 X88 Y82.156
G1 F1125 X88 Y159.406 E53.84914
G0 F9000 X89.6 Y159.406
G1 F1125 X89.6 Y82.156 E60.01557
G0 F9000 X91.2 Y82.156
G1 F1125 X91.2 Y159.406 E66.182
G0 F9000 X92.8 Y159.39
G1 F1125 X92.8 Y82.156 E72.34715
G0 F9000 X94.4 Y82.156
G1 F1125 X94.4 Y159.142 E78.4925
G0 F9000 X96 Y158.833
G1 F1125 X96 Y82.156 E84.61319
G0 F9000 X97.6 Y82.156
G1 F1125 X97.6 Y158.982 E90.74578
G0 F9000 X99.2 Y159.325
G1 F1125 X99.2 Y82.156 E96.90574
G0 F9000 X100.8 Y82.156
G1 F1125 X100.8 Y159.407 E103.07225
G0 F9000 X102.4 Y159.407
G1 F1125 X102.4 Y82.156 E109.23876
G0 F9000 X104 Y82.156
G1 F1125 X104 Y159.407 E115.40527
G0 F9000 X105.6 Y159.407
G1 F1125 X105.6 Y82.156 E121.57178
G0 F9000 X107.2 Y82.213
G1 F1125 X107.2 Y159.407 E127.73373
G0 F9000 X108.8 Y159.407
G1 F1125 X108.8 Y82.543 E133.86935
G0 F9000 X110.4 Y83.222
G1 F1125 X110.4 Y159.407 E139.95077
G0 F9000 X112 Y159.407
G1 F1125 X112 Y84.354 E145.94182
G0 F9000 X113.6 Y85.579
G1 F1125 X113.6 Y159.407 E151.83509
G0 F9000 X115.2 Y159.407
G1 F1125 X115.2 Y86.135 E157.68398
G0 F9000 X116.8 Y86.195
G1 F1125 X116.8 Y159.407 E163.52808
G0 F9000 X118.4 Y159.407
G1 F1125 X118.4 Y85.863 E169.39868
G0 F9000 X120 Y84.914
G1 F1125 X120 Y159.407 E175.34503
G0 F9000 X121.6 Y159.407
G1 F1125 X121.6 Y83.596 E181.39659
G0 F9000 X123.2 Y82.761
G1 F1125 X123.2 Y159.407 E187.51481
G0 F9000 X124.8 Y159.407
G1 F1125 X124.8 Y82.304 E193.6695
G0 F9000 X126.4 Y82.156
G1 F1125 X126.4 Y159.407 E199.83601
G0 F9000 X128 Y159.407
G1 F1125 X128 Y82.157 E206.00244
G0 F9000 X129.6 Y82.157
G1 F1125 X129.6 Y159.407 E212.16887
G0 F9000 X131.2 Y159.407
G1 F1125 X131.2 Y82.157 E218.3353
G0 F9000 X132.8 Y82.157
G1 F1125 X132.8 Y159.407 E224.50173
G0 F9000 X134.4 Y159.407
G1 F1125 X134.4 Y82.157 E230.66816
G0 F9000 X136 Y82.157
G1 F1125 X136 Y159.407 E236.83459
G0 F9000 X137.6 Y159.407
G1 F1125 X137.6 Y82.157 E243.00102
G0 F9000 X139.2 Y82.157
G1 F1125 X139.2 Y159.407 E249.16745
G0 F9000 X140.8 Y159.407
G1 F1125 X140.8 Y82.157 E255.33387
G0 F9000 X142.4 Y82.157
G1 F1125 X142.4 Y159.407 E261.5003
G0 F9000 X144 Y159.407
G1 F1125 X144 Y82.157 E267.66673
G0 F9000 X145.6 Y82.176
G1 F1125 X145.6 Y159.39 E273.83029
G0 F9000 X147.2 Y159.219
G1 F1125 X147.2 Y82.352 E279.96614
G0 F9000 X148.8 Y82.815
G1 F1125 X148.8 Y158.749 E286.02752
G0 F9000 X150.4 Y157.955
G1 F1125 X150.4 Y83.611 E291.96198
G0 F9000 X152 Y84.855
G1 F1125 X152 Y156.703 E297.6972
G0 F9000 X153.6 Y154.67
G1 F1125 X153.6 Y86.889 E303.10778
G1 F1500 E296.60778
G0 F9000 X154.308 Y86.004
G0 X153.186 Y84.546
G0 X151.886 Y83.352
G0 X150.464 Y82.413
G0 X148.728 Y81.651
G0 X147.618 Y81.345
G0 X146.497 Y81.167
G0 X145.274 Y81.093
G0 X87.169 Y81.098
G0 X85.734 Y81.213
G0 X84.069 Y81.594
G0 X82.346 Y82.309
G0 X80.864 Y83.251
G0 X80.143 Y83.889
G0 X79.416 Y84.566
G0 X80 Y85.523
G1 F1500 E303.10778
G1 F1125 X80 Y156.047 E308.73731
G0 F9000 X78.4 Y153.42
G1 F1125 X78.4 Y88.14 E313.94824
G1 F1500 E307.44824
G0 F300 X78.4 Y88.14 Z0.54
G0 F9000 X77.524 Y87.478
G0 X78.275 Y86.058
G0 X79.301 Y84.716
G0 X80.234 Y83.76
G0 X81.372 Y84.2
;TIME_ELAPSED:222.062008
;LAYER:-5
;TYPE:SUPPORT
G1 F1500 E313.94824
G1 F1125 X152.888 Y155.716 E324.03992
G1 X152.834 Y155.781 E324.04835
G1 X152.399 Y156.298 E324.11577
G1 X152.262 Y156.445 E324.13582
G1 X152.231 Y156.474 E324.14005
G1 X80.617 Y84.86 E334.24556
G1 X80.359 Y85.112 E334.28155
G1 X80.219 Y85.263 E334.30209
G1 X79.938 Y85.595 E334.34549
G1 X151.496 Y157.153 E344.4431
G1 X151.245 Y157.361 E344.47563
G1 X151.117 Y157.457 E344.49159
G1 X151.044 Y157.512 E344.50071
G1 X150.687 Y157.759 E344.54403
G1 X79.326 Y86.397 E354.61391
G1 X79.285 Y86.454 E354.62091
G1 X79.183 Y86.612 E354.63968
G1 X78.879 Y87.125 E354.69918
G1 X78.795 Y87.281 E354.71686
G1 X149.806 Y158.292 E364.73728
G1 X149.762 Y158.318 E364.74238
G1 X149.632 Y158.384 E364.75692
G1 X149.099 Y158.628 E364.81541
G1 X148.842 Y158.732 E364.84308
G1 X148.834 Y158.734 E364.8439
G1 X78.353 Y88.252 E374.7896
G1 X78.179 Y88.722 E374.83961
G1 X78.131 Y88.872 E374.85532
G1 X78.005 Y89.318 E374.90157
G1 X147.767 Y159.081 E384.74581
G1 X147.429 Y159.169 E384.78066
G1 X147.225 Y159.212 E384.80146
G1 X146.709 Y159.299 E384.85368
G1 X146.586 Y159.314 E384.86604
G1 X77.773 Y90.501 E394.5763
G1 X77.769 Y90.533 E394.57952
G1 X77.753 Y90.706 E394.59685
G1 X77.689 Y91.677 E394.69395
G1 X77.683 Y91.825 E394.70873
G1 X145.263 Y159.405 E404.245
G1 X145.243 Y159.405 E404.24699
G1 X143.849 Y159.405 E404.38608
G1 X77.682 Y93.239 E413.72289
G1 X77.682 Y94.653 E413.86398
G1 X142.435 Y159.405 E423.00126
G1 X141.021 Y159.405 E423.14235
G1 X77.682 Y96.067 E432.0801
G1 X77.682 Y97.481 E432.22119
G1 X139.606 Y159.405 E440.95933
G1 X138.192 Y159.405 E441.10042
G1 X77.682 Y98.895 E449.63903
G1 X77.682 Y100.31 E449.78022
G1 X136.778 Y159.405 E458.11924
G1 X135.364 Y159.405 E458.26033
G1 X77.682 Y101.724 E466.39981
G1 X77.682 Y103.138 E466.5409
G1 X133.95 Y159.405 E474.48085
G1 X132.535 Y159.405 E474.62204
G1 X77.682 Y104.552 E482.36239
G1 X77.682 Y105.967 E482.50358
G1 X131.121 Y159.405 E490.04433
G1 X129.707 Y159.405 E490.18542
G1 X77.682 Y107.381 E497.52664
G1 X77.682 Y108.795 E497.66773
G1 X128.293 Y159.405 E504.80942
G1 X126.878 Y159.405 E504.95061
G1 X77.682 Y110.209 E511.89269
G1 X77.682 Y111.623 E512.03378
G1 X125.464 Y159.405 E518.77634
G1 X124.05 Y159.405 E518.91743
G1 X77.682 Y113.038 E525.46038
G1 X77.682 Y114.452 E525.60147
G1 X122.636 Y159.405 E531.9449
G1 X121.222 Y159.405 E532.08599
G1 X77.682 Y115.866 E538.22988
G1 X77.682 Y117.28 E538.37097
G1 X119.807 Y159.405 E544.31526
G1 X118.393 Y159.405 E544.45635
G1 X77.682 Y118.694 E550.20111
G1 X77.682 Y120.109 E550.3423
G1 X116.979 Y159.405 E555.88746
G1 X115.565 Y159.405 E556.02855
G1 X77.682 Y121.523 E561.37418
G1 X77.682 Y122.937 E561.51527
G1 X114.151 Y159.405 E566.66137
G1 X112.736 Y159.405 E566.80256
G1 X77.682 Y124.351 E571.74906
G1 X77.682 Y125.766 E571.89025
G1 X111.322 Y159.405 E576.63715
G1 X109.908 Y159.405 E576.77823
G1 X77.682 Y127.18 E581.3256
G1 X77.682 Y128.594 E581.46669
G1 X108.494 Y159.405 E585.81453
G1 X107.08 Y159.405 E585.95562
G1 X77.682 Y130.008 E590.10392
G1 X77.682 Y131.422 E590.24501
G1 X105.665 Y159.405 E594.19371
G1 X104.251 Y159.405 E594.3348
G1 X77.682 Y132.837 E598.0839
G1 X77.682 Y134.251 E598.22499
G1 X102.837 Y159.405 E601.77457
G1 X101.423 Y159.405 E601.91566
G1 X77.682 Y135.665 E605.2657
G1 X77.682 Y137.079 E605.40679
G1 X99.992 Y159.389 E608.55497
G1 X99.596 Y159.372 E608.59452
G1 X99.4 Y159.353 E608.61417
G1 X98.806 Y159.268 E608.67404
G1 X98.587 Y159.226 E608.69629
G1 X98.36 Y159.171 E608.7196
G1 X77.682 Y138.493 E611.63748
G1 X77.682 Y139.908 E611.77867
G1 X96.603 Y158.828 E614.44856
G1 X96.469 Y158.816 E614.46198
G1 X95.786 Y158.839 E614.53017
G1 X95.28 Y158.92 E614.5813
G1 X77.682 Y141.322 E617.06457
G1 X77.682 Y142.736 E617.20566
G1 X94.144 Y159.198 E619.52863
G1 X93.746 Y159.28 E619.56917
G1 X93.553 Y159.31 E619.58866
G1 X92.929 Y159.379 E619.65131
G1 X92.911 Y159.379 E619.6531
G1 X77.682 Y144.15 E621.80208
G1 X77.682 Y145.565 E621.94327
G1 X91.523 Y159.405 E623.89631
G1 X90.109 Y159.405 E624.0374
G1 X77.682 Y146.979 E625.79091
G1 X77.682 Y148.393 E625.932
G1 X88.694 Y159.405 E627.48592
G1 X87.367 Y159.405 E627.61833
G1 X87.276 Y159.401 E627.62741
G1 X77.685 Y149.81 E628.98081
G1 X77.687 Y149.87 E628.9868
G1 X77.751 Y150.836 E629.0834
G1 X77.771 Y151.031 E629.10296
G1 X77.795 Y151.216 E629.12157
G1 X77.819 Y151.358 E629.13594
G1 X85.726 Y159.265 E630.2517
G1 X85.209 Y159.173 E630.3041
G1 X84.986 Y159.122 E630.32693
G1 X84.41 Y158.961 E630.3866
G1 X84.237 Y158.905 E630.40475
G1 X83.78 Y158.734 E630.45343
G1 X83.695 Y158.702 E630.4625
G1 X83.428 Y158.587 E630.4915
G1 X82.865 Y158.321 E630.55363
G1 X82.667 Y158.217 E630.57595
G1 X82.146 Y157.91 E630.63629
G1 X81.998 Y157.814 E630.65389
G1 X81.576 Y157.513 E630.70561
G1 X81.385 Y157.37 E630.72942
G1 X81.306 Y157.306 E630.73957
G1 X80.791 Y156.87 E630.80689
G1 X80.639 Y156.73 E630.82751
G1 X80.214 Y156.293 E630.88834
G1 X80.088 Y156.153 E630.90713
G1 X79.721 Y155.707 E630.96476
G1 X79.632 Y155.589 E630.97951
G1 X79.576 Y155.515 E630.98877
G1 X79.201 Y154.976 E631.05429
G1 X79.075 Y154.776 E631.07788
G1 X78.782 Y154.256 E631.13743
G1 X78.701 Y154.099 E631.15506
G1 X78.476 Y153.609 E631.20886
G1 X78.396 Y153.416 E631.22971
G1 X78.357 Y153.316 E631.24042
G0 F9000 X78.353 Y153.307
G1 F1125 X83.78 Y158.734 E632.00622
G1 F1500 E625.50622
G0 F9000 X83.308 Y159.695
G0 X82.154 Y159.15
G0 X80.732 Y158.211
G0 X79.432 Y157.017
G0 X78.31 Y155.559
G0 X77.507 Y154.048
G0 X77.05 Y152.794
G0 X76.714 Y151.157
G0 X76.619 Y149.738
G0 X76.626 Y91.635
G0 X76.753 Y90.137
G0 X77.11 Y88.573
G0 X77.817 Y86.858
G0 X78.746 Y85.379
G0 X79.505 Y84.479
G0 X80.634 Y83.431
G0 X81.373 Y84.2
