;FLAVOR:Marlin
;TIME:7308
;Filament used: 6.39047m
;Layer height: 0.2
;MINX:65.626
;MINY:86.548
;MINZ:0.24
;MAXX:149.954
;MAXY:170.877
;MAXZ:4.09
;Generated with Cura_SteamEngine 4.9.1
M140 S60
M105
M190 S60
M104 S200
M105
M109 S200
M82 ;absolute extrusion mode
; Ender 3 Custom Start G-code
G92 E0 ; Reset Extruder
G28 ; Home all axes
G1 Z2.0 F3000 ; Move Z Axis up little to prevent scratching of Heat Bed
G1 X0.1 Y20 Z0.3 F5000.0 ; Move to start position
G1 X0.1 Y200.0 Z0.3 F1500.0 E15 ; Draw the first line
G1 X0.4 Y200.0 Z0.3 F5000.0 ; Move to side a little
G1 X0.4 Y20 Z0.3 F1500.0 E30 ; Draw the second line
G92 E0 ; Reset Extruder
G1 Z2.0 F3000 ; Move Z Axis up little to prevent scratching of Heat Bed
G1 X5 Y20 Z0.3 F5000.0 ; Move over to prevent blob squish
G92 E0
G92 E0
G1 F1500 E-6.5
;LAYER_COUNT:15
;LAYER:-6
M107
G0 F9000 X70.967 Y90.243 Z0.24
;TYPE:SUPPORT-INTERFACE
G1 F1500 E0
G1 F1125 X71.507 Y89.829 E0.05432
G1 X71.581 Y89.773 E0.06172
G1 X72.12 Y89.399 E0.11409
G1 X72.32 Y89.272 E0.133
G1 X72.829 Y88.985 E0.17965
G1 X73.009 Y88.893 E0.19578
G1 X73.511 Y88.664 E0.23983
G1 X74.147 Y88.4 E0.2948
G1 X74.274 Y88.351 E0.30566
G1 X74.887 Y88.13 E0.35768
G1 X75.086 Y88.069 E0.37429
G1 X75.67 Y87.918 E0.42244
G1 X75.871 Y87.876 E0.43883
G1 X76.474 Y87.776 E0.48763
G1 X77.074 Y87.698 E0.53592
G1 X77.242 Y87.682 E0.54939
G1 X78.22 Y87.617 E0.62763
G1 X78.381 Y87.612 E0.64049
G1 X137.199 Y87.612 E5.3356
G1 X137.36 Y87.617 E5.34846
G1 X138.338 Y87.682 E5.4267
G1 X138.505 Y87.698 E5.44009
G1 X139.108 Y87.777 E5.48864
G1 X139.243 Y87.799 E5.49955
G1 X139.874 Y87.912 E5.55072
G1 X140.098 Y87.963 E5.56906
G1 X140.676 Y88.124 E5.61696
G1 X140.854 Y88.182 E5.6319
G1 X141.414 Y88.393 E5.67967
G1 X142.032 Y88.649 E5.73307
G1 X142.12 Y88.688 E5.74075
G1 X142.709 Y88.965 E5.79271
G1 X142.919 Y89.076 E5.81167
G1 X143.431 Y89.379 E5.85916
G1 X143.595 Y89.486 E5.87479
G1 X144.067 Y89.824 E5.92113
G1 X144.6 Y90.233 E5.97476
G1 X144.68 Y90.298 E5.98299
G1 X145.196 Y90.734 E6.03691
G1 X145.347 Y90.874 E6.05335
G1 X145.773 Y91.311 E6.10207
G1 X145.899 Y91.451 E6.1171
G1 X146.259 Y91.889 E6.16236
G1 X146.671 Y92.425 E6.21632
G1 X146.728 Y92.503 E6.22403
G1 X147.103 Y93.042 E6.27645
G1 X147.23 Y93.242 E6.29536
G1 X147.517 Y93.751 E6.342
G1 X147.609 Y93.931 E6.35814
G1 X147.838 Y94.433 E6.40218
G1 X148.102 Y95.069 E6.45715
G1 X148.151 Y95.196 E6.46802
G1 X148.373 Y95.812 E6.52029
G1 X148.432 Y96.004 E6.53632
G1 X148.582 Y96.584 E6.58414
G1 X148.63 Y96.81 E6.60258
G1 X148.7 Y97.232 E6.63673
G1 X148.726 Y97.405 E6.6507
G1 X148.804 Y97.996 E6.69828
G1 X148.82 Y98.159 E6.71135
G1 X148.885 Y99.142 E6.78999
G1 X148.89 Y99.291 E6.80189
G1 X148.89 Y158.121 E11.49796
G1 X148.885 Y158.282 E11.51082
G1 X148.822 Y159.242 E11.58761
G1 X148.802 Y159.435 E11.6031
G1 X148.729 Y159.997 E11.64834
G1 X148.701 Y160.177 E11.66288
G1 X148.589 Y160.806 E11.71388
G1 X148.543 Y161.007 E11.73034
G1 X148.379 Y161.595 E11.77907
G1 X148.319 Y161.781 E11.79467
G1 X148.149 Y162.238 E11.83359
G1 X147.863 Y162.932 E11.89351
G1 X147.814 Y163.044 E11.90327
G1 X147.536 Y163.634 E11.95533
G1 X147.421 Y163.85 E11.97486
G1 X147.123 Y164.353 E12.02153
G1 X147.01 Y164.527 E12.03809
G1 X146.706 Y164.952 E12.0798
G1 X146.269 Y165.522 E12.13714
G1 X146.204 Y165.602 E12.14536
G1 X145.768 Y166.118 E12.19929
G1 X145.631 Y166.265 E12.21533
G1 X145.191 Y166.695 E12.26444
G1 X145.057 Y166.816 E12.27885
G1 X144.613 Y167.181 E12.32473
G1 X144.073 Y167.595 E12.37905
G1 X143.999 Y167.651 E12.38646
G1 X143.46 Y168.025 E12.43882
G1 X143.26 Y168.152 E12.45774
G1 X142.751 Y168.439 E12.50438
G1 X142.571 Y168.531 E12.52052
G1 X142.076 Y168.757 E12.56395
G1 X141.433 Y169.024 E12.61953
G1 X141.306 Y169.073 E12.63039
G1 X140.693 Y169.294 E12.68241
G1 X140.494 Y169.355 E12.69902
G1 X139.91 Y169.506 E12.74717
G1 X139.709 Y169.548 E12.76357
G1 X139.106 Y169.648 E12.81236
G1 X138.506 Y169.726 E12.86066
G1 X138.338 Y169.742 E12.87413
G1 X137.36 Y169.807 E12.95237
G1 X137.199 Y169.812 E12.96522
G1 X78.381 Y169.812 E17.66033
G1 X78.22 Y169.807 E17.67319
G1 X77.242 Y169.742 E17.75143
G1 X77.075 Y169.726 E17.76482
G1 X76.472 Y169.647 E17.81337
G1 X76.337 Y169.625 E17.82429
G1 X75.706 Y169.512 E17.87546
G1 X75.482 Y169.461 E17.89379
G1 X74.904 Y169.3 E17.94169
G1 X74.726 Y169.242 E17.95663
G1 X74.166 Y169.031 E18.0044
G1 X73.548 Y168.775 E18.0578
G1 X73.46 Y168.736 E18.06548
G1 X72.871 Y168.459 E18.11744
G1 X72.661 Y168.348 E18.1364
G1 X72.149 Y168.045 E18.18389
G1 X71.985 Y167.938 E18.19952
G1 X71.513 Y167.6 E18.24586
G1 X70.98 Y167.191 E18.29949
G1 X70.9 Y167.126 E18.30772
G1 X70.384 Y166.69 E18.36164
G1 X70.233 Y166.55 E18.37808
G1 X69.807 Y166.113 E18.4268
G1 X69.681 Y165.973 E18.44183
G1 X69.321 Y165.535 E18.48709
G1 X68.907 Y164.995 E18.5414
G1 X68.851 Y164.921 E18.54881
G1 X68.477 Y164.382 E18.60118
G1 X68.35 Y164.182 E18.62009
G1 X68.057 Y163.662 E18.66774
G1 X67.977 Y163.505 E18.6818
G1 X67.721 Y162.944 E18.73103
G1 X67.433 Y162.24 E18.79174
G1 X67.211 Y161.625 E18.84394
G1 X67.146 Y161.417 E18.86133
G1 X66.989 Y160.806 E18.91169
G1 X66.956 Y160.648 E18.92457
G1 X66.869 Y160.131 E18.96642
G1 X66.778 Y159.435 E19.02245
G1 X66.758 Y159.242 E19.03794
G1 X66.695 Y158.282 E19.11474
G1 X66.69 Y158.133 E19.12664
G1 X66.69 Y99.303 E23.8227
G1 X66.695 Y99.142 E23.83556
G1 X66.759 Y98.171 E23.91324
G1 X66.776 Y97.997 E23.92719
G1 X66.855 Y97.394 E23.97574
G1 X66.879 Y97.244 E23.98787
G1 X66.99 Y96.628 E24.03783
G1 X67.038 Y96.413 E24.05541
G1 X67.203 Y95.822 E24.10439
G1 X67.26 Y95.648 E24.11901
G1 X67.47 Y95.088 E24.16675
G1 X67.762 Y94.39 E24.22715
G1 X68.043 Y93.793 E24.27982
G1 X68.154 Y93.583 E24.29878
G1 X68.457 Y93.071 E24.34627
G1 X68.564 Y92.907 E24.3619
G1 X68.844 Y92.513 E24.40048
G1 X68.903 Y92.433 E24.40842
G1 X69.311 Y91.902 E24.46187
G1 X69.376 Y91.822 E24.4701
G1 X69.812 Y91.306 E24.52403
G1 X69.952 Y91.155 E24.54046
G1 X70.389 Y90.729 E24.58918
G1 X70.523 Y90.608 E24.60359
G1 X70.967 Y90.243 E24.64947
G0 F9000 X70.4 Y90.719
G1 F1125 X70.4 Y166.703 E30.71484
G0 F9000 X72 Y167.947
G1 F1125 X72 Y89.482 E36.97826
G0 F9000 X73.6 Y88.627
G1 F1125 X73.6 Y168.796 E43.37769
G0 F9000 X75.2 Y169.382
G1 F1125 X75.2 Y88.039 E49.87084
G0 F9000 X76.8 Y87.733
G1 F1125 X76.8 Y169.689 E56.41293
G0 F9000 X78.4 Y169.812
G1 F1125 X78.4 Y87.612 E62.97449
G0 F9000 X80 Y87.612
G1 F1125 X80 Y169.812 E69.53604
G0 F9000 X81.6 Y169.812
G1 F1125 X81.6 Y87.612 E76.0976
G0 F9000 X83.2 Y87.612
G1 F1125 X83.2 Y169.812 E82.65916
G0 F9000 X84.8 Y169.812
G1 F1125 X84.8 Y87.612 E89.22072
G0 F9000 X86.4 Y87.612
G1 F1125 X86.4 Y169.812 E95.78228
G0 F9000 X88 Y169.812
G1 F1125 X88 Y87.612 E102.34384
G0 F9000 X89.6 Y87.612
G1 F1125 X89.6 Y169.812 E108.9054
G0 F9000 X91.2 Y169.812
G1 F1125 X91.2 Y87.612 E115.46696
G0 F9000 X92.8 Y87.612
G1 F1125 X92.8 Y169.812 E122.02852
G0 F9000 X94.4 Y169.812
G1 F1125 X94.4 Y87.612 E128.59008
G0 F9000 X96 Y87.612
G1 F1125 X96 Y169.812 E135.15164
G0 F9000 X97.6 Y169.812
G1 F1125 X97.6 Y87.612 E141.7132
G0 F9000 X99.2 Y87.612
G1 F1125 X99.2 Y169.812 E148.27476
G0 F9000 X100.8 Y169.812
G1 F1125 X100.8 Y87.612 E154.83632
G0 F9000 X102.4 Y87.612
G1 F1125 X102.4 Y169.812 E161.39788
G0 F9000 X104 Y169.812
G1 F1125 X104 Y87.612 E167.95944
G0 F9000 X105.6 Y87.612
G1 F1125 X105.6 Y169.812 E174.521
G0 F9000 X107.2 Y169.812
G1 F1125 X107.2 Y87.612 E181.08256
G0 F9000 X108.8 Y87.612
G1 F1125 X108.8 Y169.812 E187.64411
G0 F9000 X110.4 Y169.812
G1 F1125 X110.4 Y87.612 E194.20567
G0 F9000 X112 Y87.612
G1 F1125 X112 Y169.812 E200.76723
G0 F9000 X113.6 Y169.812
G1 F1125 X113.6 Y87.612 E207.32879
G0 F9000 X115.2 Y87.612
G1 F1125 X115.2 Y169.812 E213.89035
G0 F9000 X116.8 Y169.812
G1 F1125 X116.8 Y87.612 E220.45191
G0 F9000 X118.4 Y87.612
G1 F1125 X118.4 Y169.812 E227.01347
G0 F9000 X120 Y169.812
G1 F1125 X120 Y87.612 E233.57503
G0 F9000 X121.6 Y87.612
G1 F1125 X121.6 Y169.812 E240.13659
G0 F9000 X123.2 Y169.812
G1 F1125 X123.2 Y87.612 E246.69815
G0 F9000 X124.8 Y87.612
G1 F1125 X124.8 Y169.812 E253.25971
G0 F9000 X126.4 Y169.812
G1 F1125 X126.4 Y87.612 E259.82127
G0 F9000 X128 Y87.612
G1 F1125 X128 Y169.812 E266.38283
G0 F9000 X129.6 Y169.812
G1 F1125 X129.6 Y87.612 E272.94439
G0 F9000 X131.2 Y87.612
G1 F1125 X131.2 Y169.812 E279.50595
G0 F9000 X132.8 Y169.812
G1 F1125 X132.8 Y87.612 E286.06751
G0 F9000 X134.4 Y87.612
G1 F1125 X134.4 Y169.812 E292.62907
G0 F9000 X136 Y169.812
G1 F1125 X136 Y87.612 E299.19063
G0 F9000 X137.6 Y87.633
G1 F1125 X137.6 Y169.792 E305.74891
G0 F9000 X139.2 Y169.633
G1 F1125 X139.2 Y87.792 E312.28181
G0 F9000 X140.8 Y88.165
G1 F1125 X140.8 Y169.256 E318.75485
G0 F9000 X142.4 Y168.61
G1 F1125 X142.4 Y88.82 E325.12403
G0 F9000 X144 Y89.777
G1 F1125 X144 Y167.651 E331.34027
G0 F9000 X145.6 Y166.296
G1 F1125 X145.6 Y91.134 E337.34003
G0 F9000 X147.2 Y93.195
G1 F1125 X147.2 Y164.224 E343.00987
G1 F1500 E336.50987
G0 F9000 X148.349 Y164.371
G0 X149.14 Y162.628
G0 X149.539 Y161.321
G0 X149.784 Y160.143
G0 X148.8 Y159.451
G1 F1500 E343.00987
G1 F1125 X148.8 Y97.966 E347.91787
G1 F1500 E341.41787
G0 F9000 X149.855 Y97.827
G0 X149.62 Y96.349
G0 X149.092 Y94.679
G0 X148.459 Y93.255
G0 X147.525 Y91.79
G0 X146.555 Y90.588
G0 X145.255 Y89.394
G0 X143.986 Y88.471
G0 X142.446 Y87.669
G0 X140.98 Y87.104
G0 X139.256 Y86.723
G0 X137.221 Y86.548
G0 X78.177 Y86.554
G0 X76.156 Y86.749
G0 X74.544 Y87.123
G0 X72.333 Y88.043
G0 X70.871 Y88.975
G0 X69.666 Y89.947
G0 X68.99 Y90.684
G0 X68.054 Y91.79
G0 X68.8 Y92.574
G1 F1500 E347.91787
G1 F1125 X68.8 Y164.847 E353.68701
G0 F9000 X67.2 Y161.589
G1 F1125 X67.2 Y95.832 E358.93602
G1 F1500 E352.43602
G0 F300 X67.2 Y95.832 Z0.54
G0 F9000 X66.009 Y96.143
G0 X65.699 Y98.08
G0 X65.626 Y99.281
G0 X65.632 Y158.325
G0 X65.818 Y160.3
G0 X66.201 Y161.959
G0 X67.115 Y164.158
G0 X68.053 Y165.631
G0 X69.321 Y165.534
;TIME_ELAPSED:254.093396
;LAYER:-5
;TYPE:SUPPORT
G1 F1500 E358.93602
G1 F1125 X69.681 Y165.972 E358.99259
G1 X69.806 Y166.112 E359.01132
G1 X70.232 Y166.549 E359.07221
G1 X70.383 Y166.689 E359.09276
G1 X70.899 Y167.125 E359.16016
G1 X70.98 Y167.19 E359.17053
G1 X71.167 Y167.333 E359.19402
G1 X69.167 Y165.333 E359.47624
G1 X68.906 Y164.994 E359.51893
G1 X68.85 Y164.919 E359.52827
G1 X68.476 Y164.381 E359.59364
G1 X68.349 Y164.181 E359.61728
G1 X68.057 Y163.661 E359.67679
G1 X67.977 Y163.504 E359.69437
G1 X67.721 Y162.942 E359.75599
G1 X67.433 Y162.239 E359.8318
G1 X67.402 Y162.155 E359.84073
G1 X74.345 Y169.097 E360.82039
G1 X74.726 Y169.241 E360.86103
G1 X74.903 Y169.299 E360.87962
G1 X75.481 Y169.46 E360.93949
G1 X75.706 Y169.511 E360.96251
G1 X76.274 Y169.612 E361.02007
G1 X66.883 Y160.221 E362.34524
G1 X66.868 Y160.13 E362.35445
G1 X66.777 Y159.434 E362.42448
G1 X66.757 Y159.241 E362.44384
G1 X66.718 Y158.642 E362.50374
G1 X77.858 Y169.781 E364.07564
G1 X78.22 Y169.806 E364.11185
G1 X78.38 Y169.81 E364.12782
G1 X79.301 Y169.81 E364.21972
G1 X66.69 Y157.199 E365.99927
G1 X66.69 Y155.785 E366.14036
G1 X80.715 Y169.81 E368.11943
G1 X82.129 Y169.81 E368.26052
G1 X66.69 Y154.371 E370.43913
G1 X66.69 Y152.957 E370.58022
G1 X83.543 Y169.81 E372.95836
G1 X84.958 Y169.81 E373.09955
G1 X66.69 Y151.542 E375.67737
G1 X66.69 Y150.128 E375.81845
G1 X86.372 Y169.81 E378.5958
G1 X87.786 Y169.81 E378.73689
G1 X66.69 Y148.714 E381.71376
G1 X66.69 Y147.3 E381.85485
G1 X89.2 Y169.81 E385.03125
G1 X90.615 Y169.81 E385.17244
G1 X66.69 Y145.886 E388.54845
G1 X66.69 Y144.471 E388.68964
G1 X92.029 Y169.81 E392.26524
G1 X93.443 Y169.81 E392.40633
G1 X66.69 Y143.057 E396.18147
G1 X66.69 Y141.643 E396.32256
G1 X94.857 Y169.81 E400.29723
G1 X96.271 Y169.81 E400.43832
G1 X66.69 Y140.229 E404.61252
G1 X66.69 Y138.814 E404.75371
G1 X97.686 Y169.81 E409.12758
G1 X99.1 Y169.81 E409.26867
G1 X66.69 Y137.4 E413.84207
G1 X66.69 Y135.986 E413.98316
G1 X100.514 Y169.81 E418.75609
G1 X101.928 Y169.81 E418.89718
G1 X66.69 Y134.572 E423.86964
G1 X66.69 Y133.158 E424.01073
G1 X103.342 Y169.81 E429.18272
G1 X104.757 Y169.81 E429.32391
G1 X66.69 Y131.743 E434.69558
G1 X66.69 Y130.329 E434.83667
G1 X106.171 Y169.81 E440.40786
G1 X107.585 Y169.81 E440.54895
G1 X66.69 Y128.915 E446.31968
G1 X66.69 Y127.501 E446.46077
G1 X108.999 Y169.81 E452.43102
G1 X110.414 Y169.81 E452.57221
G1 X66.69 Y126.087 E458.74207
G1 X66.69 Y124.672 E458.88326
G1 X111.828 Y169.81 E465.25272
G1 X113.242 Y169.81 E465.39381
G1 X66.69 Y123.258 E471.9628
G1 X66.69 Y121.844 E472.10389
G1 X114.656 Y169.81 E478.87241
G1 X116.07 Y169.81 E479.0135
G1 X66.69 Y120.43 E485.98155
G1 X66.69 Y119.015 E486.12274
G1 X117.485 Y169.81 E493.29046
G1 X118.899 Y169.81 E493.43155
G1 X66.69 Y117.601 E500.79881
G1 X66.69 Y116.187 E500.9399
G1 X120.313 Y169.81 E508.50668
G1 X121.727 Y169.81 E508.64777
G1 X66.69 Y114.773 E516.41409
G1 X66.69 Y113.359 E516.55518
G1 X123.141 Y169.81 E524.52102
G1 X124.556 Y169.81 E524.66221
G1 X66.69 Y111.944 E532.82773
G1 X66.69 Y110.53 E532.96882
G1 X125.97 Y169.81 E541.33387
G1 X127.384 Y169.81 E541.47496
G1 X66.69 Y109.116 E550.03953
G1 X66.69 Y107.702 E550.18062
G1 X128.798 Y169.81 E558.94473
G1 X130.213 Y169.81 E559.08592
G1 X66.69 Y106.288 E568.04963
G1 X66.69 Y104.873 E568.19082
G1 X131.627 Y169.81 E577.35414
G1 X133.041 Y169.81 E577.49522
G1 X66.69 Y103.459 E586.85807
G1 X66.69 Y102.045 E586.99916
G1 X134.455 Y169.81 E596.56153
G1 X135.869 Y169.81 E596.70262
G1 X66.69 Y100.631 E606.46452
G1 X66.69 Y99.301 E606.59723
G1 X66.692 Y99.219 E606.60542
G1 X137.281 Y169.808 E616.56629
G1 X137.359 Y169.806 E616.57407
G1 X138.338 Y169.74 E616.67198
G1 X138.505 Y169.724 E616.68872
G1 X138.599 Y169.711 E616.69819
G1 X66.788 Y97.901 E626.83142
G1 X66.854 Y97.393 E626.88254
G1 X66.878 Y97.243 E626.8977
G1 X66.979 Y96.678 E626.95497
G1 X139.824 Y169.523 E637.23418
G1 X139.91 Y169.505 E637.24295
G1 X140.494 Y169.354 E637.30314
G1 X140.693 Y169.292 E637.32394
G1 X140.924 Y169.209 E637.34843
G1 X67.287 Y95.571 E647.73947
G1 X67.47 Y95.086 E647.7912
G1 X67.689 Y94.559 E647.84814
G1 X141.941 Y168.811 E658.3259
G1 X142.076 Y168.756 E658.34045
G1 X142.571 Y168.53 E658.39474
G1 X142.75 Y168.438 E658.41482
G1 X142.898 Y168.354 E658.4318
G1 X68.143 Y93.599 E668.98054
G1 X68.153 Y93.582 E668.98251
G1 X68.457 Y93.07 E669.04192
G1 X68.563 Y92.906 E669.06141
G1 X68.688 Y92.729 E669.08303
G1 X143.768 Y167.809 E679.67763
G1 X143.998 Y167.65 E679.70553
G1 X144.073 Y167.594 E679.71487
G1 X144.578 Y167.206 E679.77841
G1 X69.294 Y91.921 E690.40187
G1 X69.31 Y91.901 E690.40442
G1 X69.376 Y91.821 E690.41477
G1 X69.811 Y91.305 E690.48211
G1 X69.946 Y91.159 E690.50196
G1 X145.337 Y166.55 E701.14044
G1 X145.63 Y166.264 E701.18129
G1 X145.767 Y166.117 E701.20134
G1 X146.02 Y165.819 E701.24035
G1 X70.679 Y90.478 E711.87178
G1 X70.966 Y90.242 E711.90885
G1 X71.471 Y89.856 E711.97228
G1 X146.646 Y165.03 E722.58021
G1 X146.706 Y164.951 E722.59011
G1 X147.009 Y164.526 E722.64219
G1 X147.122 Y164.352 E722.66289
G1 X147.219 Y164.19 E722.68173
G1 X72.308 Y89.278 E733.25255
G1 X72.32 Y89.27 E733.25399
G1 X72.828 Y88.984 E733.31216
G1 X73.009 Y88.892 E733.33242
G1 X73.234 Y88.79 E733.35707
G1 X147.709 Y163.266 E743.86637
G1 X147.813 Y163.043 E743.89092
G1 X147.863 Y162.931 E743.90316
G1 X148.133 Y162.275 E743.97394
G1 X74.227 Y88.369 E754.40288
G1 X74.274 Y88.35 E754.40794
G1 X74.886 Y88.129 E754.47286
G1 X75.086 Y88.068 E754.49373
G1 X75.288 Y88.016 E754.51454
G1 X148.485 Y161.213 E764.84343
G1 X148.542 Y161.006 E764.86485
G1 X148.589 Y160.805 E764.88545
G1 X148.701 Y160.175 E764.94929
G1 X148.723 Y160.037 E764.96324
G1 X76.463 Y87.777 E775.1599
G1 X76.474 Y87.775 E775.16102
G1 X77.073 Y87.697 E775.22129
G1 X77.241 Y87.681 E775.23813
G1 X77.748 Y87.648 E775.28883
G1 X148.854 Y158.753 E785.32258
G1 X148.884 Y158.28 E785.36987
G1 X148.889 Y158.12 E785.38584
G1 X148.889 Y157.375 E785.46018
G1 X79.126 Y87.611 E795.30456
G1 X80.54 Y87.611 E795.44565
G1 X148.889 Y155.96 E805.09044
G1 X148.889 Y154.546 E805.23153
G1 X81.955 Y87.611 E814.67671
G1 X83.369 Y87.611 E814.8178
G1 X148.889 Y153.132 E824.06345
G1 X148.889 Y151.718 E824.20454
G1 X84.783 Y87.611 E833.25066
G1 X86.197 Y87.611 E833.39174
G1 X148.889 Y150.304 E842.23833
G1 X148.889 Y148.889 E842.37952
