;FLAVOR:Marlin
;TIME:6731
;Filament used: 6.11338m
;Layer height: 0.2
;MINX:68.74
;MINY:73.089
;MINZ:0.24
;MAXX:146.208
;MAXY:150.45
;MAXZ:16.14
;Generated with Cura_SteamEngine 4.9.1
M140 S60
M105
M190 S60
M104 S200
M105
M109 S200
M82 ;absolute extrusion mode
; Ender 3 Custom Start G-code
G92 E0 ; Reset Extruder
G28 ; Home all axes
G1 Z2.0 F3000 ; Move Z Axis up little to prevent scratching of Heat Bed
G1 X0.1 Y20 Z0.3 F5000.0 ; Move to start position
G1 X0.1 Y200.0 Z0.3 F1500.0 E15 ; Draw the first line
G1 X0.4 Y200.0 Z0.3 F5000.0 ; Move to side a little
G1 X0.4 Y20 Z0.3 F1500.0 E30 ; Draw the second line
G92 E0 ; Reset Extruder
G1 Z2.0 F3000 ; Move Z Axis up little to prevent scratching of Heat Bed
G1 X5 Y20 Z0.3 F5000.0 ; Move over to prevent blob squish
G92 E0
G92 E0
G1 F1500 E-6.5
;LAYER_COUNT:75
;LAYER:-6
M107
G0 F9000 X72.821 Y76.684 Z0.24
;TYPE:SUPPORT-INTERFACE
G1 F1500 E0
G1 F1125 X72.955 Y76.563 E0.01441
G1 X73.398 Y76.198 E0.06023
G1 X73.599 Y76.046 E0.08035
G1 X74.138 Y75.672 E0.13272
G1 X74.338 Y75.545 E0.15163
G1 X74.858 Y75.252 E0.19927
G1 X75.015 Y75.172 E0.21334
G1 X75.55 Y74.928 E0.26027
G1 X75.79 Y74.831 E0.28094
G1 X76.41 Y74.607 E0.33356
G1 X76.621 Y74.541 E0.35121
G1 X77.227 Y74.385 E0.40116
G1 X77.379 Y74.353 E0.41356
G1 X77.895 Y74.266 E0.45533
G1 X78.278 Y74.221 E0.48611
G1 X79.238 Y74.158 E0.56291
G1 X79.399 Y74.153 E0.57577
G1 X135.461 Y74.154 E5.05088
G1 X135.622 Y74.159 E5.06373
G1 X136.6 Y74.224 E5.14198
G1 X136.98 Y74.272 E5.17255
G1 X137.611 Y74.385 E5.22372
G1 X137.835 Y74.435 E5.24204
G1 X138.42 Y74.599 E5.29054
G1 X138.577 Y74.65 E5.30372
G1 X139.06 Y74.829 E5.34483
G1 X139.384 Y74.965 E5.37288
G1 X139.966 Y75.239 E5.42423
G1 X140.182 Y75.354 E5.44376
G1 X140.687 Y75.653 E5.49061
G1 X140.859 Y75.765 E5.507
G1 X141.302 Y76.083 E5.55053
G1 X141.52 Y76.253 E5.57259
G1 X142.036 Y76.689 E5.62652
G1 X142.187 Y76.829 E5.64295
G1 X142.613 Y77.266 E5.69167
G1 X142.739 Y77.406 E5.7067
G1 X143.099 Y77.844 E5.75196
G1 X143.251 Y78.045 E5.77208
G1 X143.625 Y78.583 E5.82438
G1 X143.752 Y78.783 E5.84329
G1 X144.045 Y79.303 E5.89094
G1 X144.125 Y79.46 E5.905
G1 X144.381 Y80.021 E5.95423
G1 X144.466 Y80.235 E5.97261
G1 X144.69 Y80.855 E6.02523
G1 X144.756 Y81.066 E6.04288
G1 X144.913 Y81.677 E6.09323
G1 X144.943 Y81.82 E6.1049
G1 X145.031 Y82.341 E6.14707
G1 X145.076 Y82.723 E6.17778
G1 X145.139 Y83.683 E6.25457
G1 X145.144 Y83.832 E6.26647
G1 X145.143 Y139.702 E10.72626
G1 X145.138 Y139.863 E10.73912
G1 X145.074 Y140.834 E10.8168
G1 X145.028 Y141.213 E10.84727
G1 X144.912 Y141.852 E10.89911
G1 X144.864 Y142.067 E10.9167
G1 X144.697 Y142.663 E10.9661
G1 X144.647 Y142.818 E10.9791
G1 X144.468 Y143.301 E11.02022
G1 X144.336 Y143.617 E11.04756
G1 X144.059 Y144.206 E11.09952
G1 X143.952 Y144.407 E11.11769
G1 X143.645 Y144.926 E11.16583
G1 X143.532 Y145.1 E11.18239
G1 X143.229 Y145.524 E11.22399
G1 X143.044 Y145.761 E11.24799
G1 X142.608 Y146.277 E11.30191
G1 X142.471 Y146.424 E11.31795
G1 X142.031 Y146.854 E11.36706
G1 X141.897 Y146.975 E11.38147
G1 X141.454 Y147.34 E11.42729
G1 X141.253 Y147.492 E11.44741
G1 X140.714 Y147.866 E11.49978
G1 X140.514 Y147.993 E11.51869
G1 X139.994 Y148.286 E11.56633
G1 X139.837 Y148.366 E11.5804
G1 X139.302 Y148.61 E11.62734
G1 X139.062 Y148.707 E11.648
G1 X138.442 Y148.931 E11.70062
G1 X138.233 Y148.996 E11.71809
G1 X137.625 Y149.153 E11.76822
G1 X137.473 Y149.185 E11.78062
G1 X136.957 Y149.272 E11.82239
G1 X136.574 Y149.317 E11.85317
G1 X135.614 Y149.38 E11.92997
G1 X135.453 Y149.385 E11.94283
G1 X130.406 Y149.385 E12.3457
G1 X129.634 Y149.351 E12.40738
G1 X129.438 Y149.332 E12.4231
G1 X128.843 Y149.247 E12.47108
G1 X128.624 Y149.205 E12.48888
G1 X128.047 Y149.067 E12.53624
G1 X127.836 Y149.005 E12.55379
G1 X127.287 Y148.818 E12.60009
G1 X127.077 Y148.735 E12.61811
G1 X126.545 Y148.494 E12.66473
G1 X126.353 Y148.396 E12.68194
G1 X126.063 Y148.231 E12.70857
G1 X125.461 Y147.936 E12.76209
G1 X124.815 Y147.715 E12.81659
G1 X124.147 Y147.578 E12.87102
G1 X123.465 Y147.525 E12.92563
G1 X122.784 Y147.56 E12.98006
G1 X122.112 Y147.68 E13.03455
G1 X121.456 Y147.885 E13.08941
G1 X121.184 Y148.018 E13.11358
G1 X121.172 Y147.996 E13.11558
G1 X120.167 Y148.526 E13.20628
G1 X119.987 Y148.61 E13.22213
G1 X119.44 Y148.837 E13.26941
G1 X119.239 Y148.909 E13.28645
G1 X118.679 Y149.081 E13.33321
G1 X118.449 Y149.139 E13.35215
G1 X117.869 Y149.259 E13.39942
G1 X117.677 Y149.289 E13.41494
G1 X117.053 Y149.358 E13.46505
G1 X116.871 Y149.371 E13.47962
G1 X116.359 Y149.385 E13.5205
G1 X79.391 Y149.384 E16.47145
G1 X79.23 Y149.379 E16.4843
G1 X78.252 Y149.314 E16.56255
G1 X77.872 Y149.266 E16.59312
G1 X77.241 Y149.153 E16.64429
G1 X77.017 Y149.103 E16.66261
G1 X76.43 Y148.938 E16.71128
G1 X76.273 Y148.887 E16.72446
G1 X75.792 Y148.709 E16.7654
G1 X75.475 Y148.576 E16.79284
G1 X74.886 Y148.299 E16.8448
G1 X74.67 Y148.184 E16.86433
G1 X74.165 Y147.885 E16.91118
G1 X73.993 Y147.773 E16.92756
G1 X73.551 Y147.456 E16.97098
G1 X73.332 Y147.285 E16.99316
G1 X72.816 Y146.849 E17.04709
G1 X72.665 Y146.709 E17.06352
G1 X72.239 Y146.272 E17.11224
G1 X72.113 Y146.132 E17.12727
G1 X71.746 Y145.686 E17.17338
G1 X71.601 Y145.494 E17.19258
G1 X71.227 Y144.955 E17.24495
G1 X71.1 Y144.755 E17.26386
G1 X70.807 Y144.235 E17.31151
G1 X70.727 Y144.078 E17.32557
G1 X70.502 Y143.589 E17.36854
G1 X70.383 Y143.295 E17.39386
G1 X70.157 Y142.668 E17.44706
G1 X70.096 Y142.472 E17.46345
G1 X69.939 Y141.861 E17.5138
G1 X69.906 Y141.703 E17.52669
G1 X69.819 Y141.186 E17.56854
G1 X69.776 Y140.815 E17.59835
G1 X69.713 Y139.849 E17.67563
G1 X69.708 Y139.706 E17.68705
G1 X69.709 Y83.836 E22.14683
G1 X69.714 Y83.675 E22.15969
G1 X69.778 Y82.704 E22.23737
G1 X69.805 Y82.453 E22.25752
G1 X69.827 Y82.315 E22.26867
G1 X69.94 Y81.686 E22.31969
G1 X69.988 Y81.471 E22.33727
G1 X70.155 Y80.875 E22.38668
G1 X70.205 Y80.72 E22.39968
G1 X70.388 Y80.226 E22.44173
G1 X70.516 Y79.921 E22.46814
G1 X70.801 Y79.317 E22.52145
G1 X70.913 Y79.107 E22.54045
G1 X71.208 Y78.61 E22.58658
G1 X71.311 Y78.452 E22.60164
G1 X71.623 Y78.014 E22.64456
G1 X71.808 Y77.777 E22.66856
G1 X72.244 Y77.261 E22.72249
G1 X72.384 Y77.11 E22.73892
G1 X72.821 Y76.684 E22.78764
G0 F9000 X73.6 Y76.045
G1 F1125 X73.6 Y147.491 E28.49077
G0 F9000 X75.2 Y148.446
G1 F1125 X75.2 Y75.087 E34.3466
G0 F9000 X76.8 Y74.494
G1 F1125 X76.8 Y149.042 E40.29734
G0 F9000 X78.4 Y149.323
G1 F1125 X78.4 Y74.212 E46.29303
G0 F9000 X80 Y74.154
G1 F1125 X80 Y149.384 E52.29821
G0 F9000 X81.6 Y149.384
G1 F1125 X81.6 Y74.154 E58.3034
G0 F9000 X83.2 Y74.154
G1 F1125 X83.2 Y149.384 E64.30858
G0 F9000 X84.8 Y149.384
G1 F1125 X84.8 Y74.154 E70.31376
G0 F9000 X86.4 Y74.154
G1 F1125 X86.4 Y149.384 E76.31895
G0 F9000 X88 Y149.384
G1 F1125 X88 Y74.154 E82.32413
G0 F9000 X89.6 Y74.154
G1 F1125 X89.6 Y149.384 E88.32932
G0 F9000 X91.2 Y149.384
G1 F1125 X91.2 Y74.154 E94.3345
G0 F9000 X92.8 Y74.154
G1 F1125 X92.8 Y149.384 E100.33968
G0 F9000 X94.4 Y149.384
G1 F1125 X94.4 Y74.154 E106.34487
G0 F9000 X96 Y74.154
G1 F1125 X96 Y149.384 E112.35005
G0 F9000 X97.6 Y149.384
G1 F1125 X97.6 Y74.154 E118.35524
G0 F9000 X99.2 Y74.154
G1 F1125 X99.2 Y149.384 E124.36042
G0 F9000 X100.8 Y149.384
G1 F1125 X100.8 Y74.154 E130.3656
G0 F9000 X102.4 Y74.154
G1 F1125 X102.4 Y149.384 E136.37079
G0 F9000 X104 Y149.384
G1 F1125 X104 Y74.154 E142.37597
G0 F9000 X105.6 Y74.154
G1 F1125 X105.6 Y149.384 E148.38116
G0 F9000 X107.2 Y149.384
G1 F1125 X107.2 Y74.154 E154.38634
G0 F9000 X108.8 Y74.154
G1 F1125 X108.8 Y149.384 E160.39152
G0 F9000 X110.4 Y149.384
G1 F1125 X110.4 Y74.154 E166.39671
G0 F9000 X112 Y74.154
G1 F1125 X112 Y149.384 E172.40189
G0 F9000 X113.6 Y149.384
G1 F1125 X113.6 Y74.154 E178.40707
G0 F9000 X115.2 Y74.154
G1 F1125 X115.2 Y149.384 E184.41226
G0 F9000 X116.8 Y149.373
G1 F1125 X116.8 Y74.154 E190.41656
G0 F9000 X118.4 Y74.154
G1 F1125 X118.4 Y149.15 E196.40307
G0 F9000 X120 Y148.604
G1 F1125 X120 Y74.154 E202.34599
G0 F9000 X121.6 Y74.154
G1 F1125 X121.6 Y147.84 E208.22793
G0 F9000 X123.2 Y147.539
G1 F1125 X123.2 Y74.154 E214.08583
G0 F9000 X124.8 Y74.154
G1 F1125 X124.8 Y147.711 E219.95747
G0 F9000 X126.4 Y148.419
G1 F1125 X126.4 Y74.154 E225.88562
G0 F9000 X128 Y74.154
G1 F1125 X128 Y149.053 E231.86439
G0 F9000 X129.6 Y149.347
G1 F1125 X129.6 Y74.154 E237.86662
G0 F9000 X131.2 Y74.154
G1 F1125 X131.2 Y149.385 E243.87188
G0 F9000 X132.8 Y149.385
G1 F1125 X132.8 Y74.154 E249.87714
G0 F9000 X134.4 Y74.154
G1 F1125 X134.4 Y149.385 E255.88241
G0 F9000 X136 Y149.355
G1 F1125 X136 Y74.185 E261.8828
G0 F9000 X137.6 Y74.384
G1 F1125 X137.6 Y149.159 E267.85167
G0 F9000 X139.2 Y148.652
G1 F1125 X139.2 Y74.888 E273.73983
G0 F9000 X140.8 Y75.727
G1 F1125 X140.8 Y147.807 E279.49357
G0 F9000 X142.4 Y146.494
G1 F1125 X142.4 Y77.048 E285.03705
G0 F9000 X144 Y79.224
G1 F1125 X144 Y144.317 E290.23305
G1 F1500 E283.73305
G0 F9000 X144.875 Y144.936
G0 X143.948 Y146.336
G0 X142.754 Y147.636
G0 X141.296 Y148.758
G0 X139.783 Y149.562
G0 X138.531 Y150.018
G0 X136.895 Y150.354
G0 X135.475 Y150.449
G0 X79.187 Y150.442
G0 X77.691 Y150.315
G0 X76.125 Y149.958
G0 X74.41 Y149.251
G0 X72.953 Y148.337
G0 X72.374 Y147.851
G0 X71.457 Y146.995
G0 X72 Y145.994
G1 F1500 E290.23305
G1 F1125 X72 Y77.549 E295.69663
G0 F9000 X70.4 Y80.197
G1 F1125 X70.4 Y143.337 E300.73673
G0 F300 X70.4 Y143.337 Z0.54
G0 F9000 X71.1 Y144.753
;TIME_ELAPSED:212.601269
;LAYER:-5
;TYPE:SUPPORT
G1 F1125 X71.226 Y144.954 E300.7604
G1 X71.6 Y145.493 E300.82587
G1 X71.657 Y145.567 E300.83519
G1 X71.745 Y145.685 E300.84987
G1 X72.112 Y146.131 E300.9075
G1 X72.238 Y146.271 E300.9263
G1 X72.664 Y146.708 E300.98719
G1 X72.815 Y146.848 E301.00774
G1 X73.331 Y147.283 E301.07508
G1 X73.41 Y147.348 E301.08529
G1 X73.551 Y147.455 E301.10295
G1 X73.993 Y147.772 E301.15722
G1 X74.165 Y147.884 E301.1777
G1 X74.606 Y148.145 E301.22883
G1 X70.951 Y144.49 E301.74459
G1 X70.806 Y144.234 E301.77395
G1 X70.727 Y144.077 E301.79149
G1 X70.502 Y143.588 E301.8452
G1 X70.422 Y143.395 E301.86604
G1 X70.383 Y143.294 E301.87685
G1 X70.157 Y142.667 E301.94335
G1 X70.096 Y142.471 E301.96383
G1 X70.009 Y142.134 E301.99856
G1 X76.961 Y149.086 E302.97956
G1 X77.016 Y149.101 E302.98525
G1 X77.24 Y149.152 E303.00817
G1 X77.871 Y149.265 E303.07214
G1 X78.081 Y149.297 E303.09333
G1 X78.251 Y149.313 E303.11037
G1 X78.626 Y149.337 E303.14786
G1 X69.752 Y140.463 E304.40008
G1 X69.712 Y139.848 E304.46158
G1 X69.708 Y139.705 E304.47585
G1 X69.708 Y139.004 E304.5458
G1 X80.086 Y149.383 E306.01032
G1 X81.501 Y149.383 E306.1515
G1 X69.708 Y137.59 E307.81562
G1 X69.708 Y136.176 E307.95671
G1 X82.915 Y149.383 E309.82036
G1 X84.329 Y149.383 E309.96145
G1 X69.708 Y134.761 E312.02471
G1 X69.708 Y133.347 E312.16579
G1 X85.743 Y149.383 E314.42858
G1 X87.157 Y149.383 E314.56967
G1 X69.708 Y131.933 E317.03198
G1 X69.708 Y130.519 E317.17307
G1 X88.572 Y149.383 E319.83498
G1 X89.986 Y149.383 E319.97607
G1 X69.708 Y129.104 E322.83759
G1 X69.708 Y127.69 E322.97868
G1 X91.4 Y149.383 E326.03972
G1 X92.814 Y149.383 E326.18081
G1 X69.708 Y126.276 E329.44139
G1 X69.708 Y124.862 E329.58248
G1 X94.229 Y149.383 E333.04266
G1 X95.643 Y149.383 E333.18375
G1 X69.708 Y123.448 E336.84346
G1 X69.708 Y122.033 E336.98464
G1 X97.057 Y149.383 E340.84395
G1 X98.471 Y149.383 E340.98504
G1 X69.708 Y120.619 E345.04388
G1 X69.708 Y119.205 E345.18497
G1 X99.885 Y149.383 E349.44335
G1 X101.3 Y149.383 E349.58453
G1 X69.708 Y117.791 E354.04251
G1 X69.708 Y116.377 E354.1836
G1 X102.714 Y149.383 E358.8411
G1 X104.128 Y149.383 E358.98219
G1 X69.708 Y114.962 E363.83929
G1 X69.708 Y113.548 E363.98038
G1 X105.542 Y149.383 E369.03702
G1 X106.956 Y149.383 E369.17811
G1 X69.708 Y112.134 E374.43427
G1 X69.708 Y110.72 E374.57536
G1 X108.371 Y149.383 E380.03113
G1 X109.785 Y149.383 E380.17222
G1 X69.708 Y109.305 E385.82759
G1 X69.708 Y107.891 E385.96868
G1 X111.199 Y149.383 E391.82358
G1 X112.613 Y149.383 E391.96467
G1 X69.708 Y106.477 E398.01909
G1 X69.708 Y105.063 E398.16018
G1 X114.028 Y149.383 E404.41422
G1 X115.442 Y149.383 E404.5553
G1 X69.708 Y103.649 E411.00887
G1 X69.708 Y102.234 E411.15006
G1 X116.843 Y149.37 E417.80138
G1 X116.871 Y149.369 E417.80418
G1 X117.053 Y149.357 E417.82238
G1 X117.676 Y149.288 E417.88492
G1 X117.869 Y149.258 E417.90441
G1 X118.098 Y149.21 E417.92776
G1 X69.708 Y100.82 E424.75611
G1 X69.708 Y99.406 E424.8972
G1 X119.216 Y148.914 E431.88331
G1 X119.239 Y148.908 E431.88568
G1 X119.44 Y148.836 E431.90699
G1 X119.986 Y148.609 E431.96599
G1 X120.167 Y148.524 E431.98594
G1 X120.215 Y148.499 E431.99134
G1 X69.708 Y97.992 E439.11842
G1 X69.708 Y96.578 E439.25951
G1 X121.14 Y148.01 E446.51712
G1 X121.171 Y147.995 E446.52056
G1 X121.183 Y148.017 E446.52306
G1 X121.455 Y147.884 E446.55327
G1 X122.111 Y147.679 E446.62185
G1 X122.206 Y147.662 E446.63148
G1 X69.708 Y95.163 E454.03959
G1 X69.708 Y93.749 E454.18067
G1 X123.483 Y147.525 E461.76898
G1 X124.146 Y147.577 E461.83534
G1 X124.814 Y147.713 E461.90336
G1 X125.227 Y147.855 E461.94693
G1 X69.708 Y92.335 E469.78134
G1 X69.708 Y90.921 E469.92242
G1 X127.767 Y148.98 E478.11518
G1 X127.836 Y149.004 E478.12247
G1 X128.047 Y149.066 E478.14441
G1 X128.624 Y149.203 E478.20358
G1 X128.843 Y149.246 E478.22585
G1 X129.438 Y149.331 E478.28583
G1 X129.542 Y149.341 E478.29625
G1 X69.708 Y89.506 E486.73954
G1 X69.708 Y88.092 E486.88063
G1 X130.999 Y149.384 E495.52953
G1 X132.413 Y149.384 E495.67062
G1 X69.708 Y86.678 E504.51904
G1 X69.708 Y85.264 E504.66013
G1 X133.827 Y149.384 E513.70808
G1 X135.241 Y149.384 E513.84917
G1 X69.708 Y83.85 E523.09666
G1 X69.708 Y83.835 E523.09815
G1 X69.714 Y83.674 E523.11423
G1 X69.778 Y82.703 E523.21133
G1 X69.793 Y82.531 E523.22855
G1 X69.794 Y82.522 E523.22946
G1 X136.586 Y149.314 E532.65453
G1 X136.766 Y149.296 E532.67258
G1 X136.956 Y149.271 E532.6917
G1 X137.472 Y149.183 E532.74393
G1 X137.624 Y149.152 E532.75941
G1 X137.794 Y149.108 E532.77693
G1 X70.024 Y81.338 E542.34001
G1 X70.154 Y80.874 E542.38809
G1 X70.205 Y80.719 E542.40437
G1 X70.371 Y80.27 E542.45214
G1 X138.874 Y148.773 E552.11865
G1 X139.061 Y148.706 E552.13847
G1 X139.162 Y148.667 E552.14928
G1 X139.302 Y148.609 E552.1644
G1 X139.837 Y148.365 E552.22307
G1 X139.865 Y148.35 E552.22624
G1 X70.811 Y79.296 E561.9705
G1 X70.912 Y79.106 E561.99197
G1 X71.207 Y78.609 E562.04964
G1 X71.311 Y78.451 E562.06852
G1 X71.339 Y78.41 E562.07347
G1 X140.76 Y147.831 E571.86952
G1 X141.253 Y147.491 E571.92928
G1 X141.327 Y147.435 E571.93854
G1 X141.453 Y147.339 E571.95435
G1 X141.579 Y147.235 E571.97065
G1 X71.95 Y77.607 E581.79598
G1 X72.243 Y77.259 E581.84137
G1 X72.384 Y77.109 E581.86191
G1 X72.628 Y76.87 E581.89599
G1 X142.323 Y146.566 E591.73078
G1 X142.47 Y146.423 E591.75125
G1 X142.607 Y146.276 E591.7713
G1 X142.992 Y145.82 E591.83084
G1 X73.382 Y76.21 E601.65357
G1 X73.398 Y76.197 E601.65562
G1 X73.524 Y76.101 E601.67143
G1 X73.598 Y76.045 E601.68069
G1 X74.138 Y75.671 E601.74623
G1 X74.21 Y75.625 E601.75476
G1 X143.592 Y145.007 E611.54531
G1 X143.645 Y144.925 E611.55505
G1 X143.952 Y144.406 E611.61522
G1 X144.059 Y144.205 E611.63794
G1 X144.106 Y144.106 E611.64887
G1 X75.123 Y75.123 E621.38312
G1 X75.549 Y74.928 E621.42987
G1 X75.688 Y74.869 E621.44493
G1 X75.789 Y74.83 E621.45574
G1 X76.124 Y74.71 E621.49124
G1 X144.534 Y143.12 E631.14463
G1 X144.646 Y142.817 E631.17687
G1 X144.696 Y142.663 E631.19302
G1 X144.862 Y142.066 E631.25485
G1 X144.869 Y142.04 E631.25754
G1 X77.216 Y74.387 E640.80411
G1 X77.225 Y74.384 E640.80505
G1 X77.377 Y74.352 E640.82055
G1 X77.894 Y74.266 E640.87285
G1 X78.084 Y74.24 E640.89198
G1 X78.277 Y74.221 E640.91133
G1 X78.452 Y74.21 E640.92883
G1 X145.074 Y140.831 E650.32984
G1 X145.137 Y139.863 E650.42663
G1 X145.142 Y139.701 E650.44281
G1 X145.142 Y139.486 E650.46426
G1 X79.81 Y74.153 E659.68338
G1 X81.224 Y74.153 E659.82447
G1 X145.142 Y138.071 E668.84399
G1 X145.142 Y136.657 E668.98508
G1 X82.638 Y74.153 E677.80507
G1 X84.053 Y74.153 E677.94626
G1 X145.142 Y135.243 E686.56665
G1 X145.142 Y133.829 E686.70774
G1 X85.467 Y74.153 E695.12859
G1 X86.881 Y74.153 E695.26968
G1 X145.142 Y132.414 E703.49094
G1 X145.142 Y131 E703.63203
G1 X88.295 Y74.153 E711.65376
