;FLAVOR:Marlin
;TIME:8875
;Filament used: 7.82928m
;Layer height: 0.2
;MINX:69.329
;MINY:75.966
;MINZ:0.24
;MAXX:153.657
;MAXY:160.295
;MAXZ:31.14
;Generated with Cura_SteamEngine 4.9.1
M140 S60
M105
M190 S60
M104 S200
M105
M109 S200
M82 ;absolute extrusion mode
; Ender 3 Custom Start G-code
G92 E0 ; Reset Extruder
G28 ; Home all axes
G1 Z2.0 F3000 ; Move Z Axis up little to prevent scratching of Heat Bed
G1 X0.1 Y20 Z0.3 F5000.0 ; Move to start position
G1 X0.1 Y200.0 Z0.3 F1500.0 E15 ; Draw the first line
G1 X0.4 Y200.0 Z0.3 F5000.0 ; Move to side a little
G1 X0.4 Y20 Z0.3 F1500.0 E30 ; Draw the second line
G92 E0 ; Reset Extruder
G1 Z2.0 F3000 ; Move Z Axis up little to prevent scratching of Heat Bed
G1 X5 Y20 Z0.3 F5000.0 ; Move over to prevent blob squish
G92 E0
G92 E0
G1 F1500 E-6.5
;LAYER_COUNT:150
;LAYER:-6
M107
G0 F9000 X74.089 Y80.148 Z0.24
;TYPE:SUPPORT-INTERFACE
G1 F1500 E0
G1 F1125 X74.234 Y80.018 E0.01555
G1 X74.593 Y79.721 E0.05274
G1 X74.686 Y79.647 E0.06222
G1 X75.206 Y79.249 E0.1145
G1 X75.31 Y79.173 E0.12478
G1 X75.858 Y78.794 E0.17796
G1 X76.016 Y78.695 E0.19285
G1 X76.556 Y78.391 E0.24231
G1 X76.735 Y78.301 E0.25831
G1 X77.259 Y78.062 E0.30428
G1 X77.957 Y77.776 E0.36449
G1 X78.577 Y77.552 E0.41712
G1 X78.788 Y77.486 E0.43476
G1 X79.394 Y77.33 E0.48471
G1 X79.546 Y77.298 E0.49711
G1 X80.062 Y77.211 E0.53888
G1 X80.77 Y77.118 E0.59589
G1 X80.963 Y77.098 E0.61137
G1 X81.923 Y77.035 E0.68817
G1 X82.084 Y77.03 E0.70103
G1 X140.902 Y77.03 E5.39614
G1 X141.063 Y77.035 E5.40899
G1 X142.041 Y77.1 E5.48723
G1 X142.208 Y77.116 E5.50063
G1 X142.811 Y77.195 E5.54917
G1 X142.946 Y77.217 E5.56009
G1 X143.577 Y77.33 E5.61126
G1 X143.801 Y77.381 E5.6296
G1 X144.379 Y77.542 E5.67749
G1 X144.557 Y77.6 E5.69244
G1 X145.117 Y77.811 E5.74021
G1 X145.735 Y78.067 E5.7936
G1 X145.823 Y78.106 E5.80129
G1 X146.412 Y78.383 E5.85324
G1 X146.622 Y78.494 E5.8722
G1 X147.128 Y78.794 E5.91916
G1 X147.298 Y78.903 E5.93528
G1 X147.672 Y79.17 E5.97196
G1 X147.798 Y79.263 E5.98446
G1 X148.299 Y79.647 E6.03485
G1 X148.368 Y79.702 E6.04189
G1 X148.892 Y80.144 E6.09661
G1 X149.03 Y80.272 E6.11164
G1 X149.478 Y80.729 E6.16272
G1 X149.597 Y80.862 E6.17697
G1 X149.956 Y81.297 E6.22199
G1 X150.379 Y81.849 E6.2775
G1 X150.441 Y81.934 E6.2859
G1 X150.811 Y82.465 E6.33756
G1 X150.926 Y82.649 E6.35489
G1 X151.231 Y83.19 E6.40446
G1 X151.306 Y83.338 E6.4177
G1 X151.527 Y83.82 E6.46003
G1 X151.809 Y84.499 E6.51872
G1 X151.853 Y84.609 E6.52818
G1 X152.07 Y85.213 E6.57941
G1 X152.137 Y85.433 E6.59777
G1 X152.29 Y86.032 E6.64712
G1 X152.331 Y86.222 E6.66263
G1 X152.424 Y86.785 E6.70818
G1 X152.509 Y87.423 E6.75956
G1 X152.521 Y87.543 E6.76919
G1 X152.588 Y88.564 E6.85086
G1 X152.593 Y88.707 E6.86228
G1 X152.593 Y147.54 E11.55859
G1 X152.588 Y147.697 E11.57113
G1 X152.523 Y148.677 E11.64953
G1 X152.506 Y148.849 E11.66332
G1 X152.423 Y149.479 E11.71405
G1 X152.405 Y149.593 E11.72326
G1 X152.29 Y150.229 E11.77485
G1 X152.24 Y150.444 E11.79247
G1 X152.079 Y151.021 E11.84029
G1 X152.024 Y151.19 E11.85448
G1 X151.861 Y151.629 E11.89186
G1 X151.816 Y151.744 E11.90172
G1 X151.572 Y152.335 E11.95275
G1 X151.521 Y152.452 E11.96294
G1 X151.24 Y153.05 E12.01568
G1 X151.144 Y153.232 E12.03211
G1 X150.837 Y153.753 E12.08038
G1 X150.716 Y153.938 E12.09803
G1 X150.394 Y154.391 E12.14239
G1 X149.994 Y154.912 E12.19482
G1 X149.907 Y155.02 E12.20589
G1 X149.474 Y155.533 E12.25948
G1 X149.334 Y155.683 E12.27586
G1 X148.894 Y156.113 E12.32497
G1 X148.76 Y156.234 E12.33938
G1 X148.316 Y156.599 E12.38526
G1 X147.702 Y157.069 E12.44699
G1 X147.163 Y157.443 E12.49935
G1 X146.975 Y157.562 E12.51711
G1 X146.427 Y157.87 E12.56729
G1 X146.279 Y157.947 E12.58061
G1 X145.822 Y158.156 E12.62073
G1 X145.709 Y158.205 E12.63056
G1 X145.031 Y158.483 E12.68905
G1 X144.373 Y158.718 E12.74482
G1 X144.198 Y158.772 E12.75944
G1 X143.579 Y158.93 E12.81044
G1 X143.411 Y158.966 E12.82415
G1 X142.901 Y159.052 E12.86544
G1 X142.212 Y159.143 E12.92092
G1 X142.047 Y159.159 E12.93415
G1 X141.06 Y159.225 E13.01311
G1 X140.903 Y159.23 E13.02565
G1 X99.053 Y159.23 E16.3663
G1 X98.281 Y159.196 E16.42798
G1 X98.085 Y159.177 E16.4437
G1 X97.49 Y159.092 E16.49168
G1 X97.271 Y159.05 E16.50948
G1 X96.694 Y158.912 E16.55684
G1 X96.483 Y158.85 E16.57439
G1 X95.396 Y158.478 E16.6661
G1 X95.308 Y158.463 E16.67323
G1 X94.637 Y158.34 E16.72768
G1 X93.955 Y158.301 E16.78221
G1 X93.275 Y158.35 E16.83663
G1 X92.605 Y158.483 E16.89116
G1 X92.486 Y158.508 E16.90086
G1 X91.809 Y158.752 E16.95831
G1 X91.24 Y158.926 E17.0058
G1 X91.01 Y158.984 E17.02474
G1 X90.43 Y159.104 E17.07202
G1 X90.238 Y159.134 E17.08753
G1 X89.614 Y159.203 E17.13764
G1 X89.432 Y159.216 E17.15221
G1 X88.92 Y159.23 E17.19309
G1 X82.083 Y159.23 E17.73885
G1 X81.927 Y159.225 E17.75131
G1 X80.914 Y159.159 E17.83234
G1 X80.786 Y159.146 E17.84261
G1 X80.158 Y159.062 E17.89319
G1 X80.034 Y159.042 E17.90322
G1 X79.385 Y158.924 E17.95587
G1 X79.18 Y158.878 E17.97264
G1 X78.61 Y158.717 E18.01992
G1 X78.406 Y158.651 E18.03704
G1 X77.991 Y158.497 E18.07237
G1 X77.858 Y158.444 E18.0838
G1 X77.278 Y158.204 E18.13391
G1 X77.152 Y158.149 E18.14488
G1 X76.567 Y157.874 E18.19648
G1 X76.387 Y157.779 E18.21273
G1 X75.854 Y157.465 E18.26211
G1 X75.7 Y157.365 E18.27677
G1 X75.248 Y157.045 E18.32097
G1 X74.684 Y156.612 E18.37773
G1 X74.095 Y156.116 E18.4392
G1 X73.947 Y155.979 E18.4553
G1 X73.513 Y155.536 E18.5048
G1 X73.383 Y155.39 E18.52041
G1 X73.087 Y155.033 E18.55742
G1 X72.992 Y154.913 E18.56964
G1 X72.609 Y154.413 E18.61992
G1 X72.553 Y154.339 E18.62733
G1 X72.179 Y153.8 E18.67969
G1 X72.06 Y153.612 E18.69745
G1 X71.748 Y153.058 E18.74821
G1 X71.673 Y152.912 E18.76131
G1 X71.463 Y152.452 E18.80167
G1 X71.413 Y152.336 E18.81176
G1 X71.139 Y151.668 E18.86939
G1 X70.904 Y151.01 E18.92517
G1 X70.85 Y150.835 E18.93978
G1 X70.696 Y150.236 E18.98915
G1 X70.653 Y150.029 E19.00603
G1 X70.576 Y149.569 E19.04326
G1 X70.558 Y149.446 E19.05318
G1 X70.479 Y148.846 E19.10149
G1 X70.462 Y148.671 E19.11553
G1 X70.398 Y147.697 E19.19344
G1 X70.393 Y147.551 E19.2051
G1 X70.393 Y88.721 E23.90117
G1 X70.398 Y88.56 E23.91403
G1 X70.461 Y87.6 E23.99082
G1 X70.481 Y87.407 E24.00631
G1 X70.555 Y86.836 E24.05227
G1 X70.582 Y86.665 E24.06609
G1 X70.695 Y86.03 E24.11758
G1 X70.741 Y85.829 E24.13404
G1 X70.903 Y85.247 E24.18226
G1 X70.957 Y85.081 E24.19619
G1 X71.137 Y84.595 E24.23756
G1 X71.415 Y83.922 E24.29569
G1 X71.473 Y83.789 E24.30727
G1 X71.747 Y83.206 E24.35869
G1 X71.847 Y83.017 E24.37576
G1 X72.157 Y82.491 E24.4245
G1 X72.257 Y82.337 E24.43916
G1 X72.57 Y81.896 E24.48232
G1 X73.019 Y81.31 E24.54125
G1 X73.506 Y80.732 E24.60158
G1 X73.643 Y80.584 E24.61768
G1 X74.089 Y80.148 E24.66747
G0 F9000 X73.6 Y80.63
G1 F1125 X73.6 Y155.624 E30.65382
G0 F9000 X75.2 Y157.008
G1 F1125 X75.2 Y79.253 E36.86056
G0 F9000 X76.8 Y78.271
G1 F1125 X76.8 Y157.983 E43.22351
G0 F9000 X78.4 Y158.648
G1 F1125 X78.4 Y77.615 E49.69192
G0 F9000 X80 Y77.221
G1 F1125 X80 Y159.035 E56.22266
G0 F9000 X81.6 Y159.203
G1 F1125 X81.6 Y77.056 E62.77999
G0 F9000 X83.2 Y77.03
G1 F1125 X83.2 Y159.23 E69.34155
G0 F9000 X84.8 Y159.23
G1 F1125 X84.8 Y77.03 E75.90311
G0 F9000 X86.4 Y77.03
G1 F1125 X86.4 Y159.23 E82.46467
G0 F9000 X88 Y159.23
G1 F1125 X88 Y77.03 E89.02623
G0 F9000 X89.6 Y77.03
G1 F1125 X89.6 Y159.204 E95.58572
G0 F9000 X91.2 Y158.937
G1 F1125 X91.2 Y77.03 E102.12389
G0 F9000 X92.8 Y77.03
G1 F1125 X92.8 Y158.445 E108.62278
G0 F9000 X94.4 Y158.326
G1 F1125 X94.4 Y77.03 E115.11218
G0 F9000 X96 Y77.03
G1 F1125 X96 Y158.684 E121.63016
G0 F9000 X97.6 Y159.107
G1 F1125 X97.6 Y77.03 E128.1819
G0 F9000 X99.2 Y77.03
G1 F1125 X99.2 Y159.23 E134.74346
G0 F9000 X100.8 Y159.23
G1 F1125 X100.8 Y77.03 E141.30502
G0 F9000 X102.4 Y77.03
G1 F1125 X102.4 Y159.23 E147.86658
G0 F9000 X104 Y159.23
G1 F1125 X104 Y77.03 E154.42814
G0 F9000 X105.6 Y77.03
G1 F1125 X105.6 Y159.23 E160.9897
G0 F9000 X107.2 Y159.23
G1 F1125 X107.2 Y77.03 E167.55125
G0 F9000 X108.8 Y77.03
G1 F1125 X108.8 Y159.23 E174.11281
G0 F9000 X110.4 Y159.23
G1 F1125 X110.4 Y77.03 E180.67437
G0 F9000 X112 Y77.03
G1 F1125 X112 Y159.23 E187.23593
G0 F9000 X113.6 Y159.23
G1 F1125 X113.6 Y77.03 E193.79749
G0 F9000 X115.2 Y77.03
G1 F1125 X115.2 Y159.23 E200.35905
G0 F9000 X116.8 Y159.23
G1 F1125 X116.8 Y77.03 E206.92061
G0 F9000 X118.4 Y77.03
G1 F1125 X118.4 Y159.23 E213.48217
G0 F9000 X120 Y159.23
G1 F1125 X120 Y77.03 E220.04373
G0 F9000 X121.6 Y77.03
G1 F1125 X121.6 Y159.23 E226.60529
G0 F9000 X123.2 Y159.23
G1 F1125 X123.2 Y77.03 E233.16685
G0 F9000 X124.8 Y77.03
G1 F1125 X124.8 Y159.23 E239.72841
G0 F9000 X126.4 Y159.23
G1 F1125 X126.4 Y77.03 E246.28997
G0 F9000 X128 Y77.03
G1 F1125 X128 Y159.23 E252.85153
G0 F9000 X129.6 Y159.23
G1 F1125 X129.6 Y77.03 E259.41309
G0 F9000 X131.2 Y77.03
G1 F1125 X131.2 Y159.23 E265.97465
G0 F9000 X132.8 Y159.23
G1 F1125 X132.8 Y77.03 E272.53621
G0 F9000 X134.4 Y77.03
G1 F1125 X134.4 Y159.23 E279.09777
G0 F9000 X136 Y159.23
G1 F1125 X136 Y77.03 E285.65932
G0 F9000 X137.6 Y77.03
G1 F1125 X137.6 Y159.23 E292.22088
G0 F9000 X139.2 Y159.23
G1 F1125 X139.2 Y77.03 E298.78244
G0 F9000 X140.8 Y77.03
G1 F1125 X140.8 Y159.23 E305.344
G0 F9000 X142.4 Y159.119
G1 F1125 X142.4 Y77.142 E311.88776
G0 F9000 X144 Y77.437
G1 F1125 X144 Y158.823 E318.38434
G0 F9000 X145.6 Y158.25
G1 F1125 X145.6 Y78.012 E324.78929
G0 F9000 X147.2 Y78.841
G1 F1125 X147.2 Y157.418 E331.06164
G0 F9000 X148.8 Y156.198
G1 F1125 X148.8 Y80.067 E337.13875
G0 F9000 X150.4 Y81.878
G1 F1125 X150.4 Y154.383 E342.92641
G0 F9000 X152 Y151.255
G1 F1125 X152 Y85.019 E348.21366
G1 F1500 E341.71366
G0 F9000 X153 Y84.659
G0 X152.174 Y82.696
G0 X151.235 Y81.216
G0 X150.249 Y79.994
G0 X148.957 Y78.81
G0 X147.689 Y77.888
G0 X146.149 Y77.087
G0 X144.683 Y76.522
G0 X142.959 Y76.141
G0 X140.924 Y75.966
G0 X81.88 Y75.972
G0 X79.906 Y76.158
G0 X78.246 Y76.541
G0 X76.048 Y77.455
G0 X74.573 Y78.394
G0 X73.354 Y79.377
G0 X72.404 Y80.412
G0 X71.247 Y81.938
G0 X72 Y82.757
G1 F1500 E348.21366
G1 F1125 X72 Y153.505 E353.86107
G1 F1500 E347.36107
G0 F9000 X70.814 Y153.569
G0 X70.14 Y152.036
G0 X69.662 Y150.486
G0 X69.515 Y149.51
G0 X69.339 Y147.797
G0 X70.4 Y147.727
G1 F1500 E353.86107
G1 F1125 X70.4 Y88.529 E358.58651
G1 F1500 E352.08651
G0 F300 X70.4 Y88.529 Z0.54
G0 F9000 X69.329 Y88.699
G0 X69.335 Y147.743
G0 X69.524 Y149.73
G0 X69.897 Y151.354
G0 X70.72 Y153.385
G0 X71.287 Y154.382
G0 X72.738 Y156.267
G0 X73.947 Y155.978
;TIME_ELAPSED:253.852445
;LAYER:-5
;TYPE:SUPPORT
G1 F1500 E358.58651
G1 F1125 X74.039 Y156.063 E358.59901
G1 X73.585 Y155.609 E358.66307
G1 X73.512 Y155.535 E358.67344
G1 X73.382 Y155.388 E358.69302
G1 X73.087 Y155.032 E358.73916
G1 X72.992 Y154.912 E358.75443
G1 X72.608 Y154.412 E358.81733
G1 X72.552 Y154.338 E358.82659
G1 X72.179 Y153.799 E358.892
G1 X72.06 Y153.611 E358.9142
G1 X71.748 Y153.056 E358.97773
G1 X71.673 Y152.911 E358.99401
G1 X71.463 Y152.45 E359.04456
G1 X71.412 Y152.335 E359.05711
G1 X71.195 Y151.805 E359.11426
G1 X77.814 Y158.424 E360.04827
G1 X77.858 Y158.442 E360.05301
G1 X77.991 Y158.496 E360.06734
G1 X78.406 Y158.65 E360.11151
G1 X78.609 Y158.716 E360.1328
G1 X79.18 Y158.876 E360.19197
G1 X79.384 Y158.922 E360.21284
G1 X79.803 Y158.999 E360.25535
G1 X70.616 Y149.812 E361.55173
G1 X70.576 Y149.568 E361.5764
G1 X70.557 Y149.445 E361.58882
G1 X70.479 Y148.845 E361.64919
G1 X70.461 Y148.67 E361.66675
G1 X70.431 Y148.213 E361.71245
G1 X81.408 Y159.19 E363.26142
G1 X81.927 Y159.224 E363.31332
G1 X82.083 Y159.229 E363.32889
G1 X82.861 Y159.229 E363.40652
G1 X70.393 Y146.76 E365.16596
G1 X70.393 Y145.346 E365.30705
G1 X84.275 Y159.229 E367.26602
G1 X85.69 Y159.229 E367.40721
G1 X70.393 Y143.932 E369.56578
G1 X70.393 Y142.518 E369.70687
G1 X87.104 Y159.229 E372.06497
G1 X88.518 Y159.229 E372.20606
G1 X70.393 Y141.103 E374.76377
G1 X70.393 Y139.689 E374.90486
G1 X89.876 Y159.172 E377.65412
G1 X90.238 Y159.132 E377.69046
G1 X90.43 Y159.103 E377.70983
G1 X91.01 Y158.983 E377.76893
G1 X91.082 Y158.964 E377.77636
G1 X70.393 Y138.275 E380.6958
G1 X70.393 Y136.861 E380.83689
G1 X92.157 Y158.625 E383.90803
G1 X92.486 Y158.507 E383.9429
G1 X92.49 Y158.52 E383.94426
G1 X92.605 Y158.482 E383.95635
G1 X93.275 Y158.348 E384.02452
G1 X93.293 Y158.347 E384.02632
G1 X70.393 Y135.447 E387.25776
G1 X70.393 Y134.032 E387.39895
G1 X94.712 Y158.352 E390.83069
G1 X95.308 Y158.462 E390.89117
G1 X95.392 Y158.489 E390.89997
G1 X95.396 Y158.477 E390.90123
G1 X96.482 Y158.849 E391.01577
G1 X96.682 Y158.907 E391.03655
G1 X70.393 Y132.618 E394.74621
G1 X70.393 Y131.204 E394.8873
G1 X98.388 Y159.199 E398.8377
G1 X99.052 Y159.229 E398.90402
G1 X99.832 Y159.229 E398.98185
G1 X70.393 Y129.79 E403.13601
G1 X70.393 Y128.375 E403.2772
G1 X101.246 Y159.229 E407.63096
G1 X102.66 Y159.229 E407.77205
G1 X70.393 Y126.961 E412.32535
G1 X70.393 Y125.547 E412.46643
G1 X104.074 Y159.229 E417.21926
G1 X105.489 Y159.229 E417.36045
G1 X70.393 Y124.133 E422.31287
G1 X70.393 Y122.719 E422.45396
G1 X106.903 Y159.229 E427.60592
G1 X108.317 Y159.229 E427.74701
G1 X70.393 Y121.304 E433.09856
G1 X70.393 Y119.89 E433.23965
G1 X109.731 Y159.229 E438.79074
G1 X111.145 Y159.229 E438.93183
G1 X70.393 Y118.476 E444.68245
G1 X70.393 Y117.062 E444.82354
G1 X112.56 Y159.229 E450.77376
G1 X113.974 Y159.229 E450.91485
G1 X70.393 Y115.648 E457.0646
G1 X70.393 Y114.233 E457.20579
G1 X115.388 Y159.229 E463.55514
G1 X116.802 Y159.229 E463.69623
G1 X70.393 Y112.819 E470.24511
G1 X70.393 Y111.405 E470.3862
G1 X118.216 Y159.229 E477.13461
G1 X119.631 Y159.229 E477.2758
G1 X70.393 Y109.991 E484.22381
G1 X70.393 Y108.576 E484.365
G1 X121.045 Y159.229 E491.51262
G1 X122.459 Y159.229 E491.65371
G1 X70.393 Y107.162 E499.00085
G1 X70.393 Y105.748 E499.14194
G1 X123.873 Y159.229 E506.68862
G1 X125.288 Y159.229 E506.82981
G1 X70.393 Y104.334 E514.57608
G1 X70.393 Y102.92 E514.71717
G1 X126.702 Y159.229 E522.66298
G1 X128.116 Y159.229 E522.80407
G1 X70.393 Y101.505 E530.94948
G1 X70.393 Y100.091 E531.09057
G1 X129.53 Y159.229 E539.43551
G1 X130.944 Y159.229 E539.5766
G1 X70.393 Y98.677 E548.12107
G1 X70.393 Y97.263 E548.26216
G1 X132.359 Y159.229 E557.00623
G1 X133.773 Y159.229 E557.14732
G1 X70.393 Y95.849 E566.09092
G1 X70.393 Y94.434 E566.23211
G1 X135.187 Y159.229 E575.37532
G1 X136.601 Y159.229 E575.51641
G1 X70.393 Y93.02 E584.85914
G1 X70.393 Y91.606 E585.00023
G1 X138.015 Y159.229 E594.5425
G1 X139.43 Y159.229 E594.68369
G1 X70.393 Y90.192 E604.42555
G1 X70.393 Y88.777 E604.56674
G1 X140.844 Y159.229 E614.50821
G1 X140.903 Y159.229 E614.5141
G1 X141.06 Y159.224 E614.52977
G1 X142.046 Y159.158 E614.62837
G1 X142.175 Y159.145 E614.64131
G1 X70.476 Y87.447 E624.75874
G1 X70.48 Y87.406 E624.76285
G1 X70.555 Y86.835 E624.82032
G1 X70.581 Y86.664 E624.83758
G1 X70.661 Y86.217 E624.88289
G1 X143.409 Y158.965 E635.14841
G0 F9000 X143.41 Y158.965
G1 F1125 X143.579 Y158.929 E635.16566
G1 X144.198 Y158.771 E635.2294
G1 X144.372 Y158.717 E635.24758
G1 X144.521 Y158.663 E635.26339
G1 X70.951 Y85.093 E645.64491
G1 X70.956 Y85.08 E645.6463
G1 X71.137 Y84.594 E645.69805
G1 X71.349 Y84.077 E645.75381
G1 X145.543 Y158.271 E656.22338
G1 X145.708 Y158.204 E656.24115
G1 X145.821 Y158.155 E656.25344
G1 X146.279 Y157.946 E656.30367
G1 X146.426 Y157.869 E656.32023
G1 X146.508 Y157.822 E656.32966
G1 X71.796 Y83.11 E666.87233
G1 X71.846 Y83.016 E666.88296
G1 X72.156 Y82.49 E666.94388
G1 X72.257 Y82.336 E666.96225
G1 X72.331 Y82.23 E666.97515
G1 X147.386 Y157.286 E677.56629
G1 X147.701 Y157.068 E677.60452
G1 X148.2 Y156.685 E677.66728
G1 X72.934 Y81.419 E688.28813
G1 X73.019 Y81.309 E688.302
G1 X73.505 Y80.731 E688.37735
G1 X73.579 Y80.65 E688.3883
G1 X148.968 Y156.039 E699.0265
G1 X149.333 Y155.682 E699.07744
G1 X149.473 Y155.532 E699.09792
G1 X149.657 Y155.314 E699.12638
G1 X74.303 Y79.96 E709.75965
G1 X74.592 Y79.72 E709.79713
G1 X74.686 Y79.645 E709.80913
G1 X75.092 Y79.335 E709.8601
G1 X150.287 Y154.529 E720.47085
G1 X150.393 Y154.39 E720.4883
G1 X150.715 Y153.937 E720.54375
G1 X150.837 Y153.751 E720.56595
G1 X150.869 Y153.698 E720.57213
G1 X75.924 Y78.752 E731.14774
G1 X76.016 Y78.694 E731.1586
G1 X76.556 Y78.39 E731.22043
