;FLAVOR:Marlin
;TIME:1815
;Filament used: 1.50972m
;Layer height: 0.2
;MINX:97.601
;MINY:86.464
;MINZ:0.24
;MAXX:132.896
;MAXY:166.793
;MAXZ:6.89
;Generated with Cura_SteamEngine 4.9.1
M140 S60
M105
M190 S60
M104 S200
M105
M109 S200
M82 ;absolute extrusion mode
; Ender 3 Custom Start G-code
G92 E0 ; Reset Extruder
G28 ; Home all axes
G1 Z2.0 F3000 ; Move Z Axis up little to prevent scratching of Heat Bed
G1 X0.1 Y20 Z0.3 F5000.0 ; Move to start position
G1 X0.1 Y200.0 Z0.3 F1500.0 E15 ; Draw the first line
G1 X0.4 Y200.0 Z0.3 F5000.0 ; Move to side a little
G1 X0.4 Y20 Z0.3 F1500.0 E30 ; Draw the second line
G92 E0 ; Reset Extruder
G1 Z2.0 F3000 ; Move Z Axis up little to prevent scratching of Heat Bed
G1 X5 Y20 Z0.3 F5000.0 ; Move over to prevent blob squish
G92 E0
G92 E0
G1 F1500 E-6.5
;LAYER_COUNT:29
;LAYER:-6
M107
G0 F9000 X100.906 Y90.311 Z0.24
;TYPE:SUPPORT-INTERFACE
G1 F1500 E0
G1 F1125 X101.051 Y90.157 E0.01688
G1 X101.468 Y89.754 E0.06318
G1 X101.63 Y89.611 E0.08042
G1 X102.106 Y89.23 E0.12909
G1 X102.267 Y89.113 E0.14498
G1 X102.776 Y88.778 E0.19362
G1 X102.932 Y88.686 E0.20808
G1 X103.499 Y88.387 E0.25925
G1 X103.678 Y88.303 E0.27503
G1 X104.226 Y88.076 E0.32238
G1 X104.427 Y88.004 E0.33942
G1 X104.987 Y87.832 E0.38618
G1 X105.217 Y87.774 E0.40512
G1 X105.797 Y87.654 E0.4524
G1 X105.989 Y87.624 E0.46791
G1 X106.613 Y87.555 E0.51802
G1 X106.795 Y87.542 E0.53259
G1 X107.307 Y87.528 E0.57347
G1 X123.174 Y87.528 E1.84005
G1 X123.946 Y87.562 E1.90173
G1 X124.142 Y87.581 E1.91745
G1 X124.737 Y87.666 E1.96543
G1 X124.956 Y87.708 E1.98323
G1 X125.533 Y87.846 E2.03058
G1 X125.744 Y87.908 E2.04814
G1 X126.293 Y88.095 E2.09444
G1 X126.503 Y88.178 E2.11246
G1 X127.035 Y88.419 E2.15908
G1 X127.24 Y88.523 E2.17743
G1 X127.744 Y88.811 E2.22377
G1 X127.934 Y88.932 E2.24175
G1 X128.411 Y89.267 E2.28828
G1 X128.582 Y89.399 E2.30552
G1 X129.051 Y89.8 E2.35478
G1 X129.205 Y89.945 E2.37166
G1 X129.608 Y90.362 E2.41795
G1 X129.751 Y90.524 E2.4352
G1 X130.132 Y91 E2.48387
G1 X130.249 Y91.161 E2.49976
G1 X130.584 Y91.67 E2.5484
G1 X130.676 Y91.826 E2.56285
G1 X130.975 Y92.393 E2.61402
G1 X131.059 Y92.572 E2.62981
G1 X131.286 Y93.12 E2.67715
G1 X131.358 Y93.321 E2.6942
G1 X131.53 Y93.881 E2.74096
G1 X131.59 Y94.117 E2.7604
G1 X131.708 Y94.691 E2.80717
G1 X131.738 Y94.883 E2.82269
G1 X131.807 Y95.507 E2.8728
G1 X131.82 Y95.686 E2.88713
G1 X131.834 Y96.194 E2.92769
G1 X131.834 Y157.052 E7.78564
G1 X131.831 Y157.166 E7.79475
G1 X131.8 Y157.839 E7.84852
G1 X131.782 Y158.028 E7.86368
G1 X131.697 Y158.628 E7.91205
G1 X131.654 Y158.848 E7.92995
G1 X131.518 Y159.419 E7.9768
G1 X131.454 Y159.638 E7.99501
G1 X131.268 Y160.183 E8.04098
G1 X131.184 Y160.397 E8.05933
G1 X130.946 Y160.924 E8.10549
G1 X130.84 Y161.132 E8.12413
G1 X130.554 Y161.634 E8.17024
G1 X130.435 Y161.821 E8.18794
G1 X130.1 Y162.299 E8.23453
G1 X129.963 Y162.476 E8.2524
G1 X129.564 Y162.943 E8.30143
G1 X129.421 Y163.094 E8.31803
G1 X129 Y163.502 E8.36483
G1 X128.838 Y163.645 E8.38208
G1 X128.363 Y164.025 E8.43063
G1 X128.201 Y164.143 E8.44663
G1 X127.693 Y164.477 E8.49516
G1 X127.536 Y164.57 E8.50973
G1 X126.969 Y164.869 E8.5609
G1 X126.789 Y164.953 E8.57675
G1 X126.242 Y165.18 E8.62403
G1 X126.041 Y165.252 E8.64107
G1 X125.481 Y165.424 E8.68783
G1 X125.251 Y165.482 E8.70677
G1 X124.671 Y165.602 E8.75405
G1 X124.479 Y165.632 E8.76956
G1 X123.855 Y165.701 E8.81967
G1 X123.673 Y165.714 E8.83424
G1 X123.161 Y165.728 E8.87512
G1 X107.294 Y165.728 E10.1417
G1 X106.522 Y165.694 E10.20338
G1 X106.326 Y165.675 E10.2191
G1 X105.731 Y165.59 E10.26708
G1 X105.512 Y165.548 E10.28488
G1 X104.935 Y165.41 E10.33223
G1 X104.724 Y165.348 E10.34979
G1 X104.175 Y165.161 E10.39608
G1 X103.965 Y165.078 E10.41411
G1 X103.433 Y164.837 E10.46073
G1 X103.228 Y164.733 E10.47908
G1 X102.724 Y164.445 E10.52542
G1 X102.534 Y164.324 E10.5434
G1 X102.057 Y163.989 E10.58993
G1 X101.881 Y163.853 E10.60768
G1 X101.417 Y163.456 E10.65643
G1 X101.263 Y163.311 E10.67331
G1 X100.86 Y162.894 E10.7196
G1 X100.714 Y162.728 E10.73725
G1 X100.336 Y162.256 E10.78552
G1 X100.219 Y162.095 E10.80141
G1 X99.884 Y161.586 E10.85005
G1 X99.792 Y161.429 E10.86457
G1 X99.493 Y160.863 E10.91567
G1 X99.409 Y160.684 E10.93145
G1 X99.182 Y160.136 E10.9788
G1 X99.11 Y159.935 E10.99584
G1 X98.938 Y159.375 E11.04261
G1 X98.878 Y159.139 E11.06204
G1 X98.76 Y158.565 E11.10882
G1 X98.73 Y158.373 E11.12433
G1 X98.661 Y157.749 E11.17445
G1 X98.648 Y157.567 E11.18901
G1 X98.634 Y157.062 E11.22934
G1 X98.634 Y96.188 E16.08857
G1 X98.668 Y95.416 E16.15025
G1 X98.686 Y95.228 E16.16533
G1 X98.771 Y94.628 E16.2137
G1 X98.814 Y94.406 E16.23175
G1 X98.952 Y93.83 E16.27903
G1 X99.014 Y93.618 E16.29666
G1 X99.2 Y93.073 E16.34263
G1 X99.284 Y92.859 E16.36098
G1 X99.522 Y92.332 E16.40714
G1 X99.629 Y92.122 E16.42595
G1 X99.914 Y91.622 E16.47189
G1 X100.033 Y91.435 E16.48959
G1 X100.368 Y90.957 E16.53618
G1 X100.505 Y90.78 E16.55405
G1 X100.906 Y90.311 E16.6033
G0 F9000 X100.8 Y90.434
G1 F1125 X100.8 Y162.825 E22.38186
G0 F9000 X102.4 Y164.229
G1 F1125 X102.4 Y89.025 E28.38497
G0 F9000 X104 Y88.169
G1 F1125 X104 Y165.091 E34.52522
G0 F9000 X105.6 Y165.564
G1 F1125 X105.6 Y87.694 E40.74114
G0 F9000 X107.2 Y87.53
G1 F1125 X107.2 Y165.723 E46.98284
G0 F9000 X108.8 Y165.728
G1 F1125 X108.8 Y87.528 E53.22511
G0 F9000 X110.4 Y87.528
G1 F1125 X110.4 Y165.728 E59.46737
G0 F9000 X112 Y165.728
G1 F1125 X112 Y87.528 E65.70963
G0 F9000 X113.6 Y87.528
G1 F1125 X113.6 Y165.728 E71.95189
G0 F9000 X115.2 Y165.728
G1 F1125 X115.2 Y87.528 E78.19415
G0 F9000 X116.8 Y87.528
G1 F1125 X116.8 Y165.728 E84.43642
G0 F9000 X118.4 Y165.728
G1 F1125 X118.4 Y87.528 E90.67868
G0 F9000 X120 Y87.528
G1 F1125 X120 Y165.728 E96.92094
G0 F9000 X121.6 Y165.728
G1 F1125 X121.6 Y87.528 E103.1632
G0 F9000 X123.2 Y87.53
G1 F1125 X123.2 Y165.727 E109.40523
G0 F9000 X124.8 Y165.576
G1 F1125 X124.8 Y87.679 E115.6233
G0 F9000 X126.4 Y88.138
G1 F1125 X126.4 Y165.115 E121.76794
G0 F9000 X128 Y164.276
G1 F1125 X128 Y88.979 E127.77847
G0 F9000 X129.6 Y90.354
G1 F1125 X129.6 Y162.901 E133.56949
G0 F9000 X131.2 Y160.357
G1 F1125 X131.2 Y92.913 E138.95316
G1 F1500 E132.45316
G0 F9000 X132.182 Y92.505
G0 X131.486 Y91.106
G0 X130.572 Y89.847
G0 X129.754 Y89.002
G0 X128.527 Y88.048
G0 X127.5 Y87.461
G0 X126.057 Y86.89
G0 X124.919 Y86.616
G0 X123.195 Y86.464
G0 X106.509 Y86.495
G0 X104.976 Y86.737
G0 X103.852 Y87.079
G0 X102.421 Y87.752
G0 X101.453 Y88.39
G0 X100.287 Y89.416
G0 X99.517 Y90.318
G0 X98.846 Y91.376
G0 X98.304 Y92.445
G0 X99.2 Y93.073
G1 F1500 E138.95316
G1 F1125 X99.2 Y160.179 E144.30985
G0 F300 X99.2 Y160.179 Z0.54
G0 F9000 X99.11 Y159.934
;TIME_ELAPSED:104.733672
;LAYER:-5
;TYPE:SUPPORT
G1 F1125 X99.182 Y160.134 E144.33106
G1 X99.409 Y160.682 E144.39024
G1 X99.492 Y160.862 E144.41002
G1 X99.792 Y161.428 E144.47394
G1 X99.884 Y161.585 E144.4921
G1 X100.219 Y162.094 E144.5529
G1 X100.335 Y162.255 E144.5727
G1 X100.713 Y162.727 E144.63304
G1 X100.86 Y162.893 E144.65516
G1 X101.263 Y163.31 E144.71302
G1 X101.416 Y163.455 E144.73406
G1 X101.881 Y163.852 E144.79506
G1 X102.056 Y163.987 E144.81712
G1 X102.534 Y164.323 E144.87542
G1 X102.724 Y164.444 E144.89789
G1 X103.228 Y164.732 E144.95581
G1 X103.432 Y164.836 E144.97866
G1 X103.965 Y165.077 E145.03703
G1 X104.175 Y165.16 E145.05956
G1 X104.438 Y165.249 E145.08726
G1 X104.723 Y165.347 E145.11734
G1 X104.934 Y165.409 E145.13928
G1 X105.512 Y165.547 E145.19857
G1 X105.73 Y165.588 E145.22071
G1 X106.268 Y165.665 E145.27494
G1 X98.699 Y158.096 E146.343
G1 X98.661 Y157.748 E146.37793
G1 X98.647 Y157.566 E146.39615
G1 X98.634 Y157.061 E146.44655
G1 X98.633 Y156.616 E146.49096
G1 X107.744 Y165.727 E147.77662
G1 X109.158 Y165.727 E147.91771
G1 X98.633 Y155.202 E149.4029
G1 X98.633 Y153.787 E149.54409
G1 X110.573 Y165.727 E151.22895
G1 X111.987 Y165.727 E151.37004
G1 X98.633 Y152.373 E153.25443
G1 X98.633 Y150.959 E153.39552
G1 X113.401 Y165.727 E155.47945
G1 X114.815 Y165.727 E155.62054
G1 X98.633 Y149.545 E157.90399
G1 X98.633 Y148.131 E158.04508
G1 X116.229 Y165.727 E160.52807
G1 X117.644 Y165.727 E160.66926
G1 X98.633 Y146.716 E163.35191
G1 X98.633 Y145.302 E163.493
G1 X119.058 Y165.727 E166.37519
G1 X120.472 Y165.727 E166.51628
G1 X98.633 Y143.888 E169.598
G1 X98.633 Y142.474 E169.73909
G1 X121.886 Y165.727 E173.02034
G1 X123.161 Y165.727 E173.14756
G1 X123.296 Y165.723 E173.16103
G1 X98.633 Y141.06 E176.64125
G1 X98.633 Y139.645 E176.78244
G1 X124.599 Y165.612 E180.44659
G1 X124.671 Y165.601 E180.45386
G1 X125.251 Y165.481 E180.51296
G1 X125.481 Y165.422 E180.53665
G1 X125.744 Y165.342 E180.56408
G1 X98.633 Y138.231 E184.38974
G1 X98.633 Y136.817 E184.53082
G1 X126.774 Y164.958 E188.50182
G1 X126.788 Y164.952 E188.50334
G1 X126.968 Y164.868 E188.52316
G1 X127.536 Y164.569 E188.58721
G1 X127.692 Y164.476 E188.60533
G1 X127.701 Y164.47 E188.60641
G1 X98.633 Y135.403 E192.70815
G1 X98.633 Y133.988 E192.84934
G1 X128.532 Y163.887 E197.06841
G1 X128.837 Y163.644 E197.10732
G1 X129 Y163.501 E197.12896
G1 X129.284 Y163.225 E197.16847
G1 X98.633 Y132.574 E201.49366
G1 X98.633 Y131.16 E201.63475
G1 X129.956 Y162.483 E206.05476
G1 X129.962 Y162.475 E206.05576
G1 X130.099 Y162.298 E206.0781
G1 X130.435 Y161.82 E206.1364
G1 X130.541 Y161.654 E206.15605
G1 X98.633 Y129.746 E210.65861
G1 X98.633 Y128.332 E210.7997
G1 X131.033 Y160.731 E215.37162
G1 X131.183 Y160.395 E215.40834
G1 X131.268 Y160.181 E215.43131
G1 X131.428 Y159.712 E215.48076
G1 X98.633 Y126.917 E220.10849
G1 X98.632 Y125.502 E220.24967
G1 X131.704 Y158.574 E224.91649
G1 X131.782 Y158.027 E224.97162
G1 X131.799 Y157.838 E224.99056
G1 X131.825 Y157.281 E225.0462
G1 X98.632 Y124.088 E229.73009
G1 X98.632 Y122.674 E229.87118
G1 X131.834 Y155.876 E234.55634
G1 X131.834 Y154.461 E234.69753
G1 X98.632 Y121.26 E239.38262
G1 X98.632 Y119.846 E239.52371
G1 X131.834 Y153.047 E244.2088
G1 X131.834 Y151.633 E244.34989
G1 X98.632 Y118.431 E249.03505
G1 X98.632 Y117.017 E249.17614
G1 X131.834 Y150.219 E253.8613
G1 X131.834 Y148.804 E254.00249
G1 X98.632 Y115.603 E258.68758
G1 X98.632 Y114.189 E258.82867
G1 X131.834 Y147.39 E263.51376
G1 X131.834 Y145.976 E263.65485
G1 X98.632 Y112.775 E268.33994
G1 X98.632 Y111.36 E268.48113
G1 X131.834 Y144.562 E273.16629
G1 X131.834 Y143.148 E273.30738
G1 X98.632 Y109.946 E277.99254
G1 X98.632 Y108.532 E278.13363
G1 X131.834 Y141.733 E282.81872
G1 X131.834 Y140.319 E282.95981
G1 X98.632 Y107.118 E287.6449
G1 X98.632 Y105.703 E287.78609
G1 X131.834 Y138.905 E292.47125
G1 X131.834 Y137.491 E292.61234
G1 X98.632 Y104.289 E297.2975
G1 X98.632 Y102.875 E297.43859
G1 X131.834 Y136.077 E302.12375
G1 X131.834 Y134.662 E302.26494
G1 X98.632 Y101.461 E306.95003
G1 X98.632 Y100.047 E307.09112
G1 X131.834 Y133.248 E311.77621
G1 X131.834 Y131.834 E311.9173
G1 X98.632 Y98.632 E316.60246
G1 X98.632 Y97.218 E316.74355
G1 X131.834 Y130.42 E321.42871
G1 X131.834 Y129.005 E321.5699
G1 X98.649 Y95.82 E326.25266
G1 X98.667 Y95.416 E326.29301
G1 X98.685 Y95.227 E326.31195
G1 X98.77 Y94.627 E326.37242
G1 X98.786 Y94.543 E326.38095
G1 X131.834 Y127.591 E331.04438
G1 X131.834 Y126.177 E331.18547
G1 X99.079 Y93.422 E335.80756
G1 X99.199 Y93.072 E335.84447
G1 X99.283 Y92.858 E335.86741
G1 X99.484 Y92.413 E335.91613
G1 X131.834 Y124.763 E340.48107
G1 X131.834 Y123.349 E340.62216
G1 X99.988 Y91.503 E345.11597
G1 X100.032 Y91.435 E345.12406
G1 X100.367 Y90.957 E345.1823
G1 X100.503 Y90.779 E345.20465
G1 X100.584 Y90.685 E345.21703
G1 X131.834 Y121.934 E349.62667
G1 X131.834 Y120.52 E349.76776
G1 X101.264 Y89.951 E354.08145
G1 X101.467 Y89.753 E354.10974
G1 X101.628 Y89.61 E354.13123
G1 X102.023 Y89.295 E354.18164
G1 X131.834 Y119.106 E358.3883
G1 X131.834 Y117.692 E358.52938
G1 X102.867 Y88.724 E362.61701
G1 X102.931 Y88.686 E362.62444
G1 X103.497 Y88.386 E362.68836
G1 X103.677 Y88.303 E362.70813
G1 X103.806 Y88.25 E362.72205
G1 X131.834 Y116.278 E366.6771
G1 X131.834 Y114.863 E366.81829
G1 X104.846 Y87.875 E370.62659
G1 X104.986 Y87.831 E370.64123
G1 X105.216 Y87.773 E370.6649
G1 X105.796 Y87.653 E370.724
G1 X105.988 Y87.623 E370.74339
G1 X106.007 Y87.622 E370.74529
G1 X131.834 Y113.449 E374.38976
G1 X131.834 Y112.035 E374.53085
G1 X107.327 Y87.528 E377.98905
G1 X108.741 Y87.528 E378.13014
G1 X131.834 Y110.621 E381.38881
G1 X131.834 Y109.206 E381.53
G1 X110.155 Y87.528 E384.58907
G1 X111.57 Y87.528 E384.73026
G1 X131.834 Y107.792 E387.58973
G1 X131.834 Y106.378 E387.73082
G1 X112.984 Y87.528 E390.39076
G1 X114.398 Y87.528 E390.53185
G1 X131.834 Y104.964 E392.99226
G1 X131.834 Y103.55 E393.13334
G1 X115.812 Y87.528 E395.39422
G1 X117.226 Y87.528 E395.53531
G1 X131.834 Y102.135 E397.59659
G1 X131.834 Y100.721 E397.73768
G1 X118.641 Y87.528 E399.59935
G1 X120.055 Y87.528 E399.74044
G1 X131.834 Y99.307 E401.40259
G1 X131.834 Y97.893 E401.54368
G1 X121.469 Y87.528 E403.00629
G1 X122.883 Y87.528 E403.14738
G1 X131.834 Y96.479 E404.41046
G1 X131.833 Y96.194 E404.4389
G1 X131.819 Y95.686 E404.48961
G1 X131.806 Y95.507 E404.50751
G1 X131.748 Y94.978 E404.56061
G1 X124.385 Y87.616 E405.59954
G1 X124.736 Y87.665 E405.6349
G1 X124.955 Y87.708 E405.65717
G1 X125.531 Y87.845 E405.71625
G1 X125.743 Y87.907 E405.73829
G1 X126.271 Y88.087 E405.79395
G1 X126.292 Y88.094 E405.79616
G1 X126.502 Y88.178 E405.81873
G1 X127.033 Y88.418 E405.87687
G1 X127.239 Y88.522 E405.8999
G1 X127.743 Y88.811 E405.95787
G1 X127.933 Y88.932 E405.98034
G1 X128.409 Y89.267 E406.03842
G1 X128.581 Y89.398 E406.06
G1 X129.05 Y89.8 E406.12163
G1 X129.204 Y89.944 E406.14267
G1 X129.607 Y90.361 E406.20053
G1 X129.749 Y90.523 E406.22203
G1 X130.13 Y90.999 E406.28286
G1 X130.248 Y91.16 E406.30278
G1 X130.583 Y91.67 E406.36367
G1 X130.675 Y91.825 E406.38165
G1 X130.974 Y92.393 E406.4457
G1 X131.057 Y92.571 E406.4653
G0 F9000 X131.272 Y93.089
G1 F1125 X126.271 Y88.087 E407.17106
G1 F1500 E400.67106
G0 F9000 X126.614 Y87.081
G0 X125.172 Y86.665
G0 X124.011 Y86.499
G0 X106.509 Y86.495
G0 X104.976 Y86.737
G0 X103.852 Y87.079
G0 X102.421 Y87.752
G0 X101.453 Y88.39
G0 X100.287 Y89.416
G0 X99.517 Y90.318
G0 X98.688 Y91.625
G0 X98.204 Y92.699
G0 X97.771 Y94.19
G0 X97.605 Y95.351
G0 X97.601 Y157.853
G0 X97.796 Y159.094
G0 X98.087 Y160.228
G0 X99.103 Y159.915
G1 F1500 E407.17106
G1 F1125 X104.438 Y165.249 E407.92382
G0 F300 X104.438 Y165.249 Z0.74
G0 F9000 X104.886 Y165.604
;TIME_ELAPSED:249.301855
;LAYER:-4
;TYPE:SUPPORT-INTERFACE
G1 F1500 X105.476 Y165.746 E407.944
G1 X105.685 Y165.786 E407.95108
G1 X106.302 Y165.874 E407.97181
G1 X106.512 Y165.894 E407.97882
G1 X107.186 Y165.925 E408.00127
G1 X107.287 Y165.928 E408.00463
G1 X123.164 Y165.928 E408.5327
G1 X123.681 Y165.914 E408.5499
G1 X123.876 Y165.901 E408.5564
G1 X124.491 Y165.832 E408.57698
G1 X124.72 Y165.796 E408.58469
G1 X125.297 Y165.677 E408.60429
G1 X125.53 Y165.618 E408.61228
G1 X125.588 Y165.6 E408.6143
G1 X104.872 Y165.6 E409.30332
G1 X104.667 Y165.54 E409.31042
G1 X104.097 Y165.345 E409.33046
G1 X103.881 Y165.26 E409.33818
G1 X103.748 Y165.2 E409.34303
G1 X126.713 Y165.2 E410.10685
G1 X126.882 Y165.13 E410.11294
G1 X127.07 Y165.042 E410.11984
G1 X127.529 Y164.8 E410.1371
G1 X102.942 Y164.8 E410.95487
G1 X102.62 Y164.616 E410.9672
G1 X102.418 Y164.487 E410.97517
G1 X102.294 Y164.4 E410.98021
G1 X128.172 Y164.4 E411.84092
G1 X128.302 Y164.315 E411.84608
G1 X128.493 Y164.176 E411.85394
G1 X128.713 Y164 E411.86331
G1 X101.744 Y164 E412.7603
G1 X101.293 Y163.614 E412.78005
G1 X101.278 Y163.6 E412.78073
G1 X129.184 Y163.6 E413.70889
G1 X129.568 Y163.229 E413.72665
G1 X129.595 Y163.2 E413.72796
G1 X100.877 Y163.2 E414.68313
G1 X100.708 Y163.025 E414.69122
G1 X100.554 Y162.85 E414.69897
G1 X100.514 Y162.8 E414.7011
G1 X129.948 Y162.8 E415.68008
G1 X130.108 Y162.613 E415.68827
G1 X130.257 Y162.421 E415.69635
G1 X130.271 Y162.4 E415.69719
G1 X100.194 Y162.4 E416.69756
G1 X100.185 Y162.388 E416.69805
G1 X100.046 Y162.197 E416.70591
G1 X99.916 Y162 E416.71376
G1 X130.552 Y162 E417.73272
G1 X130.592 Y161.943 E417.73503
G1 X130.721 Y161.741 E417.74301
G1 X130.801 Y161.6 E417.7484
G1 X99.659 Y161.6 E418.78419
G1 X99.609 Y161.515 E418.78747
G1 X99.443 Y161.2 E418.79931
