;FLAVOR:Marlin
;TIME:544
;Filament used: 0.31563m
;Layer height: 0.2
;MINX:92.261
;MINY:87.855
;MINZ:0.24
;MAXX:127.578
;MAXY:109.761
;MAXZ:7.49
;Generated with Cura_SteamEngine 4.9.1
M140 S60
M105
M190 S60
M104 S200
M105
M109 S200
M82 ;absolute extrusion mode
; Ender 3 Custom Start G-code
G92 E0 ; Reset Extruder
G28 ; Home all axes
G1 Z2.0 F3000 ; Move Z Axis up little to prevent scratching of Heat Bed
G1 X0.1 Y20 Z0.3 F5000.0 ; Move to start position
G1 X0.1 Y200.0 Z0.3 F1500.0 E15 ; Draw the first line
G1 X0.4 Y200.0 Z0.3 F5000.0 ; Move to side a little
G1 X0.4 Y20 Z0.3 F1500.0 E30 ; Draw the second line
G92 E0 ; Reset Extruder
G1 Z2.0 F3000 ; Move Z Axis up little to prevent scratching of Heat Bed
G1 X5 Y20 Z0.3 F5000.0 ; Move over to prevent blob squish
G92 E0
G92 E0
G1 F1500 E-6.5
;LAYER_COUNT:32
;LAYER:-6
M107
G0 F9000 X95.73 Y91.548 Z0.24
;TYPE:SUPPORT-INTERFACE
G1 F1500 E0
G1 F1125 X96.147 Y91.145 E0.04629
G1 X96.309 Y91.002 E0.06354
G1 X96.785 Y90.621 E0.11221
G1 X96.946 Y90.504 E0.1281
G1 X97.455 Y90.169 E0.17674
G1 X97.611 Y90.077 E0.19119
G1 X98.178 Y89.778 E0.24236
G1 X98.357 Y89.694 E0.25815
G1 X98.905 Y89.467 E0.30549
G1 X99.106 Y89.395 E0.32254
G1 X99.666 Y89.223 E0.3693
G1 X99.896 Y89.165 E0.38823
G1 X100.476 Y89.045 E0.43551
G1 X100.668 Y89.015 E0.45102
G1 X101.299 Y88.945 E0.5017
G1 X101.474 Y88.933 E0.5157
G1 X101.94 Y88.919 E0.55292
G1 X102.812 Y88.916 E0.62253
G1 X102.942 Y88.919 E0.63291
G1 X103.588 Y88.947 E0.68452
G1 X103.812 Y88.968 E0.70248
G1 X104.392 Y89.049 E0.74923
G1 X104.605 Y89.089 E0.76653
G1 X105.177 Y89.225 E0.81346
G1 X105.389 Y89.286 E0.83107
G1 X105.957 Y89.479 E0.87896
G1 X106.154 Y89.556 E0.89584
G1 X106.692 Y89.797 E0.9429
G1 X106.876 Y89.89 E0.95935
G1 X107.492 Y90.153 E1.01282
G1 X108.149 Y90.339 E1.06733
G1 X108.82 Y90.441 E1.1215
G1 X109.285 Y90.461 E1.15866
G1 X110.553 Y90.461 E1.25987
G1 X111.221 Y90.419 E1.3133
G1 X111.892 Y90.29 E1.36784
G1 X112.539 Y90.078 E1.42219
G1 X113.054 Y89.84 E1.46748
G1 X113.357 Y89.692 E1.4944
G1 X113.905 Y89.465 E1.54175
G1 X114.106 Y89.393 E1.55879
G1 X114.666 Y89.221 E1.60555
G1 X114.896 Y89.163 E1.62449
G1 X115.476 Y89.043 E1.67176
G1 X115.668 Y89.013 E1.68728
G1 X116.302 Y88.943 E1.73819
G1 X116.473 Y88.931 E1.75188
G1 X116.947 Y88.917 E1.78973
G1 X117.357 Y88.916 E1.82246
G1 X117.877 Y88.919 E1.86397
G1 X118.026 Y88.923 E1.87586
G1 X118.65 Y88.955 E1.92574
G1 X118.862 Y88.976 E1.94275
G1 X119.449 Y89.063 E1.99011
G1 X119.696 Y89.111 E2.0102
G1 X120.24 Y89.245 E2.05492
G1 X120.455 Y89.309 E2.07283
G1 X121.03 Y89.509 E2.12143
G1 X121.208 Y89.58 E2.13672
G1 X121.755 Y89.831 E2.18476
G1 X121.97 Y89.942 E2.20408
G1 X122.461 Y90.226 E2.24936
G1 X122.638 Y90.339 E2.26612
G1 X123.117 Y90.679 E2.31301
G1 X123.316 Y90.835 E2.33319
G1 X123.74 Y91.201 E2.3779
G1 X123.922 Y91.373 E2.39789
G1 X124.307 Y91.775 E2.44232
G1 X124.46 Y91.95 E2.46088
G1 X124.843 Y92.433 E2.51009
G1 X124.946 Y92.577 E2.52422
G1 X125.271 Y93.076 E2.57175
G1 X125.388 Y93.277 E2.59032
G1 X125.662 Y93.802 E2.63759
G1 X125.758 Y94.008 E2.65573
G1 X125.976 Y94.54 E2.70163
G1 X126.049 Y94.747 E2.71915
G1 X126.227 Y95.336 E2.76826
G1 X126.277 Y95.537 E2.7848
G1 X126.391 Y96.104 E2.83096
G1 X126.426 Y96.338 E2.84985
G1 X126.488 Y96.929 E2.89729
G1 X126.501 Y97.111 E2.91185
G1 X126.511 Y97.451 E2.939
G1 X126.513 Y97.593 E2.95034
G1 X126.512 Y99.761 E3.1234
G1 X126.506 Y99.93 E3.1369
G1 X126.445 Y100.88 E3.21289
G1 X126.424 Y101.059 E3.22727
G1 X126.315 Y101.681 E3.27768
G1 X126.258 Y101.932 E3.29823
G1 X126.099 Y102.504 E3.34562
G1 X126.048 Y102.665 E3.3591
G1 X125.865 Y103.161 E3.4013
G1 X125.847 Y103.204 E3.40502
G1 X125.567 Y103.814 E3.4586
G1 X125.46 Y104.02 E3.47713
G1 X125.166 Y104.528 E3.52398
G1 X125.052 Y104.708 E3.54099
G1 X124.771 Y105.111 E3.5802
G1 X124.664 Y105.249 E3.59414
G1 X124.254 Y105.742 E3.64533
G1 X124.107 Y105.902 E3.66267
G1 X123.679 Y106.329 E3.71093
G1 X123.531 Y106.465 E3.72698
G1 X123.241 Y106.713 E3.75744
G1 X123.152 Y106.781 E3.76638
G1 X122.618 Y107.173 E3.81925
G1 X122.458 Y107.28 E3.83462
G1 X121.929 Y107.594 E3.88373
G1 X121.761 Y107.685 E3.89898
G1 X121.233 Y107.941 E3.94582
G1 X121.131 Y107.985 E3.95468
G1 X120.494 Y108.226 E4.00905
G1 X120.279 Y108.296 E4.0271
G1 X119.711 Y108.451 E4.0741
G1 X119.499 Y108.499 E4.09145
G1 X118.757 Y108.627 E4.15155
G1 X118.673 Y108.635 E4.15829
G1 X117.726 Y108.692 E4.23402
G1 X117.57 Y108.697 E4.24648
G1 X102.246 Y108.697 E5.4697
G1 X102.101 Y108.692 E5.48129
G1 X101.159 Y108.635 E5.55662
G1 X100.959 Y108.61 E5.57271
G1 X100.335 Y108.502 E5.62326
G1 X100.142 Y108.459 E5.63904
G1 X99.555 Y108.299 E5.68761
G1 X99.355 Y108.234 E5.7044
G1 X98.715 Y107.994 E5.75896
G1 X98.594 Y107.939 E5.76957
G1 X98.05 Y107.676 E5.8178
G1 X97.829 Y107.556 E5.83787
G1 X97.337 Y107.259 E5.88375
G1 X97.163 Y107.141 E5.90053
G1 X96.548 Y106.682 E5.96179
G1 X96.476 Y106.619 E5.96942
G1 X96.028 Y106.213 E6.01769
G1 X95.825 Y106.007 E6.04077
G1 X95.171 Y105.257 E6.12021
G1 X95.036 Y105.081 E6.13791
G1 X94.685 Y104.565 E6.18773
G1 X94.577 Y104.39 E6.20414
G1 X94.267 Y103.83 E6.25524
G1 X94.194 Y103.685 E6.26819
G1 X93.984 Y103.213 E6.30943
G1 X93.933 Y103.082 E6.32065
G1 X93.714 Y102.456 E6.37359
G1 X93.65 Y102.238 E6.39173
G1 X93.507 Y101.66 E6.43926
G1 X93.472 Y101.487 E6.45335
G1 X93.396 Y101.026 E6.49064
G1 X93.383 Y100.895 E6.50115
G1 X93.318 Y99.903 E6.58051
G1 X93.313 Y99.761 E6.59185
G1 X93.313 Y97.577 E6.76619
G1 X93.316 Y97.465 E6.77513
G1 X93.347 Y96.808 E6.82763
G1 X93.365 Y96.619 E6.84279
G1 X93.45 Y96.019 E6.89116
G1 X93.493 Y95.797 E6.90921
G1 X93.629 Y95.228 E6.95591
G1 X93.693 Y95.009 E6.97412
G1 X93.879 Y94.464 E7.02009
G1 X93.963 Y94.25 E7.03844
G1 X94.201 Y93.723 E7.0846
G1 X94.308 Y93.513 E7.10342
G1 X94.593 Y93.013 E7.14936
G1 X94.712 Y92.826 E7.16705
G1 X95.047 Y92.348 E7.21364
G1 X95.184 Y92.171 E7.23151
G1 X95.585 Y91.702 E7.28077
G1 X95.73 Y91.548 E7.29765
G0 F9000 X96 Y91.287
G1 F1125 X96 Y106.184 E8.48679
G0 F9000 X97.6 Y107.417
G1 F1125 X97.6 Y90.083 E9.87047
G0 F9000 X99.2 Y89.366
G1 F1125 X99.2 Y108.175 E11.37188
G0 F9000 X100.8 Y108.582
G1 F1125 X100.8 Y89 E12.935
G0 F9000 X102.4 Y88.917
G1 F1125 X102.4 Y108.697 E14.51393
G0 F9000 X104 Y108.697
G1 F1125 X104 Y88.995 E16.08663
G0 F9000 X105.6 Y89.358
G1 F1125 X105.6 Y108.697 E17.63035
G0 F9000 X107.2 Y108.697
G1 F1125 X107.2 Y90.029 E19.12051
G0 F9000 X108.8 Y90.438
G1 F1125 X108.8 Y108.697 E20.57802
G0 F9000 X110.4 Y108.697
G1 F1125 X110.4 Y90.461 E22.0337
G0 F9000 X112 Y90.254
G1 F1125 X112 Y108.697 E23.5059
G0 F9000 X113.6 Y108.697
G1 F1125 X113.6 Y89.591 E25.03102
G0 F9000 X115.2 Y89.1
G1 F1125 X115.2 Y108.697 E26.59534
G0 F9000 X116.8 Y108.697
G1 F1125 X116.8 Y88.921 E28.17395
G0 F9000 X118.4 Y88.943
G1 F1125 X118.4 Y108.652 E29.7472
G0 F9000 X120 Y108.373
G1 F1125 X120 Y89.186 E31.27879
G0 F9000 X121.6 Y89.76
G1 F1125 X121.6 Y107.764 E32.71595
G0 F9000 X123.2 Y106.745
G1 F1125 X123.2 Y90.745 E33.99314
G0 F9000 X124.8 Y92.379
G1 F1125 X124.8 Y105.07 E35.00619
G0 F9000 X126.4 Y101.196
G1 F1125 X126.4 Y96.165 E35.40779
G1 F1500 E28.90779
G0 F9000 X127.442 Y95.931
G0 X127.064 Y94.425
G0 X126.621 Y93.339
G0 X125.83 Y91.985
G0 X125.099 Y91.064
G0 X123.985 Y90.007
G0 X123.022 Y89.321
G0 X121.637 Y88.605
G0 X120.526 Y88.22
G0 X119 Y87.921
G0 X116.819 Y87.855
G0 X101.196 Y87.885
G0 X99.655 Y88.128
G0 X98.531 Y88.47
G0 X97.1 Y89.143
G0 X96.132 Y89.781
G0 X94.966 Y90.807
G0 X94.343 Y91.536
G0 X93.476 Y92.825
G0 X94.4 Y93.351
G1 F1500 E35.40779
G1 F1125 X94.4 Y104.07 E36.26342
G0 F300 X94.4 Y104.07 Z0.54
G0 F9000 X94.726 Y104.626
;TIME_ELAPSED:32.643209
;LAYER:-5
;TYPE:SUPPORT
G1 F1125 X97.391 Y107.29 E36.63941
G1 X97.828 Y107.555 E36.69041
G1 X98.05 Y107.675 E36.71559
G1 X98.594 Y107.937 E36.77584
G1 X98.714 Y107.993 E36.78905
G1 X99.354 Y108.233 E36.85725
G1 X99.554 Y108.297 E36.8782
G1 X99.909 Y108.394 E36.91492
G1 X93.615 Y102.101 E37.80301
G1 X93.506 Y101.659 E37.84843
G1 X93.471 Y101.486 E37.86604
G1 X93.396 Y101.025 E37.91264
G1 X93.383 Y100.894 E37.92578
G1 X93.351 Y100.422 E37.97298
G1 X101.589 Y108.66 E39.13546
G1 X102.101 Y108.691 E39.18664
G1 X102.246 Y108.696 E39.20111
G1 X103.039 Y108.696 E39.28024
G1 X93.312 Y98.969 E40.65282
G1 X93.312 Y97.576 E40.79182
G1 X93.312 Y97.555 E40.79391
G1 X104.453 Y108.696 E42.36603
G1 X105.868 Y108.696 E42.50722
G1 X93.417 Y96.245 E44.26419
G1 X93.449 Y96.018 E44.28706
G1 X93.492 Y95.796 E44.30963
G1 X93.629 Y95.227 E44.36802
G1 X93.67 Y95.084 E44.38287
G1 X107.282 Y108.696 E46.30367
G1 X108.696 Y108.696 E46.44476
G1 X94.051 Y94.051 E48.51132
G1 X94.2 Y93.723 E48.54727
G1 X94.307 Y93.512 E48.57088
G1 X94.532 Y93.118 E48.61615
G1 X110.11 Y108.696 E50.81437
G1 X111.524 Y108.696 E50.95546
G1 X95.102 Y92.273 E53.27286
G1 X95.182 Y92.17 E53.28587
G1 X95.583 Y91.701 E53.34744
G1 X95.729 Y91.547 E53.36861
G1 X95.76 Y91.518 E53.37285
G1 X112.939 Y108.696 E55.79692
G1 X114.353 Y108.696 E55.93801
G1 X96.503 Y90.846 E58.45684
G1 X96.784 Y90.621 E58.49276
G1 X96.945 Y90.504 E58.51262
G1 X97.325 Y90.254 E58.558
G1 X115.767 Y108.696 E61.16037
G1 X117.181 Y108.696 E61.30146
G1 X98.236 Y89.75 E63.97487
G1 X98.356 Y89.694 E63.98808
G1 X98.904 Y89.467 E64.04727
G1 X99.105 Y89.395 E64.06857
G1 X99.25 Y89.35 E64.08372
G1 X118.542 Y108.642 E66.80603
G1 X118.672 Y108.635 E66.81902
G1 X118.755 Y108.627 E66.82734
G1 X119.498 Y108.498 E66.90259
G1 X119.71 Y108.45 E66.92428
G1 X119.752 Y108.438 E66.92864
G1 X100.379 Y89.065 E69.66238
G1 X100.474 Y89.045 E69.67206
G1 X100.667 Y89.015 E69.69155
G1 X101.297 Y88.944 E69.75481
G1 X101.473 Y88.933 E69.77241
G1 X101.655 Y88.927 E69.79058
G1 X120.826 Y108.098 E72.49581
G1 X121.13 Y107.985 E72.52817
G1 X121.232 Y107.941 E72.53926
G1 X121.76 Y107.684 E72.59785
G1 X121.803 Y107.661 E72.60272
G1 X103.067 Y88.925 E75.24657
G1 X103.586 Y88.946 E75.2984
G1 X103.811 Y88.968 E75.32095
G1 X104.391 Y89.048 E75.37937
G1 X104.604 Y89.089 E75.40102
G1 X104.658 Y89.102 E75.40656
G1 X122.681 Y107.125 E77.9498
G1 X123.151 Y106.78 E78.00797
G1 X123.24 Y106.713 E78.01909
G1 X123.478 Y106.507 E78.0505
G1 X106.846 Y89.876 E80.39738
G1 X106.874 Y89.89 E80.40051
G1 X107.491 Y90.153 E80.46743
G1 X108.148 Y90.339 E80.53556
G1 X108.818 Y90.441 E80.60319
G1 X108.826 Y90.441 E80.60398
G1 X124.192 Y105.807 E82.77229
G1 X124.252 Y105.742 E82.78112
G1 X124.663 Y105.249 E82.84516
G1 X124.77 Y105.111 E82.86259
G1 X124.828 Y105.029 E82.87261
G1 X110.259 Y90.46 E84.92845
G1 X110.552 Y90.46 E84.95769
G1 X111.22 Y90.419 E85.02447
G1 X111.566 Y90.353 E85.05961
G1 X125.376 Y104.163 E87.00835
G1 X125.459 Y104.019 E87.02494
G1 X125.565 Y103.813 E87.04805
G1 X125.842 Y103.214 E87.1139
G1 X112.652 Y90.025 E88.97508
G1 X113.052 Y89.84 E89.01906
G1 X113.152 Y89.787 E89.03035
G1 X113.356 Y89.692 E89.05281
G1 X113.623 Y89.581 E89.08166
G1 X126.195 Y102.154 E90.85577
G1 X126.257 Y101.931 E90.87887
G1 X126.314 Y101.681 E90.90445
G1 X126.432 Y100.998 E90.97361
G1 X126.434 Y100.979 E90.97552
G1 X114.674 Y89.218 E92.63505
G1 X114.894 Y89.163 E92.65768
G1 X115.474 Y89.043 E92.71678
G1 X115.667 Y89.013 E92.73627
G1 X115.862 Y88.992 E92.75584
G1 X126.512 Y99.641 E94.2586
G1 X126.512 Y98.227 E94.39969
G1 X117.2 Y88.916 E95.71364
G1 X117.356 Y88.916 E95.72921
G1 X117.876 Y88.918 E95.78109
G1 X118.025 Y88.923 E95.79597
G1 X118.648 Y88.954 E95.85821
G1 X118.653 Y88.955 E95.85872
G1 X126.47 Y96.772 E96.96178
G1 X126.425 Y96.337 E97.00542
G1 X126.39 Y96.103 E97.02902
G1 X126.276 Y95.537 E97.08663
G1 X126.226 Y95.335 E97.1074
G1 X126.13 Y95.017 E97.14054
G1 X120.408 Y89.295 E97.94798
G1 X120.454 Y89.309 E97.95278
G1 X121.029 Y89.509 E98.01352
G1 X121.207 Y89.579 E98.03261
G1 X121.753 Y89.83 E98.09257
G1 X121.969 Y89.941 E98.1168
G1 X122.46 Y90.226 E98.17345
G1 X122.637 Y90.339 E98.1944
G1 X123.116 Y90.678 E98.25295
G1 X123.315 Y90.834 E98.27818
G1 X123.656 Y91.129 E98.32317
G1 X123.739 Y91.201 E98.33414
G1 X123.921 Y91.373 E98.35912
G1 X124.306 Y91.775 E98.41466
G0 F9000 X124.337 Y91.81
G1 F1125 X123.656 Y91.129 E98.51076
G1 F1500 E92.01076
G0 F9000 X124.351 Y90.322
G0 X125.284 Y91.276
G0 X126.183 Y92.526
G0 X126.73 Y93.574
G0 X127.251 Y95.044
G0 X127.481 Y96.195
G0 X127.578 Y97.589
G0 X127.569 Y99.977
G0 X127.473 Y101.238
G0 X127.117 Y102.814
G0 X126.519 Y104.29
G0 X125.587 Y105.799
G0 X124.42 Y107.093
G0 X123.23 Y108.043
G0 X121.69 Y108.903
G0 X120.585 Y109.316
G0 X118.879 Y109.685
G0 X117.593 Y109.761
G0 X102.056 Y109.755
G0 X100.796 Y109.662
G0 X99.251 Y109.319
G0 X98.257 Y108.947
G0 X96.841 Y108.202
G0 X97.391 Y107.29
G1 F1500 E98.51076
G1 F1125 X97.337 Y107.258 E98.51702
G1 X97.162 Y107.14 E98.53808
G1 X96.548 Y106.681 E98.61458
G1 X96.475 Y106.618 E98.6242
G1 X96.027 Y106.211 E98.68459
G1 X95.824 Y106.005 E98.71345
G1 X95.17 Y105.255 E98.81274
G1 X95.088 Y105.155 E98.82564
G1 X95.036 Y105.08 E98.83475
G1 F1500 E92.33475
G0 F300 X95.036 Y105.08 Z0.74
G0 F9000 X94.352 Y105.937
G0 X95.289 Y106.979
G0 X96.543 Y108.007
G0 X97.556 Y108.619
G0 X99.001 Y109.238
G0 X99.321 Y109.325
G0 X100.783 Y109.66
G0 X100.93 Y108.808
;TIME_ELAPSED:69.055316
;LAYER:-4
;TYPE:SUPPORT-INTERFACE
G1 F1500 E98.83475
G1 X101.038 Y108.824 E98.83838
G1 X101.137 Y108.833 E98.84169
G1 X102.099 Y108.892 E98.87374
G1 X102.239 Y108.897 E98.8784
G1 X117.577 Y108.897 E99.38855
G1 X117.727 Y108.892 E99.39354
G1 X118.773 Y108.827 E99.4284
G1 X118.84 Y108.816 E99.43065
G1 X118.931 Y108.8 E99.43373
G1 X100.883 Y108.8 E100.03401
G1 X100.296 Y108.698 E100.05382
G1 X100.09 Y108.652 E100.06084
G1 X99.493 Y108.489 E100.08143
G1 X99.287 Y108.423 E100.08862
G1 X99.225 Y108.4 E100.09082
G1 X120.597 Y108.4 E100.80166
G1 X121.257 Y108.149 E100.82514
G1 X121.325 Y108.118 E100.82763
G1 X121.568 Y108 E100.83661
G1 X98.26 Y108 E101.61184
G1 X97.952 Y107.851 E101.62322
G1 X97.74 Y107.736 E101.63124
G1 X97.515 Y107.6 E101.63999
G1 X122.308 Y107.6 E102.4646
G1 X122.551 Y107.456 E102.474
G1 X122.739 Y107.332 E102.48149
G1 X122.917 Y107.2 E102.48886
G1 X96.906 Y107.2 E103.35399
G1 X96.423 Y106.838 E103.37406
G1 X96.379 Y106.8 E103.376
G1 X123.445 Y106.8 E104.27622
G1 X123.661 Y106.616 E104.28565
G1 X123.82 Y106.47 E104.29283
G1 X123.89 Y106.4 E104.29613
G1 X95.936 Y106.4 E105.22588
G1 X95.883 Y106.352 E105.22826
G1 X95.691 Y106.156 E105.23738
G1 X95.554 Y106 E105.24429
G1 X124.287 Y106 E106.19995
G1 X124.408 Y105.869 E106.20588
G1 X124.631 Y105.6 E106.21751
G1 X95.205 Y105.6 E107.19622
G1 X95.011 Y105.378 E107.20602
G1 X94.929 Y105.276 E107.21038
G1 X94.875 Y105.2 E107.21348
G1 X124.952 Y105.2 E108.21384
G1 X125.221 Y104.814 E108.22949
G1 X125.229 Y104.8 E108.23003
G1 X94.602 Y104.8 E109.24869
G1 X94.519 Y104.677 E109.25362
G1 X94.402 Y104.487 E109.26104
G1 X94.353 Y104.4 E109.26436
G1 X125.47 Y104.4 E110.29932
G1 X125.635 Y104.115 E110.31027
G1 X125.694 Y104 E110.31457
G1 X94.132 Y104 E111.36433
G1 X94.092 Y103.927 E111.3671
G1 X94.016 Y103.775 E111.37275
G1 X93.938 Y103.6 E111.37912
G1 X125.884 Y103.6 E112.44165
G1 X126.028 Y103.287 E112.45311
G1 X126.054 Y103.226 E112.45531
G1 X126.063 Y103.2 E112.45623
G1 X93.763 Y103.2 E113.53053
G1 X93.622 Y102.8 E113.54464
G1 X126.21 Y102.8 E114.62852
G1 X126.236 Y102.732 E114.63094
G1 X126.289 Y102.564 E114.6368
G1 X126.334 Y102.4 E114.64246
G1 X93.489 Y102.4 E115.73489
G1 X93.458 Y102.294 E115.73856
G1 X93.385 Y102 E115.74863
G1 X126.445 Y102 E116.84821
G1 X126.455 Y101.966 E116.84939
G1 X126.51 Y101.725 E116.85762
G1 X126.531 Y101.6 E116.86183
G1 X93.29 Y101.6 E117.96743
G1 X93.273 Y101.514 E117.97035
G1 X93.221 Y101.2 E117.98093
G1 X126.601 Y101.2 E119.09116
G1 X126.631 Y101.032 E119.09683
G1 X126.643 Y100.904 E119.10111
G1 X126.649 Y100.8 E119.10457
G1 X93.177 Y100.8 E120.21786
G1 X93.15 Y100.4 E120.23119
G1 X126.675 Y100.4 E121.34624
G1 X126.701 Y100 E121.35957
G1 X93.124 Y100 E122.47634
G1 X93.118 Y99.903 E122.47958
G1 X93.113 Y99.761 E122.4843
G1 X93.113 Y99.6 E122.48966
G1 X126.712 Y99.6 E123.60716
G1 X126.712 Y99.2 E123.62047
G1 X93.113 Y99.2 E124.73798
G1 X93.113 Y98.8 E124.75128
G1 X126.712 Y98.8 E125.86879
G1 X126.712 Y98.4 E125.88209
G1 X93.113 Y98.4 E126.9996
G1 X93.113 Y98 E127.0129
G1 X126.712 Y98 E128.13041
